; generated by Slic3r 0.9.9 on 2013-07-10 at 21:52:46

; layer_height = 0.31
; perimeters = 3
; top_solid_layers = 3
; bottom_solid_layers = 3
; fill_density = 0.4
; perimeter_speed = 60
; infill_speed = 120
; travel_speed = 260
; nozzle_diameter = 0.5
; filament_diameter = 2.92
; extrusion_multiplier = 1
; perimeters extrusion width = 0.55mm
; infill extrusion width = 0.55mm
; solid infill extrusion width = 0.55mm
; top infill extrusion width = 0.55mm
; first layer extrusion width = 1.00mm

G21 ; set units to millimeters
M190 S115 ; wait for bed temperature to be reached
M104 S230 ; set temperature
G28 ; home all axes
G1 Z5 F5000 ; lift nozzle
M109 S230 ; wait for temperature to be reached
G90 ; use absolute coordinates
G92 E0
M82 ; use absolute distances for extrusion
G1 F1800.000 E-1.40000
G92 E0
G1 Z-0.900 F15600.000
G1 X58.619 Y55.799
G1 F1800.000 E1.40000
G1 X59.239 Y55.229 F1080.000 E1.45614
G1 X59.929 Y54.739 E1.51254
G1 X61.089 Y54.079 E1.60150
G1 X61.659 Y53.829 E1.64298
G1 X62.239 Y53.619 E1.68410
G1 X74.209 Y50.599 E2.50694
G1 X74.879 Y50.499 E2.55209
G1 X75.559 Y50.469 E2.59746
G1 X76.629 Y50.469 E2.66878
G1 X77.259 Y50.529 E2.71096
G1 X77.579 Y50.579 E2.73254
G1 X78.199 Y50.729 E2.77506
G1 X89.379 Y53.909 E3.54980
G1 X89.999 Y54.119 E3.59343
G1 X90.609 Y54.389 E3.63789
G1 X91.829 Y55.089 E3.73164
G1 X92.099 Y55.269 E3.75327
G1 X92.609 Y55.659 E3.79607
G1 X93.079 Y56.109 E3.83944
G1 X101.389 Y64.659 E4.63414
G1 X101.819 Y65.199 E4.68015
G1 X102.009 Y65.489 E4.70326
G1 X102.509 Y66.349 E4.76957
G1 X102.799 Y66.899 E4.81101
G1 X103.029 Y67.469 E4.85198
G1 X103.209 Y68.059 E4.89309
G1 X106.089 Y79.319 E5.66776
G1 X106.229 Y79.999 E5.71404
G1 X106.269 Y80.339 E5.73686
G1 X106.299 Y81.029 E5.78289
G1 X106.299 Y82.099 E5.85421
G1 X106.239 Y82.729 E5.89639
G1 X106.189 Y83.039 E5.91732
G1 X106.039 Y83.659 E5.95984
G1 X102.809 Y95.009 E6.74639
G1 X102.699 Y95.329 E6.76894
G1 X102.419 Y95.939 E6.81368
G1 X101.929 Y96.819 E6.88081
G1 X101.599 Y97.359 E6.92299
G1 X101.219 Y97.859 E6.96485
G1 X100.799 Y98.319 E7.00637
G1 X100.569 Y98.539 E7.02758
G1 X92.029 Y106.369 E7.79984
G1 X91.579 Y106.749 E7.83910
G1 X91.099 Y107.089 E7.87830
G1 X90.589 Y107.379 E7.91741
G1 X90.059 Y107.629 E7.95647
G1 X89.519 Y107.839 E7.99509
G1 X88.949 Y107.999 E8.03455
G1 X77.099 Y110.269 E8.83875
G1 X76.509 Y110.359 E8.87853
G1 X75.609 Y110.389 E8.93855
G1 X75.009 Y110.349 E8.97863
G1 X74.409 Y110.249 E9.01917
G1 X73.829 Y110.099 E9.05910
G1 X62.849 Y106.289 E9.83376
G1 X62.019 Y105.939 E9.89380
G1 X61.499 Y105.649 E9.93348
G1 X60.999 Y105.309 E9.97378
G1 X60.539 Y104.929 E10.01355
G1 X59.899 Y104.289 E10.07388
G1 X52.789 Y96.059 E10.79879
G1 X52.249 Y95.339 E10.85878
G1 X51.939 Y94.819 E10.89913
G1 X51.679 Y94.279 E10.93908
G1 X51.379 Y93.429 E10.99916
G1 X51.239 Y92.849 E11.03893
G1 X49.219 Y82.269 E11.75685
G1 X49.179 Y81.969 E11.77703
G1 X49.149 Y81.369 E11.81707
G1 X49.149 Y81.069 E11.83706
G1 X49.189 Y80.469 E11.87714
G1 X49.289 Y79.869 E11.91769
G1 X49.529 Y78.999 E11.97784
G1 X52.899 Y69.329 E12.66039
G1 X57.129 Y58.149 E13.45713
G1 X57.349 Y57.629 E13.49476
G1 X57.609 Y57.139 E13.53174
G1 X57.909 Y56.669 E13.56890
G1 X58.249 Y56.219 E13.60649
G1 X58.526 Y55.896 E13.63488
G1 F1800.000 E12.23488
G92 E0
G1 X67.680 Y67.529 F15600.000
G1 F1800.000 E1.40000
G1 X75.643 Y66.007 F1080.000 E1.94036
G1 X82.963 Y68.553 E2.45689
G1 X87.804 Y74.158 E2.95053
G1 X89.132 Y81.107 E3.42214
G1 X86.912 Y87.490 E3.87257
G1 X82.029 Y91.708 E4.30265
G1 X75.980 Y92.864 E4.71314
G1 X71.520 Y91.313 E5.02787
G1 X65.354 Y96.639 E5.57094
G1 X60.091 Y90.546 E6.10757
G1 X58.351 Y81.444 E6.72523
G1 X61.264 Y73.071 E7.31611
G1 X67.579 Y67.616 E7.87231
G1 X67.162 Y66.797 F15600.000
G1 X67.278 Y66.697 F1080.000 E7.88253
G1 X75.710 Y65.085 E8.45477
G1 X83.482 Y67.788 E9.00319
G1 X88.636 Y73.755 E9.52871
G1 X90.054 Y81.175 E10.03221
G1 X87.676 Y88.009 E10.51453
G1 X82.431 Y92.540 E10.97649
G1 X75.912 Y93.786 E11.41887
G1 X71.713 Y92.325 E11.71519
G1 X65.262 Y97.898 E12.28341
G1 X59.259 Y90.949 E12.89548
G1 X57.430 Y81.377 E13.54504
G1 X60.499 Y72.552 E14.16780
G1 X67.060 Y66.885 E14.74566
G1 X66.578 Y66.122 F15600.000
G1 X66.875 Y65.865 F756.000 E14.77183
G1 X75.778 Y64.163 E15.37595
G1 X84.001 Y67.024 E15.95626
G1 X89.468 Y73.352 E16.51367
G1 X90.976 Y81.242 E17.04905
G1 X88.441 Y88.529 E17.56326
G1 X82.834 Y93.372 E18.05711
G1 X75.845 Y94.708 E18.53137
G1 X71.907 Y93.338 E18.80928
G1 X65.558 Y98.822 E19.36848
G1 X75.891 Y102.416 E20.09768
G1 X86.733 Y100.344 E20.83344
G1 X86.847 Y100.941 E20.87392
G1 X75.845 Y103.043 E21.62054
G1 X65.384 Y99.404 E22.35880
G1 X58.427 Y91.351 E23.06810
G1 X56.508 Y81.309 E23.74953
G1 X59.735 Y72.033 E24.40419
G1 X66.477 Y66.209 E24.99799
G1 X66.949 Y66.251 F15600.000
G1 X82.587 Y69.108
G1 X80.611 Y68.420 F2160.000 E25.14023
G1 X87.333 Y75.142 E25.78653
G1 X87.637 Y76.734 E25.89674
G1 X78.637 Y67.733 E26.76216
G1 X76.662 Y67.046 E26.90430
G1 X87.942 Y78.326 E27.98885
G1 X88.246 Y79.918 E28.09905
G1 X75.098 Y66.770 E29.36327
G1 X74.017 Y66.977 E29.43810
G1 X88.370 Y81.330 E30.81816
G1 X88.037 Y82.285 E30.88694
G1 X72.935 Y67.183 E32.33900
G1 X71.854 Y67.390 E32.41383
G1 X87.705 Y83.240 E33.93789
G1 X87.373 Y84.196 E34.00666
G1 X70.773 Y67.596 E35.60272
G1 X69.692 Y67.803 E35.67755
G1 X87.040 Y85.151 E37.34560
G1 X86.708 Y86.107 E37.41438
G1 X68.611 Y68.010 E39.15443
G1 X67.689 Y68.376 E39.22185
G1 X86.376 Y87.062 E41.01856
G1 X85.704 Y87.678 E41.08052
G1 X66.998 Y68.973 E42.87909
G1 X66.307 Y69.570 E42.94116
G1 X85.013 Y88.275 E44.73973
G1 X84.322 Y88.872 E44.80180
G1 X65.617 Y70.166 E46.60037
G1 X64.926 Y70.763 E46.66244
G1 X83.631 Y89.469 E48.46101
G1 X82.940 Y90.066 E48.52308
G1 X64.235 Y71.360 E50.32165
G1 X63.544 Y71.957 E50.38372
G1 X82.249 Y90.663 E52.18229
G1 X81.457 Y91.158 E52.24581
G1 X62.853 Y72.554 E54.03467
G1 X62.162 Y73.151 E54.09674
G1 X80.376 Y91.365 E55.84808
G1 X79.295 Y91.572 E55.92292
G1 X61.651 Y73.928 E57.61941
G1 X61.319 Y74.883 E57.68819
G1 X78.214 Y91.778 E59.31269
G1 X77.133 Y91.985 E59.38752
G1 X60.986 Y75.839 E60.94002
G1 X60.654 Y76.794 E61.00880
G1 X76.052 Y92.192 E62.48930
G1 X74.096 Y91.524 E62.62979
G1 X60.322 Y77.749 E63.95422
G1 X59.989 Y78.705 E64.02300
G1 X72.122 Y90.837 E65.18953
G1 X70.948 Y90.952 E65.26967
G1 X59.657 Y79.660 E66.35534
G1 X59.325 Y80.616 E66.42412
G1 X70.257 Y91.548 E67.47531
G1 X69.566 Y92.145 E67.53738
G1 X59.045 Y81.623 E68.54908
G1 X59.349 Y83.215 E68.65928
G1 X68.876 Y92.742 E69.57529
G1 X68.185 Y93.339 E69.63736
G1 X59.653 Y84.807 E70.45768
G1 X59.957 Y86.399 E70.56788
G1 X67.494 Y93.936 E71.29250
G1 X66.803 Y94.533 E71.35458
G1 X60.262 Y87.992 E71.98351
G1 X60.566 Y89.584 E72.09371
G1 X66.112 Y95.129 E72.62694
G1 X65.421 Y95.726 E72.68902
M104 S220 ; set temperature
M140 S110 ; set bed temperature
G1 F1800.000 E71.28902
G92 E0
G1 Z-0.590 F15600.000
G1 X64.633 Y97.156
G1 F1800.000 E1.40000
G1 X59.268 Y90.945 F3600.000 E1.60490
G1 X57.439 Y81.377 E1.84806
G1 X60.507 Y72.557 E2.08119
G1 X67.282 Y66.705 E2.30466
G1 X75.710 Y65.095 E2.51887
G1 X83.476 Y67.796 E2.72415
G1 X88.627 Y73.759 E2.92085
G1 X90.044 Y81.174 E3.10931
G1 X87.669 Y88.004 E3.28983
G1 X82.427 Y92.531 E3.46273
G1 X75.913 Y93.777 E3.62830
G1 X71.711 Y92.315 E3.73935
G1 X65.263 Y97.885 E3.95207
G1 X64.686 Y97.217 E3.97410
G1 X64.610 Y97.955 F15600.000
G1 X58.765 Y91.188 F3600.000 E4.19732
G1 X56.882 Y81.337 E4.44769
G1 X60.045 Y72.244 E4.68803
G1 X67.039 Y66.203 E4.91873
G1 X75.750 Y64.538 E5.14014
G1 X83.790 Y67.334 E5.35264
G1 X89.130 Y73.516 E5.55656
G1 X90.601 Y81.215 E5.75223
G1 X88.130 Y88.318 E5.93997
G1 X82.671 Y93.034 E6.12008
G1 X75.872 Y94.333 E6.29286
G1 X71.828 Y92.927 E6.39975
G1 X65.207 Y98.646 E6.61816
G1 X64.663 Y98.016 E6.63894
G1 X64.202 Y98.307 F15600.000
G1 X58.263 Y91.431 F2520.000 E6.86577
G1 X56.326 Y81.296 E7.12336
G1 X59.583 Y71.930 E7.37091
G1 X66.795 Y65.700 E7.60882
G1 X75.791 Y63.981 E7.83745
G1 X84.104 Y66.872 E8.05716
G1 X89.632 Y73.273 E8.26829
G1 X91.158 Y81.255 E8.47118
G1 X88.592 Y88.631 E8.66613
G1 X82.914 Y93.537 E8.85346
G1 X75.832 Y94.890 E9.03345
G1 X71.945 Y93.538 E9.13617
G1 X65.905 Y98.756 E9.33542
G1 X75.904 Y102.234 E9.59971
G1 X86.874 Y100.137 E9.87851
G1 X87.054 Y101.081 E9.90249
G1 X75.832 Y103.226 E10.18772
G1 X65.281 Y99.556 E10.46659
G1 X64.255 Y98.368 E10.50576
G1 X64.379 Y97.798 F15600.000
G1 X66.637 Y96.182
G1 X88.363 Y74.456 F7200.000 E11.27837
G1 X88.195 Y73.856 E11.29404
G1 X65.031 Y97.019 E12.11778
G1 X64.675 Y96.607 E12.13147
G1 X87.838 Y73.444 E12.95521
G1 X87.482 Y73.032 E12.96890
G1 X64.319 Y96.195 E13.79264
G1 X63.963 Y95.783 E13.80634
G1 X87.126 Y72.620 E14.63007
G1 X86.770 Y72.207 E14.64377
G1 X63.607 Y95.371 E15.46750
G1 X63.251 Y94.958 E15.48120
G1 X86.414 Y71.795 E16.30494
G1 X86.058 Y71.383 E16.31863
G1 X62.895 Y94.546 E17.14237
G1 X62.539 Y94.134 E17.15606
G1 X85.702 Y70.971 E17.97980
G1 X85.346 Y70.559 E17.99350
G1 X62.183 Y93.722 E18.81723
G1 X61.827 Y93.310 E18.83093
G1 X84.990 Y70.147 E19.65467
G1 X84.634 Y69.734 E19.66836
G1 X61.471 Y92.897 E20.49210
G1 X61.115 Y92.485 E20.50579
G1 X84.278 Y69.322 E21.32953
G1 X83.922 Y68.910 E21.34323
G1 X60.759 Y92.073 E22.16696
G1 X60.403 Y91.661 E22.18066
G1 X83.566 Y68.498 E23.00439
G1 X83.187 Y68.109 E23.01806
G1 X60.047 Y91.249 E23.84096
G1 X59.691 Y90.837 E23.85465
G1 X82.617 Y67.911 E24.66995
G1 X82.047 Y67.713 E24.68512
G1 X59.529 Y90.230 E25.48590
G1 X59.406 Y89.585 E25.50241
G1 X81.477 Y67.514 E26.28730
G1 X80.907 Y67.316 E26.30248
G1 X59.283 Y88.940 E27.07148
G1 X59.159 Y88.295 E27.08799
G1 X80.337 Y67.118 E27.84111
G1 X79.767 Y66.920 E27.85629
G1 X59.036 Y87.650 E28.59352
G1 X58.913 Y87.005 E28.61003
G1 X79.197 Y66.721 E29.33138
G1 X78.627 Y66.523 E29.34656
G1 X58.789 Y86.360 E30.05202
G1 X58.666 Y85.715 E30.06853
G1 X78.057 Y66.325 E30.75811
G1 X77.487 Y66.127 E30.77328
G1 X58.543 Y85.070 E31.44697
G1 X58.420 Y84.426 E31.46349
G1 X76.917 Y65.928 E32.12129
G1 X76.347 Y65.730 E32.13647
G1 X58.296 Y83.781 E32.77839
G1 X58.173 Y83.136 E32.79490
G1 X75.777 Y65.532 E33.42093
G1 X74.892 Y65.649 E33.44339
G1 X58.050 Y82.491 E34.04232
G1 X57.927 Y81.846 E34.05884
G1 X73.942 Y65.830 E34.62838
G1 X72.992 Y66.012 E34.65270
G1 X57.974 Y81.030 E35.18679
G1 X58.383 Y79.852 E35.21815
G1 X72.042 Y66.193 E35.70390
G1 X71.093 Y66.375 E35.72822
G1 X58.793 Y78.675 E36.16562
G1 X59.203 Y77.497 E36.19698
G1 X70.143 Y66.556 E36.58604
G1 X69.193 Y66.738 E36.61035
G1 X59.613 Y76.319 E36.95106
G1 X60.022 Y75.141 E36.98242
G1 X68.244 Y66.920 E37.27479
G1 X66.483 Y67.912 E37.32561
G1 X60.432 Y73.963 E37.54079
G1 X60.842 Y72.784 E37.57217
G1 X71.693 Y91.895 F15600.000
G1 X88.486 Y75.101 F7200.000 E38.16938
G1 X88.609 Y75.746 E38.18589
G1 X72.263 Y92.093 E38.76721
G1 X72.832 Y92.291 E38.78239
G1 X88.732 Y76.391 E39.34782
G1 X88.856 Y77.036 E39.36434
G1 X73.402 Y92.489 E39.91389
G1 X73.972 Y92.688 E39.92906
G1 X88.979 Y77.681 E40.46273
G1 X89.102 Y78.326 E40.47924
G1 X74.542 Y92.886 E40.99702
G1 X75.112 Y93.084 E41.01220
G1 X89.225 Y78.971 E41.51409
G1 X89.349 Y79.616 E41.53060
G1 X75.682 Y93.282 E42.01661
G1 X76.459 Y93.274 E42.03613
G1 X89.472 Y80.261 E42.49892
G1 X89.595 Y80.906 E42.51543
G1 X77.408 Y93.093 E42.94883
G1 X78.358 Y92.911 E42.97314
G1 X89.383 Y81.887 E43.36520
G1 X88.973 Y83.065 E43.39657
G1 X79.308 Y92.730 E43.74028
G1 X80.258 Y92.548 E43.76460
G1 X88.563 Y84.243 E44.05996
G1 X88.153 Y85.421 E44.09133
G1 X81.207 Y92.367 E44.33835
G1 X82.157 Y92.185 E44.36266
G1 X87.744 Y86.599 E44.56134
G1 X87.334 Y87.776 E44.59270
G1 F1800.000 E43.19270
G92 E0
G1 X95.823 Y93.128 F15600.000
G1 F1800.000 E1.40000
G1 X95.545 Y92.968 F2400.000 E1.40459
G1 X95.736 Y92.777 E1.40846
G1 X95.458 Y92.617 E1.41305
G1 F1800.000 E0.01305
G92 E0
G1 X86.610 Y100.779 F15600.000
G1 F1800.000 E1.40000
G1 X86.373 Y100.619 F2400.000 E1.40371
G1 X86.119 Y100.873 E1.40838
G1 X85.882 Y100.713 E1.41209
G1 X85.629 Y100.967 E1.41675
G1 X85.392 Y100.807 E1.42047
G1 X85.138 Y101.061 E1.42513
G1 X84.901 Y100.901 E1.42884
G1 X84.647 Y101.154 E1.43350
G1 X84.411 Y100.994 E1.43722
G1 X84.157 Y101.248 E1.44188
G1 X83.920 Y101.088 E1.44559
G1 X83.666 Y101.342 E1.45026
G1 X83.429 Y101.182 E1.45397
G1 X83.176 Y101.436 E1.45863
G1 X82.939 Y101.276 E1.46235
G1 X82.685 Y101.530 E1.46701
G1 X82.448 Y101.369 E1.47072
G1 X82.194 Y101.623 E1.47539
G1 X81.958 Y101.463 E1.47910
G1 X81.704 Y101.717 E1.48376
G1 X81.467 Y101.557 E1.48747
G1 X81.213 Y101.811 E1.49214
G1 X80.976 Y101.651 E1.49585
G1 X80.722 Y101.905 E1.50051
G1 X80.486 Y101.745 E1.50423
G1 X80.232 Y101.998 E1.50889
G1 X79.995 Y101.838 E1.51260
G1 X79.741 Y102.092 E1.51727
G1 X79.504 Y101.932 E1.52098
G1 X79.251 Y102.186 E1.52564
G1 X79.014 Y102.026 E1.52935
G1 X78.760 Y102.280 E1.53402
G1 X78.523 Y102.120 E1.53773
G1 X78.269 Y102.374 E1.54239
G1 X78.033 Y102.213 E1.54611
G1 X77.779 Y102.467 E1.55077
G1 X77.542 Y102.307 E1.55448
G1 X77.288 Y102.561 E1.55915
G1 X77.051 Y102.401 E1.56286
G1 X76.798 Y102.655 E1.56752
G1 X76.561 Y102.495 E1.57123
G1 X76.307 Y102.749 E1.57590
G1 X76.070 Y102.589 E1.57961
G1 X75.834 Y102.825 E1.58395
G1 X75.698 Y102.564 E1.58777
G1 X75.539 Y102.722 E1.59068
G1 X75.403 Y102.461 E1.59450
G1 X75.245 Y102.620 E1.59741
G1 X75.109 Y102.359 E1.60123
G1 X74.951 Y102.517 E1.60414
G1 X74.815 Y102.257 E1.60797
G1 X74.656 Y102.415 E1.61088
G1 X74.520 Y102.154 E1.61470
G1 X74.362 Y102.313 E1.61761
G1 X74.226 Y102.052 E1.62143
G1 X74.067 Y102.210 E1.62434
G1 X73.931 Y101.949 E1.62816
G1 X73.773 Y102.108 E1.63107
G1 X73.637 Y101.847 E1.63489
G1 X73.478 Y102.005 E1.63780
G1 X73.342 Y101.745 E1.64162
G1 X73.184 Y101.903 E1.64453
G1 X73.048 Y101.642 E1.64836
G1 X72.890 Y101.801 E1.65127
G1 X72.754 Y101.540 E1.65509
G1 X72.595 Y101.698 E1.65800
G1 X72.459 Y101.437 E1.66182
G1 X72.301 Y101.596 E1.66473
G1 X72.165 Y101.335 E1.66855
G1 X72.006 Y101.493 E1.67146
G1 X71.870 Y101.233 E1.67528
G1 X71.712 Y101.391 E1.67819
G1 X71.576 Y101.130 E1.68201
G1 X71.417 Y101.289 E1.68493
G1 X71.281 Y101.028 E1.68875
G1 X71.123 Y101.186 E1.69166
G1 X70.987 Y100.925 E1.69548
G1 X70.829 Y101.084 E1.69839
G1 X70.693 Y100.823 E1.70221
G1 X70.534 Y100.981 E1.70512
G1 X70.398 Y100.720 E1.70894
G1 X70.240 Y100.879 E1.71185
G1 X70.104 Y100.618 E1.71567
G1 X69.945 Y100.776 E1.71858
G1 X69.809 Y100.516 E1.72240
G1 X69.651 Y100.674 E1.72532
G1 X69.515 Y100.413 E1.72914
G1 X69.356 Y100.572 E1.73205
G1 X69.220 Y100.311 E1.73587
G1 X69.062 Y100.469 E1.73878
G1 X68.926 Y100.208 E1.74260
G1 X68.768 Y100.367 E1.74551
G1 X68.632 Y100.106 E1.74933
G1 X68.473 Y100.264 E1.75224
G1 X68.337 Y100.004 E1.75606
G1 X68.179 Y100.162 E1.75897
G1 X68.043 Y99.901 E1.76280
G1 X67.884 Y100.060 E1.76571
G1 X67.748 Y99.799 E1.76953
G1 X67.590 Y99.957 E1.77244
G1 X67.454 Y99.696 E1.77626
G1 X67.295 Y99.855 E1.77917
G1 X67.159 Y99.594 E1.78299
G1 X67.001 Y99.752 E1.78590
G1 X66.865 Y99.491 E1.78972
G1 X66.707 Y99.650 E1.79263
G1 X66.571 Y99.389 E1.79645
G1 X66.412 Y99.547 E1.79937
G1 X66.276 Y99.287 E1.80319
G1 X66.118 Y99.445 E1.80610
G1 X65.982 Y99.184 E1.80992
G1 X65.823 Y99.343 E1.81283
G1 X65.687 Y99.082 E1.81665
G1 X65.529 Y99.240 E1.81956
G1 X65.335 Y99.037 E1.82321
G1 F1800.000 E0.42321
G92 E0
G1 X99.164 Y81.534 F15600.000
G1 F1800.000 E1.40000
G1 X99.009 Y81.274 F2400.000 E1.40413
G1 X98.748 Y81.535 E1.40914
G1 X98.593 Y81.274 E1.41327
G1 F1800.000 E0.01327
G92 E0
G1 X96.165 Y69.824 F15600.000
G1 F1800.000 E1.40000
G1 X95.626 Y69.834 F2400.000 E1.40931
G1 F1800.000 E0.00931
G92 E0
G1 X87.528 Y61.499 F15600.000
G1 F1800.000 E1.40000
G1 X87.588 Y60.875 F2400.000 E1.41160
G1 F1800.000 E0.01160
G92 E0
G1 X76.070 Y58.182 F15600.000
G1 F1800.000 E1.40000
G1 X75.810 Y58.027 F2400.000 E1.40413
G1 X76.070 Y57.767 E1.40914
G1 X75.810 Y57.612 E1.41327
G1 F1800.000 E0.01327
G92 E0
G1 X66.569 Y65.270 F15600.000
G1 F1800.000 E1.40000
G1 X66.421 Y65.015 F2400.000 E1.40387
G1 X66.612 Y64.824 E1.40741
G1 X66.465 Y64.570 E1.41128
G1 X66.274 Y64.760 E1.41483
G1 X66.127 Y64.506 E1.41870
G1 X66.318 Y64.315 E1.42224
G1 X66.171 Y64.060 E1.42611
G1 X65.980 Y64.251 E1.42966
G1 X65.833 Y63.996 E1.43352
G1 X66.024 Y63.806 E1.43707
