; generated by Slic3r 0.9.9 on 2013-07-10 at 20:44:06

; layer_height = 0.25
; perimeters = 3
; top_solid_layers = 3
; bottom_solid_layers = 3
; fill_density = 0.4
; perimeter_speed = 60
; infill_speed = 120
; travel_speed = 260
; nozzle_diameter = 0.5
; filament_diameter = 2.92
; extrusion_multiplier = 1
; perimeters extrusion width = 0.50mm
; infill extrusion width = 0.50mm
; solid infill extrusion width = 0.50mm
; top infill extrusion width = 0.50mm
; first layer extrusion width = 1.00mm

G21 ; set units to millimeters
M190 S115 ; wait for bed temperature to be reached
M104 S230 ; set temperature
G28 ; home all axes
G1 Z5 F5000 ; lift nozzle
M109 S230 ; wait for temperature to be reached
G90 ; use absolute coordinates
G92 E0
M82 ; use absolute distances for extrusion
G1 F1800.000 E-1.40000
G92 E0
G1 Z-0.900 F15600.000
G1 X40.960 Y52.460
G1 F1800.000 E1.40000
G1 X42.220 Y51.530 F1080.000 E1.50438
G1 X43.020 Y51.020 E1.56762
G1 X43.890 Y50.630 E1.63117
G1 X45.380 Y50.140 E1.73571
G1 X45.970 Y49.980 E1.77646
G1 X46.270 Y49.920 E1.79685
G1 X46.870 Y49.840 E1.83719
G1 X47.180 Y49.820 E1.85790
G1 X48.730 Y49.820 E1.96121
G1 X49.540 Y49.870 E2.01530
G1 X108.960 Y56.940 E6.00376
G1 X111.000 Y57.210 E6.14092
G1 X112.400 Y57.430 E6.23538
G1 X113.050 Y57.600 E6.28016
G1 X113.690 Y57.820 E6.32527
G1 X115.500 Y58.570 E6.45585
G1 X115.990 Y58.800 E6.49193
G1 X117.180 Y59.410 E6.58106
G1 X117.620 Y59.680 E6.61547
G1 X118.040 Y59.980 E6.64987
G1 X119.590 Y61.180 E6.78053
G1 X120.210 Y61.720 E6.83533
G1 X120.980 Y62.480 E6.90744
G1 X121.610 Y63.190 E6.97071
G1 X122.800 Y64.740 E7.10096
G1 X123.100 Y65.160 E7.13536
G1 X123.360 Y65.600 E7.16943
G1 X124.190 Y67.270 E7.29373
G1 X124.940 Y69.080 E7.42432
G1 X125.160 Y69.690 E7.46754
G1 X125.250 Y70.000 E7.48905
G1 X125.380 Y70.640 E7.53258
G1 X125.580 Y71.910 E7.61827
G1 X125.830 Y73.850 E7.74865
G1 X125.880 Y74.750 E7.80873
G1 X125.800 Y102.350 E9.64836
G1 X125.740 Y103.250 E9.70848
G1 X125.460 Y105.350 E9.84969
G1 X125.290 Y106.420 E9.92190
G1 X125.160 Y107.060 E9.96543
G1 X125.070 Y107.370 E9.98695
G1 X124.850 Y107.980 E10.03017
G1 X124.100 Y109.790 E10.16076
G1 X123.870 Y110.280 E10.19684
G1 X123.260 Y111.470 E10.28597
G1 X123.000 Y111.900 E10.31946
G1 X122.710 Y112.310 E10.35293
G1 X121.520 Y113.860 E10.48318
G1 X120.960 Y114.500 E10.53986
G1 X120.200 Y115.270 E10.61198
G1 X119.470 Y115.910 E10.67668
G1 X117.710 Y117.250 E10.82412
G1 X117.300 Y117.520 E10.85685
G1 X116.860 Y117.760 E10.89025
G1 X115.410 Y118.480 E10.99816
G1 X113.600 Y119.230 E11.12875
G1 X112.990 Y119.450 E11.17197
G1 X112.680 Y119.540 E11.19348
G1 X112.040 Y119.670 E11.23701
G1 X110.970 Y119.840 E11.30923
G1 X108.870 Y120.120 E11.45044
G1 X107.950 Y120.180 E11.51189
G1 X51.950 Y120.180 E15.24445
G1 X51.030 Y120.120 E15.30590
G1 X48.930 Y119.840 E15.44711
G1 X47.540 Y119.610 E15.54102
G1 X46.910 Y119.450 E15.58435
G1 X46.300 Y119.230 E15.62757
G1 X44.490 Y118.480 E15.75816
G1 X44.000 Y118.250 E15.79424
G1 X42.810 Y117.640 E15.88337
G1 X42.380 Y117.380 E15.91686
G1 X41.970 Y117.090 E15.95033
G1 X40.420 Y115.900 E16.08058
G1 X39.750 Y115.300 E16.14053
G1 X38.980 Y114.530 E16.21311
G1 X38.380 Y113.860 E16.27306
G1 X37.190 Y112.310 E16.40330
G1 X36.900 Y111.900 E16.43678
G1 X36.640 Y111.470 E16.47027
G1 X36.030 Y110.280 E16.55940
G1 X35.800 Y109.790 E16.59548
G1 X35.050 Y107.980 E16.72607
G1 X34.830 Y107.370 E16.76929
G1 X34.740 Y107.060 E16.79081
G1 X34.610 Y106.420 E16.83433
G1 X34.410 Y105.150 E16.92003
G1 X34.160 Y103.210 E17.05040
G1 X34.110 Y102.310 E17.11048
G1 X34.190 Y74.710 E18.95011
G1 X34.250 Y73.810 E19.01023
G1 X34.530 Y71.710 E19.15144
G1 X34.700 Y70.640 E19.22366
G1 X34.790 Y70.200 E19.25359
G1 X37.440 Y58.510 E20.05253
G1 X37.610 Y57.880 E20.09603
G1 X38.000 Y56.690 E20.17949
G1 X38.210 Y56.120 E20.21998
G1 X38.340 Y55.850 E20.23996
G1 X38.630 Y55.310 E20.28081
G1 X38.960 Y54.800 E20.32130
G1 X39.690 Y53.790 E20.40436
G1 X40.080 Y53.310 E20.44559
G1 X40.500 Y52.860 E20.48661
G1 X40.859 Y52.548 E20.51832
G1 F1800.000 E19.11832
G92 E0
G1 X109.742 Y100.361 F15600.000
G1 F1800.000 E1.40000
G1 X110.484 Y99.618 F1080.000 E1.46998
G1 X111.420 Y99.142 E1.53997
G1 X112.457 Y98.978 E1.60994
G1 X113.494 Y99.142 E1.67992
G1 X114.429 Y99.618 E1.74990
G1 X115.172 Y100.361 E1.81988
G1 X115.532 Y101.068 E1.87274
G1 X115.648 Y101.296 E1.88986
G1 X115.813 Y102.333 E1.95984
G1 X115.648 Y103.370 E2.02981
G1 X115.172 Y104.306 E2.09980
G1 X114.429 Y105.048 E2.16977
G1 X113.494 Y105.525 E2.23976
G1 X112.457 Y105.689 E2.30973
G1 X111.420 Y105.525 E2.37971
G1 X110.484 Y105.048 E2.44969
G1 X109.742 Y104.306 E2.51968
G1 X109.265 Y103.370 E2.58965
G1 X109.101 Y102.333 E2.65963
G1 X109.265 Y101.296 E2.72961
G1 X109.681 Y100.480 E2.79066
G1 X110.473 Y100.892 F15600.000
G1 X111.016 Y100.350 F1080.000 E2.84179
G1 X111.699 Y100.001 E2.89293
G1 X112.457 Y99.881 E2.94405
G1 X113.215 Y100.001 E2.99518
G1 X113.898 Y100.350 E3.04632
G1 X114.441 Y100.892 E3.09745
G1 X114.736 Y101.473 E3.14089
G1 X114.789 Y101.576 E3.14858
G1 X114.909 Y102.333 E3.19971
G1 X114.789 Y103.091 E3.25084
G1 X114.441 Y103.775 E3.30197
G1 X113.898 Y104.317 E3.35310
G1 X113.215 Y104.665 E3.40424
G1 X112.457 Y104.785 E3.45536
G1 X111.699 Y104.665 E3.50649
G1 X111.016 Y104.317 E3.55763
G1 X110.473 Y103.775 E3.60876
G1 X110.125 Y103.091 E3.65989
G1 X110.005 Y102.333 E3.71102
G1 X110.125 Y101.576 E3.76215
G1 X110.412 Y101.011 E3.80436
G1 X110.198 Y100.176 F15600.000
G1 X84.216 Y102.333
G1 X84.008 Y103.650 F1080.000 E3.89319
G1 X83.403 Y104.837 E3.98201
G1 X82.461 Y105.779 E4.07084
G1 X81.273 Y106.384 E4.15967
G1 X79.957 Y106.593 E4.24850
G1 X78.641 Y106.384 E4.33732
G1 X77.453 Y105.779 E4.42615
G1 X76.511 Y104.837 E4.51497
G1 X75.906 Y103.650 E4.60380
G1 X75.697 Y102.333 E4.69263
G1 X75.906 Y101.017 E4.78146
G1 X76.511 Y99.830 E4.87029
G1 X77.453 Y98.887 E4.95911
G1 X78.641 Y98.282 E5.04795
G1 X79.957 Y98.074 E5.13676
G1 X81.273 Y98.282 E5.22559
G1 X82.461 Y98.887 E5.31443
G1 X83.403 Y99.830 E5.40326
G1 X84.008 Y101.017 E5.49207
G1 X84.196 Y102.201 E5.57198
G1 X83.313 Y102.333 F15600.000
G1 X83.148 Y103.370 F1080.000 E5.64196
G1 X82.672 Y104.306 E5.71194
G1 X81.929 Y105.048 E5.78191
G1 X80.994 Y105.525 E5.85190
G1 X79.957 Y105.689 E5.92187
G1 X78.920 Y105.525 E5.99185
G1 X77.984 Y105.048 E6.06183
G1 X77.242 Y104.306 E6.13181
G1 X76.765 Y103.370 E6.20179
G1 X76.601 Y102.333 E6.27177
G1 X76.765 Y101.296 E6.34175
G1 X77.242 Y100.361 E6.41173
G1 X77.984 Y99.618 E6.48171
G1 X78.920 Y99.142 E6.55169
G1 X79.957 Y98.978 E6.62166
G1 X80.994 Y99.142 E6.69164
G1 X81.929 Y99.618 E6.76163
G1 X82.672 Y100.361 E6.83161
G1 X83.148 Y101.296 E6.90158
G1 X83.292 Y102.201 E6.96264
G1 X82.409 Y102.333 F15600.000
G1 X82.289 Y103.091 F1080.000 E7.01377
G1 X81.941 Y103.775 E7.06490
G1 X81.398 Y104.317 E7.11603
G1 X80.715 Y104.665 E7.16716
G1 X79.957 Y104.785 E7.21829
G1 X79.199 Y104.665 E7.26942
G1 X78.516 Y104.317 E7.32056
G1 X77.973 Y103.775 E7.37168
G1 X77.625 Y103.091 E7.42282
G1 X77.505 Y102.333 E7.47395
G1 X77.625 Y101.576 E7.52508
G1 X77.973 Y100.892 E7.57621
G1 X78.516 Y100.350 E7.62734
G1 X79.199 Y100.001 E7.67847
G1 X79.957 Y99.881 E7.72960
G1 X80.715 Y100.001 E7.78073
G1 X81.398 Y100.350 E7.83187
G1 X81.941 Y100.892 E7.88300
G1 X82.289 Y101.576 E7.93413
G1 X82.388 Y102.201 E7.97633
G1 X83.052 Y102.751 F15600.000
G1 F1800.000 E6.57633
G92 E0
G1 X50.813 Y102.333 F15600.000
G1 F1800.000 E1.40000
G1 X50.648 Y103.370 F1080.000 E1.46998
G1 X50.172 Y104.306 E1.53996
G1 X49.429 Y105.048 E1.60994
G1 X49.201 Y105.165 E1.62705
G1 X48.494 Y105.525 E1.67992
G1 X47.457 Y105.689 E1.74990
G1 X46.420 Y105.525 E1.81988
G1 X45.484 Y105.048 E1.88986
G1 X44.742 Y104.306 E1.95984
G1 X44.265 Y103.370 E2.02982
G1 X44.101 Y102.333 E2.09979
G1 X44.265 Y101.296 E2.16977
G1 X44.742 Y100.361 E2.23975
G1 X45.484 Y99.618 E2.30973
G1 X46.420 Y99.142 E2.37971
G1 X47.457 Y98.978 E2.44969
G1 X48.494 Y99.142 E2.51967
G1 X49.429 Y99.618 E2.58965
G1 X50.172 Y100.361 E2.65963
G1 X50.648 Y101.296 E2.72961
G1 X50.792 Y102.201 E2.79066
G1 X49.909 Y102.333 F15600.000
G1 X49.789 Y103.091 F1080.000 E2.84179
G1 X49.441 Y103.775 E2.89292
G1 X48.898 Y104.317 E2.94406
G1 X48.795 Y104.369 E2.95175
G1 X48.215 Y104.665 E2.99519
G1 X47.457 Y104.785 E3.04632
G1 X46.699 Y104.665 E3.09745
G1 X46.016 Y104.317 E3.14858
G1 X45.473 Y103.775 E3.19971
G1 X45.125 Y103.091 E3.25084
G1 X45.005 Y102.333 E3.30197
G1 X45.125 Y101.576 E3.35311
G1 X45.473 Y100.892 E3.40424
G1 X46.016 Y100.350 E3.45537
G1 X46.699 Y100.001 E3.50650
G1 X47.457 Y99.881 E3.55763
G1 X48.215 Y100.001 E3.60876
G1 X48.898 Y100.350 E3.65989
G1 X49.441 Y100.892 E3.71103
G1 X49.789 Y101.576 E3.76216
G1 X49.888 Y102.201 E3.80436
G1 X50.552 Y102.751 F15600.000
G1 X51.654 Y102.727
G1 X51.716 Y102.333 F1080.000 E3.83090
G1 X51.508 Y101.017 E3.91972
G1 X50.903 Y99.830 E4.00855
G1 X49.961 Y98.887 E4.09738
G1 X48.773 Y98.282 E4.18621
G1 X47.457 Y98.074 E4.27504
G1 X46.141 Y98.282 E4.36386
G1 X44.953 Y98.887 E4.45269
G1 X44.152 Y99.688 E4.52819
G1 X43.728 Y99.380 E4.56311
G1 X44.560 Y97.747 E4.68527
G1 X45.538 Y96.473 E4.79236
G1 X46.096 Y95.915 E4.84494
G1 X47.371 Y94.937 E4.95203
G1 X48.074 Y94.579 E5.00461
G1 X49.558 Y93.964 E5.11165
G1 X50.336 Y93.841 E5.16419
G1 X52.103 Y93.608 E5.28299
G1 X82.906 Y93.608 E7.33606
G1 X84.606 Y95.497 E7.50547
G1 X86.464 Y96.847 E7.65854
G1 X88.562 Y97.781 E7.81162
G1 X90.809 Y98.259 E7.96469
G1 X93.105 Y98.259 E8.11776
G1 X95.352 Y97.781 E8.27083
G1 X97.450 Y96.847 E8.42391
G1 X99.308 Y95.497 E8.57699
G1 X101.008 Y93.608 E8.74640
G1 X107.811 Y93.608 E9.19979
G1 X109.578 Y93.841 E9.31859
G1 X110.356 Y93.964 E9.37113
G1 X111.840 Y94.579 E9.47817
G1 X112.543 Y94.937 E9.53075
G1 X113.817 Y95.915 E9.63784
G1 X114.375 Y96.473 E9.69043
G1 X115.353 Y97.747 E9.79751
G1 X116.185 Y99.380 E9.91966
G1 X115.761 Y99.688 E9.95458
G1 X114.961 Y98.887 E10.03007
G1 X113.773 Y98.282 E10.11891
G1 X112.457 Y98.074 E10.20773
G1 X111.141 Y98.282 E10.29655
G1 X109.953 Y98.887 E10.38539
G1 X109.011 Y99.830 E10.47422
G1 X108.406 Y101.017 E10.56303
G1 X108.197 Y102.333 E10.65186
G1 X108.406 Y103.650 E10.74070
G1 X109.011 Y104.837 E10.82951
G1 X109.953 Y105.779 E10.91835
G1 X111.141 Y106.384 E11.00717
G1 X112.457 Y106.593 E11.09600
G1 X113.773 Y106.384 E11.18482
G1 X114.961 Y105.779 E11.27366
G1 X115.761 Y104.978 E11.34915
G1 X116.185 Y105.286 E11.38407
G1 X115.353 Y106.919 E11.50622
G1 X114.375 Y108.194 E11.61330
G1 X113.817 Y108.752 E11.66589
G1 X112.543 Y109.730 E11.77297
G1 X111.840 Y110.088 E11.82555
G1 X110.356 Y110.703 E11.93260
G1 X109.578 Y110.826 E11.98514
G1 X107.811 Y111.058 E12.10394
G1 X77.008 Y111.058 E14.15701
G1 X75.308 Y109.170 E14.32642
G1 X73.450 Y107.820 E14.47949
G1 X71.352 Y106.886 E14.63257
G1 X69.105 Y106.408 E14.78564
G1 X66.809 Y106.408 E14.93871
G1 X64.562 Y106.886 E15.09178
G1 X62.464 Y107.820 E15.24486
G1 X60.606 Y109.170 E15.39793
G1 X58.906 Y111.058 E15.56734
G1 X52.103 Y111.058 E16.02074
G1 X50.336 Y110.826 E16.13954
G1 X49.558 Y110.703 E16.19208
G1 X48.074 Y110.088 E16.29913
G1 X47.371 Y109.730 E16.35170
G1 X46.096 Y108.752 E16.45878
G1 X45.538 Y108.194 E16.51137
G1 X44.560 Y106.919 E16.61846
G1 X43.728 Y105.286 E16.74062
G1 X44.152 Y104.978 E16.77554
G1 X44.953 Y105.779 E16.85104
G1 X46.141 Y106.384 E16.93987
G1 X47.457 Y106.593 E17.02869
G1 X48.773 Y106.384 E17.11752
G1 X49.961 Y105.779 E17.20635
G1 X50.903 Y104.837 E17.29518
G1 X51.508 Y103.650 E17.38400
G1 X51.633 Y102.859 E17.43737
G1 X47.652 Y110.875 F15600.000
G1 X46.893 Y110.488 F1080.000 E17.49418
G1 X45.506 Y109.424 E17.61063
G1 X44.866 Y108.784 E17.67102
G1 X43.802 Y107.398 E17.78747
G1 X43.391 Y106.591 E17.84785
G1 X42.723 Y104.977 E17.96428
G1 X42.581 Y104.082 E18.02463
G1 X42.351 Y102.333 E18.14222
G1 X42.581 Y100.584 E18.25980
G1 X42.723 Y99.690 E18.32015
G1 X43.391 Y98.076 E18.43658
G1 X43.802 Y97.269 E18.49696
G1 X44.866 Y95.883 E18.61341
G1 X45.506 Y95.242 E18.67380
G1 X46.893 Y94.179 E18.79025
G1 X47.700 Y93.767 E18.85063
G1 X49.314 Y93.099 E18.96706
G1 X50.208 Y92.957 E19.02742
G1 X52.045 Y92.715 E19.15090
G1 X83.480 Y92.715 E21.24614
G1 X83.796 Y93.263 E21.28826
G1 X85.207 Y94.830 E21.42883
G1 X86.913 Y96.070 E21.56939
G1 X88.840 Y96.927 E21.70996
G1 X89.478 Y97.063 E21.75347
G1 X90.902 Y97.366 E21.85053
G1 X93.011 Y97.366 E21.99109
G1 X95.074 Y96.927 E22.13165
G1 X97.001 Y96.070 E22.27222
G1 X98.707 Y94.830 E22.41279
G1 X100.118 Y93.263 E22.55335
G1 X100.434 Y92.715 E22.59547
G1 X107.869 Y92.715 E23.09105
G1 X109.706 Y92.957 E23.21452
G1 X110.600 Y93.099 E23.27488
G1 X112.214 Y93.767 E23.39131
G1 X113.021 Y94.179 E23.45169
G1 X114.407 Y95.242 E23.56814
G1 X115.048 Y95.883 E23.62853
G1 X116.112 Y97.269 E23.74498
G1 X116.523 Y98.076 E23.80536
G1 X117.191 Y99.690 E23.92179
G1 X117.333 Y100.584 E23.98215
G1 X117.563 Y102.333 E24.09973
G1 X117.333 Y104.082 E24.21731
G1 X117.191 Y104.977 E24.27767
G1 X116.523 Y106.591 E24.39410
G1 X116.112 Y107.398 E24.45448
G1 X115.048 Y108.784 E24.57093
G1 X114.407 Y109.424 E24.63132
G1 X113.021 Y110.488 E24.74777
G1 X112.214 Y110.899 E24.80815
G1 X110.600 Y111.568 E24.92458
G1 X109.706 Y111.709 E24.98494
G1 X107.869 Y111.951 E25.10841
G1 X76.434 Y111.951 E27.20366
G1 X76.118 Y111.404 E27.24578
G1 X74.707 Y109.837 E27.38635
G1 X73.001 Y108.597 E27.52691
G1 X71.074 Y107.739 E27.66748
G1 X69.011 Y107.301 E27.80804
G1 X66.902 Y107.301 E27.94860
G1 X64.840 Y107.739 E28.08917
G1 X62.913 Y108.597 E28.22974
G1 X61.207 Y109.837 E28.37030
G1 X59.796 Y111.404 E28.51087
G1 X59.480 Y111.951 E28.55299
G1 X52.045 Y111.951 E29.04856
G1 X50.208 Y111.709 E29.17204
G1 X49.314 Y111.568 E29.23240
G1 X47.774 Y110.930 E29.34347
G1 X47.326 Y111.711 F15600.000
G1 X46.414 Y111.246 F756.000 E29.41166
G1 X44.917 Y110.097 E29.53747
G1 X44.193 Y109.374 E29.60566
G1 X43.044 Y107.876 E29.73148
G1 X42.580 Y106.965 E29.79967
G1 X41.857 Y105.221 E29.92548
G1 X41.697 Y104.210 E29.99365
G1 X41.450 Y102.333 E30.11985
G1 X41.697 Y100.456 E30.24604
G1 X41.857 Y99.446 E30.31422
G1 X42.580 Y97.702 E30.44003
G1 X43.044 Y96.791 E30.50821
G1 X44.193 Y95.293 E30.63403
G1 X44.917 Y94.570 E30.70222
G1 X46.414 Y93.421 E30.82804
G1 X47.326 Y92.956 E30.89622
G1 X49.070 Y92.234 E31.02203
G1 X50.080 Y92.074 E31.09021
G1 X51.986 Y91.823 E31.21837
G1 X83.995 Y91.823 E33.35187
G1 X84.522 Y92.735 E33.42209
G1 X85.808 Y94.163 E33.55014
G1 X87.362 Y95.292 E33.67820
G1 X89.117 Y96.074 E33.80626
G1 X89.664 Y96.190 E33.84351
G1 X90.996 Y96.473 E33.93432
G1 X92.918 Y96.473 E34.06237
G1 X94.797 Y96.074 E34.19043
G1 X96.552 Y95.292 E34.31849
G1 X98.106 Y94.163 E34.44655
G1 X99.392 Y92.735 E34.57461
G1 X99.919 Y91.823 E34.64483
G1 X107.928 Y91.823 E35.17865
G1 X109.834 Y92.074 E35.30681
G1 X110.844 Y92.234 E35.37499
G1 X112.588 Y92.956 E35.50080
G1 X113.500 Y93.421 E35.56899
G1 X114.997 Y94.570 E35.69480
G1 X115.721 Y95.293 E35.76299
G1 X116.870 Y96.791 E35.88881
G1 X117.334 Y97.702 E35.95699
G1 X118.057 Y99.446 E36.08280
G1 X118.217 Y100.456 E36.15098
G1 X118.464 Y102.333 E36.27718
G1 X118.217 Y104.210 E36.40337
G1 X118.057 Y105.221 E36.47155
G1 X117.334 Y106.965 E36.59736
G1 X116.870 Y107.876 E36.66554
G1 X115.721 Y109.374 E36.79136
G1 X114.997 Y110.097 E36.85955
G1 X113.500 Y111.246 E36.98537
G1 X112.588 Y111.711 E37.05355
G1 X110.844 Y112.433 E37.17936
G1 X109.834 Y112.593 E37.24754
G1 X107.928 Y112.844 E37.37570
G1 X75.919 Y112.844 E39.50920
G1 X75.392 Y111.932 E39.57942
G1 X74.106 Y110.504 E39.70747
G1 X72.552 Y109.374 E39.83553
G1 X70.797 Y108.593 E39.96359
G1 X68.918 Y108.194 E40.09165
G1 X66.996 Y108.194 E40.21970
G1 X66.287 Y108.344 E40.26801
G1 X65.117 Y108.593 E40.34776
G1 X63.362 Y109.374 E40.47582
G1 X61.808 Y110.504 E40.60388
G1 X60.522 Y111.931 E40.73193
G1 X59.995 Y112.844 E40.80216
G1 X51.986 Y112.844 E41.33598
G1 X50.080 Y112.593 E41.46414
G1 X49.070 Y112.433 E41.53232
G1 X47.449 Y111.762 E41.64920
G1 X47.256 Y110.821 F15600.000
G1 F1800.000 E40.24920
G92 E0
G1 X109.828 Y76.704 F15600.000
G1 F1800.000 E1.40000
G1 X109.352 Y75.769 F1080.000 E1.46997
G1 X109.187 Y74.732 E1.53996
G1 X109.352 Y73.695 E1.60994
G1 X109.828 Y72.759 E1.67992
G1 X110.571 Y72.017 E1.74989
