; generated by Slic3r 0.9.9 on 2013-07-18 at 22:24:14

; layer_height = 0.25
; perimeters = 3
; top_solid_layers = 3
; bottom_solid_layers = 3
; fill_density = 0.4
; perimeter_speed = 30
; infill_speed = 60
; travel_speed = 130
; nozzle_diameter = 0.5
; filament_diameter = 2.92
; extrusion_multiplier = 1
; perimeters extrusion width = 0.50mm
; infill extrusion width = 0.50mm
; solid infill extrusion width = 0.50mm
; top infill extrusion width = 0.50mm
; first layer extrusion width = 1.00mm

G21 ; set units to millimeters
M107
M190 S115 ; wait for bed temperature to be reached
M104 S230 ; set temperature
G28 ; home all axes
G1 Z5 F5000 ; lift nozzle
M109 S230 ; wait for temperature to be reached
G90 ; use absolute coordinates
G92 E0
M82 ; use absolute distances for extrusion
G1 F1800.000 E-1.40000
G92 E0
G1 Z-3.000 F7800.000
G1 X25.460 Y74.010
G1 F1800.000 E1.40000
G1 X26.700 Y73.650 F540.000 E1.48606
G1 X32.130 Y72.310 E1.85885
G1 X32.780 Y72.180 E1.90303
G1 X33.110 Y72.140 E1.92518
G1 X33.780 Y72.110 E1.96989
G1 X126.220 Y72.110 E8.13129
G1 X126.890 Y72.140 E8.17599
G1 X127.220 Y72.180 E8.19815
G1 X127.870 Y72.310 E8.24233
G1 X133.290 Y73.650 E8.61446
G1 X134.530 Y74.010 E8.70053
G1 X135.050 Y74.190 E8.73720
G1 X135.550 Y74.410 E8.77361
G1 X136.610 Y74.980 E8.85383
G1 X137.260 Y75.370 E8.90436
G1 X137.720 Y75.710 E8.94248
G1 X138.150 Y76.080 E8.98029
G1 X138.350 Y76.270 E8.99868
G1 X138.910 Y76.910 E9.05536
G1 X139.230 Y77.370 E9.09271
G1 X139.520 Y77.860 E9.13066
G1 X139.650 Y78.110 E9.14945
G1 X139.870 Y78.630 E9.18708
G1 X139.970 Y78.890 E9.20565
G1 X140.130 Y79.430 E9.24319
G1 X140.240 Y79.990 E9.28123
G1 X140.310 Y80.550 E9.31884
G1 X140.330 Y80.830 E9.33755
G1 X140.330 Y89.160 E9.89277
G1 X140.280 Y89.720 E9.93025
G1 X140.130 Y90.560 E9.98712
G1 X139.970 Y91.100 E10.02466
G1 X139.650 Y91.880 E10.08085
G1 X139.230 Y92.620 E10.13757
G1 X138.910 Y93.080 E10.17492
G1 X138.350 Y93.720 E10.23160
G1 X137.720 Y94.280 E10.28778
G1 X137.170 Y94.680 E10.33311
G1 X136.610 Y95.010 E10.37644
G1 X135.550 Y95.580 E10.45665
G1 X135.050 Y95.800 E10.49306
G1 X134.530 Y95.980 E10.52974
G1 X133.310 Y96.340 E10.61452
G1 X127.890 Y97.690 E10.98682
G1 X127.230 Y97.820 E11.03166
G1 X126.890 Y97.860 E11.05448
G1 X126.220 Y97.890 E11.09918
G1 X33.780 Y97.890 E17.26058
G1 X33.110 Y97.860 E17.30528
G1 X32.780 Y97.820 E17.32744
G1 X32.120 Y97.690 E17.37227
G1 X26.350 Y96.250 E17.76866
G1 X25.460 Y95.980 E17.83065
G1 X24.940 Y95.800 E17.86733
G1 X24.440 Y95.580 E17.90373
G1 X23.380 Y95.010 E17.98395
G1 X22.500 Y94.450 E18.05348
G1 X21.990 Y94.040 E18.09709
G1 X21.590 Y93.660 E18.13387
G1 X21.050 Y93.020 E18.18968
G1 X20.590 Y92.330 E18.24496
G1 X20.330 Y91.840 E18.28193
G1 X20.020 Y91.060 E18.33787
G1 X19.870 Y90.530 E18.37459
G1 X19.760 Y89.990 E18.41132
G1 X19.670 Y89.160 E18.46696
G1 X19.670 Y80.830 E19.02218
G1 X19.760 Y80.000 E19.07783
G1 X19.870 Y79.460 E19.11456
G1 X20.020 Y78.930 E19.15128
G1 X20.330 Y78.150 E19.20722
G1 X20.590 Y77.660 E19.24419
G1 X20.890 Y77.190 E19.28136
G1 X21.400 Y76.540 E19.33643
G1 X21.590 Y76.330 E19.35530
G1 X21.990 Y75.950 E19.39208
G1 X22.500 Y75.540 E19.43569
G1 X23.380 Y74.980 E19.50522
G1 X24.440 Y74.410 E19.58544
G1 X24.940 Y74.190 E19.62184
G1 X25.333 Y74.054 E19.64960
G1 F1800.000 E18.24960
G92 E0
G1 X94.237 Y83.017 F7800.000
G1 F1800.000 E1.40000
G1 X122.203 Y83.017 F540.000 E3.26400
G1 X122.203 Y86.983 E3.52832
G1 X94.237 Y86.983 E5.39232
G1 X94.237 Y83.151 E5.64772
G1 X93.344 Y82.124 F7800.000
G1 X123.096 Y82.124 F540.000 E7.63072
G1 X123.096 Y87.876 E8.01405
G1 X93.344 Y87.876 E9.99705
G1 X93.344 Y82.258 E10.37145
G1 X92.452 Y81.232 F7800.000
G1 X123.988 Y81.232 F540.000 E12.47345
G1 X123.988 Y88.768 E12.97578
G1 X92.452 Y88.768 E15.07778
G1 X92.452 Y81.366 E15.57119
G1 X91.559 Y80.339 F7800.000
G1 X124.881 Y80.339 F540.000 E17.79219
G1 X124.881 Y84.271 E18.05430
G1 X126.164 Y84.593 E18.14248
G1 X126.125 Y85.000 E18.16974
G1 X126.164 Y85.407 E18.19700
G1 X124.881 Y85.729 E18.28519
G1 X124.881 Y89.661 E18.54729
G1 X91.559 Y89.661 E20.76830
G1 X91.559 Y85.729 E21.03040
G1 X90.276 Y85.407 E21.11859
G1 X90.315 Y85.000 E21.14585
G1 X90.276 Y84.593 E21.17311
G1 X91.559 Y84.271 E21.26129
G1 X91.559 Y80.473 E21.51447
G1 X90.666 Y79.446 F7800.000
G1 X125.774 Y79.446 F378.000 E23.85448
G1 X125.774 Y83.575 E24.12965
G1 X126.527 Y83.764 E24.18142
G1 X127.144 Y82.610 E24.26861
G1 X127.678 Y81.958 E24.32479
G1 X128.330 Y81.424 E24.38096
G1 X129.074 Y81.026 E24.43718
G1 X129.881 Y80.781 E24.49339
G1 X130.720 Y80.698 E24.54960
G1 X131.559 Y80.781 E24.60582
G1 X132.366 Y81.026 E24.66203
G1 X132.994 Y81.362 E24.70945
G1 X132.994 Y82.042 E24.75480
G1 X132.136 Y81.583 E24.81966
G1 X131.441 Y81.372 E24.86803
G1 X130.720 Y81.302 E24.91634
G1 X129.999 Y81.372 E24.96465
G1 X129.304 Y81.583 E25.01302
G1 X128.665 Y81.925 E25.06138
G1 X128.105 Y82.385 E25.10965
G1 X127.645 Y82.945 E25.15793
G1 X127.303 Y83.584 E25.20629
G1 X127.092 Y84.279 E25.25466
G1 X127.022 Y85.000 E25.30297
G1 X127.092 Y85.721 E25.35128
G1 X127.303 Y86.416 E25.39965
G1 X127.645 Y87.055 E25.44801
G1 X128.105 Y87.615 E25.49628
G1 X128.665 Y88.075 E25.54456
G1 X129.304 Y88.417 E25.59292
G1 X129.999 Y88.628 E25.64129
G1 X130.720 Y88.698 E25.68960
G1 X131.441 Y88.628 E25.73790
G1 X132.136 Y88.417 E25.78628
G1 X132.994 Y87.958 E25.85114
G1 X132.994 Y88.638 E25.89648
G1 X132.366 Y88.974 E25.94391
G1 X131.559 Y89.219 E26.00012
G1 X130.720 Y89.302 E26.05633
G1 X129.881 Y89.219 E26.11255
G1 X129.074 Y88.974 E26.16876
G1 X128.330 Y88.576 E26.22497
G1 X127.678 Y88.042 E26.28115
G1 X127.144 Y87.390 E26.33733
G1 X126.527 Y86.236 E26.42451
G1 X125.774 Y86.425 E26.47629
G1 X125.774 Y90.554 E26.75146
G1 X90.666 Y90.554 E29.09147
G1 X90.666 Y86.425 E29.36664
G1 X89.913 Y86.236 E29.41842
G1 X89.296 Y87.390 E29.50560
G1 X88.762 Y88.042 E29.56178
G1 X88.110 Y88.576 E29.61795
G1 X87.366 Y88.974 E29.67417
G1 X86.559 Y89.219 E29.73038
G1 X85.720 Y89.302 E29.78659
G1 X84.881 Y89.219 E29.84281
G1 X84.074 Y88.974 E29.89902
G1 X83.446 Y88.638 E29.94644
G1 X83.446 Y87.958 E29.99179
G1 X84.304 Y88.417 E30.05665
G1 X84.999 Y88.628 E30.10502
G1 X85.720 Y88.698 E30.15333
G1 X86.441 Y88.628 E30.20164
G1 X87.136 Y88.417 E30.25001
G1 X87.775 Y88.075 E30.29837
G1 X88.335 Y87.615 E30.34664
G1 X88.795 Y87.055 E30.39492
G1 X89.137 Y86.416 E30.44328
G1 X89.348 Y85.721 E30.49165
G1 X89.418 Y85.000 E30.53996
G1 X89.348 Y84.279 E30.58827
G1 X89.137 Y83.584 E30.63664
G1 X88.795 Y82.945 E30.68500
G1 X88.335 Y82.385 E30.73327
G1 X87.775 Y81.925 E30.78155
G1 X87.136 Y81.583 E30.82991
G1 X86.441 Y81.372 E30.87828
G1 X85.720 Y81.302 E30.92658
G1 X84.999 Y81.372 E30.97489
G1 X84.304 Y81.583 E31.02326
G1 X83.446 Y82.042 E31.08813
G1 X83.446 Y81.362 E31.13347
G1 X84.074 Y81.026 E31.18090
G1 X84.881 Y80.781 E31.23710
G1 X85.720 Y80.698 E31.29332
G1 X86.559 Y80.781 E31.34954
G1 X87.366 Y81.026 E31.40575
G1 X88.110 Y81.424 E31.46196
G1 X88.762 Y81.958 E31.51814
G1 X89.296 Y82.610 E31.57432
G1 X89.913 Y83.764 E31.66150
G1 X90.666 Y83.575 E31.71328
G1 X90.666 Y79.580 E31.97952
G1 X91.439 Y79.893 F7800.000
G1 F1800.000 E30.57952
G92 E0
G1 X84.782 Y88.893 F7800.000
G1 F1800.000 E1.40000
G1 X86.316 Y88.956 F540.000 E1.50228
G1 X87.397 Y88.630 E1.57754
G1 X88.675 Y87.686 E1.68348
G1 X89.028 Y87.247 E1.72102
G1 X88.880 Y86.903 E1.74596
G1 X89.028 Y87.247 F7800.000
G1 X89.299 Y87.146 F540.000 E1.76523
G1 X89.299 Y87.146 F7800.000
G1 X89.363 Y87.083 F540.000 E1.77120
G1 X88.847 Y83.147 F7800.000
G1 X88.933 Y83.055 F540.000 E1.77956
G1 X88.933 Y83.055 F7800.000
G1 X89.029 Y82.756 F540.000 E1.80050
G1 X89.565 Y82.968 F7800.000
G1 X89.029 Y82.756 F540.000 E1.83892
G1 X88.409 Y82.041 E1.90196
G1 X88.409 Y82.041 F7800.000
G1 X87.454 Y81.419 F540.000 E1.97793
G1 X87.454 Y81.419 F7800.000
G1 X86.312 Y81.045 F540.000 E2.05804
G1 X86.312 Y81.045 F7800.000
G1 X85.849 Y80.998 F540.000 E2.08906
G1 X85.849 Y80.998 F7800.000
G1 X85.489 Y81.020 F540.000 E2.11313
G1 X85.489 Y81.020 F7800.000
G1 X83.981 Y81.411 F540.000 E2.21692
G1 X83.981 Y81.411 F7800.000
G1 X83.398 Y82.152 F540.000 E2.27980
G1 X83.398 Y82.152 F7800.000
G1 X83.353 Y82.367 F540.000 E2.29443
G1 X83.353 Y82.367 F7800.000
G1 X83.186 Y82.569 F540.000 E2.31191
G1 X83.186 Y82.569 F7800.000
G1 X83.218 Y82.741 F540.000 E2.32352
G1 F1800.000 E0.92352
G92 E0
G1 X83.179 Y87.419 F7800.000
G1 F1800.000 E1.40000
G1 X83.349 Y87.594 F540.000 E1.41626
G1 X83.349 Y87.594 F7800.000
G1 X83.812 Y88.493 F540.000 E1.48367
G1 X84.782 Y88.893 E1.55362
G1 F1800.000 E0.15362
G92 E0
G1 X126.854 Y87.026 F7800.000
G1 F1800.000 E1.40000
G1 X127.414 Y87.248 F540.000 E1.44013
G1 X127.630 Y86.801 E1.47323
G1 X127.414 Y87.248 F7800.000
G1 X128.363 Y88.237 F540.000 E1.56465
G1 X129.339 Y88.753 E1.63818
G1 X130.560 Y89.001 E1.72123
G1 X131.656 Y88.888 E1.79469
G1 X131.656 Y88.888 F7800.000
G1 X132.682 Y88.455 F540.000 E1.86893
G1 X133.206 Y87.281 E1.95466
G1 F1800.000 E0.55466
G92 E0
G1 X133.254 Y82.577 F7800.000
G1 F1800.000 E1.40000
G1 X132.604 Y81.495 F540.000 E1.48418
G1 X130.849 Y80.998 E1.60575
G1 X129.308 Y81.253 E1.70988
G1 X127.749 Y82.347 E1.83683
G1 X127.749 Y82.347 F7800.000
G1 X127.420 Y82.784 F540.000 E1.87326
G1 X127.157 Y82.872 F7800.000
G1 X127.420 Y82.784 F540.000 E1.89179
G1 X127.507 Y83.055 E1.91076
G1 X127.507 Y83.055 F7800.000
G1 X127.593 Y83.147 F540.000 E1.91912
G1 X127.157 Y82.872 F7800.000
G1 X127.072 Y82.937 F540.000 E1.92620
G1 X127.072 Y82.937 F7800.000
G1 X126.810 Y82.996 F540.000 E1.94412
G1 F1800.000 E0.54412
G92 E0
G1 X121.556 Y83.664 F7800.000
G1 F1800.000 E1.40000
G1 X120.280 Y83.664 F1080.000 E1.48594
G1 X121.556 Y84.940 E1.60748
G1 X121.556 Y86.216 E1.69341
G1 X119.004 Y83.664 E1.93648
G1 X117.728 Y83.664 E2.02241
G1 X120.400 Y86.336 E2.27688
G1 X119.124 Y86.336 E2.36281
G1 X116.452 Y83.664 E2.61729
G1 X115.177 Y83.664 E2.70322
G1 X117.848 Y86.336 E2.95769
G1 X116.572 Y86.336 E3.04362
G1 X113.901 Y83.664 E3.29810
G1 X112.625 Y83.664 E3.38403
G1 X115.297 Y86.336 E3.63851
G1 X114.021 Y86.336 E3.72444
G1 X111.349 Y83.664 E3.97891
G1 X110.074 Y83.664 E4.06484
G1 X112.745 Y86.336 E4.31932
G1 X111.469 Y86.336 E4.40525
G1 X108.798 Y83.664 E4.65972
G1 X107.522 Y83.664 E4.74565
G1 X110.194 Y86.336 E5.00013
G1 X108.918 Y86.336 E5.08606
G1 X106.246 Y83.664 E5.34053
G1 X104.971 Y83.664 E5.42646
G1 X107.642 Y86.336 E5.68094
G1 X106.366 Y86.336 E5.76687
G1 X103.695 Y83.664 E6.02134
G1 X102.419 Y83.664 E6.10727
G1 X105.091 Y86.336 E6.36175
G1 X103.815 Y86.336 E6.44768
G1 X101.143 Y83.664 E6.70215
G1 X99.868 Y83.664 E6.78808
G1 X102.539 Y86.336 E7.04256
G1 X101.263 Y86.336 E7.12849
G1 X98.592 Y83.664 E7.38297
G1 X97.316 Y83.664 E7.46889
G1 X99.988 Y86.336 E7.72337
G1 X98.712 Y86.336 E7.80930
G1 X96.040 Y83.664 E8.06378
G1 X94.884 Y83.784 E8.14205
G1 X97.436 Y86.336 E8.38512
G1 X96.160 Y86.336 E8.47105
G1 X94.884 Y85.060 E8.59259
G1 X94.884 Y86.336 E8.67853
G1 F1800.000 E7.27853
G92 E0
G1 X65.763 Y86.983 F7800.000
G1 F1800.000 E1.40000
G1 X37.797 Y86.983 F540.000 E3.26400
G1 X37.797 Y83.017 E3.52832
G1 X65.763 Y83.017 E5.39232
G1 X65.763 Y86.849 E5.64772
G1 X66.656 Y87.876 F7800.000
G1 X36.904 Y87.876 F540.000 E7.63072
G1 X36.904 Y82.124 E8.01405
G1 X66.656 Y82.124 E9.99705
G1 X66.656 Y87.742 E10.37145
G1 X67.548 Y88.768 F7800.000
G1 X36.012 Y88.768 F540.000 E12.47345
G1 X36.012 Y81.232 E12.97578
G1 X67.548 Y81.232 E15.07778
G1 X67.548 Y88.634 E15.57119
G1 X68.441 Y89.661 F7800.000
G1 X35.119 Y89.661 F540.000 E17.79219
G1 X35.119 Y85.729 E18.05430
G1 X33.836 Y85.407 E18.14248
G1 X33.875 Y85.000 E18.16974
G1 X33.836 Y84.593 E18.19700
G1 X35.119 Y84.271 E18.28519
G1 X35.119 Y80.339 E18.54729
G1 X68.441 Y80.339 E20.76830
G1 X68.441 Y84.271 E21.03040
G1 X69.724 Y84.593 E21.11859
G1 X69.685 Y85.000 E21.14585
G1 X69.724 Y85.407 E21.17310
G1 X68.441 Y85.729 E21.26129
G1 X68.441 Y89.527 E21.51447
G1 X69.334 Y90.554 F7800.000
G1 X34.226 Y90.554 F378.000 E23.85448
G1 X34.226 Y86.425 E24.12965
G1 X33.473 Y86.236 E24.18142
G1 X32.856 Y87.390 E24.26861
G1 X32.322 Y88.042 E24.32479
G1 X31.670 Y88.576 E24.38096
G1 X30.926 Y88.974 E24.43718
G1 X30.119 Y89.219 E24.49338
G1 X29.280 Y89.302 E24.54960
G1 X28.441 Y89.219 E24.60582
G1 X27.634 Y88.974 E24.66203
G1 X27.006 Y88.638 E24.70945
G1 X27.006 Y87.958 E24.75480
G1 X27.864 Y88.417 E24.81966
G1 X28.559 Y88.628 E24.86803
G1 X29.280 Y88.698 E24.91634
G1 X30.001 Y88.628 E24.96465
G1 X30.696 Y88.417 E25.01302
G1 X31.335 Y88.075 E25.06138
G1 X31.895 Y87.615 E25.10965
G1 X32.355 Y87.055 E25.15793
G1 X32.697 Y86.416 E25.20629
G1 X32.908 Y85.721 E25.25466
G1 X32.978 Y85.000 E25.30297
G1 X32.908 Y84.279 E25.35127
G1 X32.697 Y83.584 E25.39964
G1 X32.355 Y82.945 E25.44800
G1 X31.895 Y82.385 E25.49628
G1 X31.335 Y81.925 E25.54455
G1 X30.696 Y81.583 E25.59291
G1 X30.001 Y81.372 E25.64128
G1 X29.280 Y81.302 E25.68959
G1 X28.559 Y81.372 E25.73790
G1 X27.864 Y81.583 E25.78627
G1 X27.006 Y82.042 E25.85113
G1 X27.006 Y81.362 E25.89648
G1 X27.634 Y81.026 E25.94391
G1 X28.441 Y80.781 E26.00011
G1 X29.280 Y80.698 E26.05633
G1 X30.119 Y80.781 E26.11255
G1 X30.926 Y81.026 E26.16876
G1 X31.670 Y81.424 E26.22497
G1 X32.322 Y81.958 E26.28115
G1 X32.856 Y82.610 E26.33732
G1 X33.473 Y83.764 E26.42451
G1 X34.226 Y83.575 E26.47629
G1 X34.226 Y79.446 E26.75146
G1 X69.334 Y79.446 E29.09146
G1 X69.334 Y83.575 E29.36663
G1 X70.087 Y83.764 E29.41841
G1 X70.704 Y82.610 E29.50560
G1 X71.238 Y81.958 E29.56178
G1 X71.890 Y81.424 E29.61795
G1 X72.634 Y81.026 E29.67417
G1 X73.441 Y80.781 E29.73037
G1 X74.280 Y80.698 E29.78659
G1 X75.119 Y80.781 E29.84281
G1 X75.926 Y81.026 E29.89901
G1 X76.554 Y81.362 E29.94644
G1 X76.554 Y82.042 E29.99179
G1 X75.696 Y81.583 E30.05665
G1 X75.001 Y81.372 E30.10502
G1 X74.280 Y81.302 E30.15333
G1 X73.559 Y81.372 E30.20164
G1 X72.864 Y81.583 E30.25001
G1 X72.225 Y81.925 E30.29837
G1 X71.665 Y82.385 E30.34664
G1 X71.205 Y82.945 E30.39492
G1 X70.863 Y83.584 E30.44328
G1 X70.652 Y84.279 E30.49165
G1 X70.582 Y85.000 E30.53996
G1 X70.652 Y85.721 E30.58826
G1 X70.863 Y86.416 E30.63663
G1 X71.205 Y87.055 E30.68499
G1 X71.665 Y87.615 E30.73327
G1 X72.225 Y88.075 E30.78155
G1 X72.864 Y88.417 E30.82990
G1 X73.559 Y88.628 E30.87827
G1 X74.280 Y88.698 E30.92658
G1 X75.001 Y88.628 E30.97489
G1 X75.696 Y88.417 E31.02326
G1 X76.554 Y87.958 E31.08812
G1 X76.554 Y88.638 E31.13347
G1 X75.926 Y88.974 E31.18090
G1 X75.119 Y89.219 E31.23710
G1 X74.280 Y89.302 E31.29332
G1 X73.441 Y89.219 E31.34954
G1 X72.634 Y88.974 E31.40574
G1 X71.890 Y88.576 E31.46196
G1 X71.238 Y88.042 E31.51813
G1 X70.704 Y87.390 E31.57431
G1 X70.087 Y86.236 E31.66150
G1 X69.334 Y86.425 E31.71328
G1 X69.334 Y90.420 E31.97952
G1 X68.561 Y90.107 F7800.000
G1 F1800.000 E30.57952
G92 E0
G1 X28.342 Y88.893 F7800.000
G1 F1800.000 E1.40000
G1 X29.876 Y88.956 F540.000 E1.50228
G1 X30.957 Y88.630 E1.57754
G1 X32.235 Y87.686 E1.68348
G1 X32.588 Y87.247 E1.72102
G1 X32.440 Y86.903 E1.74596
G1 X32.588 Y87.247 F7800.000
G1 X32.859 Y87.146 F540.000 E1.76523
G1 X32.859 Y87.146 F7800.000
G1 X32.923 Y87.083 F540.000 E1.77120
G1 X32.407 Y83.147 F7800.000
G1 X32.493 Y83.055 F540.000 E1.77956
G1 X32.493 Y83.055 F7800.000
G1 X32.589 Y82.756 F540.000 E1.80050
G1 X33.125 Y82.968 F7800.000
G1 X32.589 Y82.756 F540.000 E1.83892
G1 X31.969 Y82.041 E1.90196
G1 X31.969 Y82.041 F7800.000
G1 X31.014 Y81.419 F540.000 E1.97793
G1 X31.014 Y81.419 F7800.000
G1 X29.872 Y81.045 F540.000 E2.05804
G1 X29.872 Y81.045 F7800.000
G1 X29.409 Y80.998 F540.000 E2.08906
G1 X29.409 Y80.998 F7800.000
G1 X29.049 Y81.020 F540.000 E2.11313
G1 X29.049 Y81.020 F7800.000
G1 X27.541 Y81.411 F540.000 E2.21692
G1 X27.541 Y81.411 F7800.000
G1 X26.958 Y82.152 F540.000 E2.27980
G1 X26.958 Y82.152 F7800.000
G1 X26.913 Y82.367 F540.000 E2.29443
G1 X26.913 Y82.367 F7800.000
G1 X26.746 Y82.569 F540.000 E2.31191
G1 X26.746 Y82.569 F7800.000
G1 X26.778 Y82.741 F540.000 E2.32352
G1 F1800.000 E0.92352
G92 E0
G1 X26.739 Y87.419 F7800.000
G1 F1800.000 E1.40000
G1 X26.909 Y87.594 F540.000 E1.41626
G1 X26.909 Y87.594 F7800.000
G1 X27.372 Y88.493 F540.000 E1.48367
G1 X28.342 Y88.893 E1.55362
G1 F1800.000 E0.15362
G92 E0
G1 X70.414 Y87.026 F7800.000
