; generated by Slic3r 0.9.9 on 2013-07-11 at 19:12:50

; layer_height = 0.31
; perimeters = 3
; top_solid_layers = 3
; bottom_solid_layers = 3
; fill_density = 0.4
; perimeter_speed = 60
; infill_speed = 120
; travel_speed = 260
; nozzle_diameter = 0.5
; filament_diameter = 2.92
; extrusion_multiplier = 1
; perimeters extrusion width = 0.55mm
; infill extrusion width = 0.55mm
; solid infill extrusion width = 0.55mm
; top infill extrusion width = 0.55mm
; first layer extrusion width = 1.00mm

G21 ; set units to millimeters
M107
M190 S115 ; wait for bed temperature to be reached
M104 S230 ; set temperature
G28 ; home all axes
G1 Z5 F5000 ; lift nozzle
M109 S230 ; wait for temperature to be reached
G90 ; use absolute coordinates
G92 E0
M82 ; use absolute distances for extrusion
G1 F1800.000 E-1.40000
G92 E0
G1 Z-0.900 F15600.000
G1 X23.380 Y38.980
G1 F1800.000 E1.40000
G1 X24.440 Y38.410 F1080.000 E1.48022
G1 X24.940 Y38.190 E1.51663
G1 X25.460 Y38.010 E1.55331
G1 X26.350 Y37.740 E1.61530
G1 X32.130 Y36.310 E2.01217
G1 X32.780 Y36.180 E2.05635
G1 X33.110 Y36.140 E2.07851
G1 X33.780 Y36.110 E2.12321
G1 X126.220 Y36.110 E8.28461
G1 X126.890 Y36.140 E8.32931
G1 X127.220 Y36.180 E8.35147
G1 X127.870 Y36.310 E8.39565
G1 X133.290 Y37.650 E8.76779
G1 X134.530 Y38.010 E8.85385
G1 X135.050 Y38.190 E8.89053
G1 X135.550 Y38.410 E8.92694
G1 X136.610 Y38.980 E9.00715
G1 X137.170 Y39.310 E9.05048
G1 X137.720 Y39.710 E9.09581
G1 X138.350 Y40.270 E9.15199
G1 X138.910 Y40.910 E9.20867
G1 X139.380 Y41.610 E9.26487
G1 X139.650 Y42.110 E9.30275
G1 X139.970 Y42.890 E9.35894
G1 X140.130 Y43.430 E9.39648
G1 X140.240 Y43.990 E9.43452
G1 X140.330 Y44.830 E9.49083
G1 X140.330 Y125.160 E14.84506
G1 X140.280 Y125.720 E14.88254
G1 X140.190 Y126.280 E14.92034
G1 X140.130 Y126.560 E14.93943
G1 X139.970 Y127.100 E14.97697
G1 X139.650 Y127.880 E15.03316
G1 X139.520 Y128.130 E15.05194
G1 X139.230 Y128.620 E15.08989
G1 X138.910 Y129.080 E15.12724
G1 X138.350 Y129.720 E15.18392
G1 X138.150 Y129.910 E15.20231
G1 X137.720 Y130.280 E15.24012
G1 X137.260 Y130.620 E15.27825
G1 X136.610 Y131.010 E15.32877
G1 X135.550 Y131.580 E15.40899
G1 X135.050 Y131.800 E15.44540
G1 X134.530 Y131.980 E15.48208
G1 X133.310 Y132.340 E15.56686
G1 X127.890 Y133.690 E15.93916
G1 X127.230 Y133.820 E15.98400
G1 X126.890 Y133.860 E16.00681
G1 X126.220 Y133.890 E16.05152
G1 X33.440 Y133.880 E22.23558
G1 X32.780 Y133.820 E22.27975
G1 X32.120 Y133.690 E22.32459
G1 X26.690 Y132.340 E22.69753
G1 X25.460 Y131.980 E22.78295
G1 X24.940 Y131.800 E22.81963
G1 X24.440 Y131.580 E22.85604
G1 X23.380 Y131.010 E22.93626
G1 X22.420 Y130.390 E23.01243
G1 X21.990 Y130.040 E23.04939
G1 X21.590 Y129.660 E23.08616
G1 X21.220 Y129.240 E23.12347
G1 X20.890 Y128.800 E23.16013
G1 X20.590 Y128.330 E23.19729
G1 X20.460 Y128.090 E23.21548
G1 X20.220 Y127.580 E23.25305
G1 X20.020 Y127.060 E23.29019
G1 X19.940 Y126.800 E23.30832
G1 X19.760 Y125.990 E23.36362
G1 X19.670 Y125.160 E23.41927
G1 X19.670 Y44.830 E28.77350
G1 X19.760 Y44.000 E28.82915
G1 X19.940 Y43.190 E28.88446
G1 X20.120 Y42.660 E28.92176
G1 X20.330 Y42.150 E28.95853
G1 X20.590 Y41.660 E28.99550
G1 X21.050 Y40.970 E29.05077
G1 X21.590 Y40.330 E29.10659
G1 X21.990 Y39.950 E29.14336
G1 X22.420 Y39.600 E29.18032
G1 X23.267 Y39.052 E29.24756
G1 F1800.000 E27.84756
G92 E0
G1 X92.452 Y81.232 F15600.000
G1 F1800.000 E1.40000
G1 X123.988 Y81.232 F1080.000 E3.50200
G1 X123.988 Y88.768 E4.00433
G1 X92.452 Y88.768 E6.10633
G1 X92.452 Y81.366 E6.59974
G1 X91.559 Y80.339 F15600.000
G1 X124.881 Y80.339 F1080.000 E8.82074
G1 X124.881 Y84.271 E9.08284
G1 X126.164 Y84.593 E9.17103
G1 X126.125 Y85.000 E9.19829
G1 X126.164 Y85.407 E9.22555
G1 X124.881 Y85.729 E9.31374
G1 X124.881 Y89.661 E9.57584
G1 X91.559 Y89.661 E11.79684
G1 X91.559 Y85.729 E12.05895
G1 X90.276 Y85.407 E12.14713
G1 X90.315 Y85.000 E12.17439
G1 X90.276 Y84.593 E12.20165
G1 X91.559 Y84.271 E12.28984
G1 X91.559 Y80.473 E12.54302
G1 X90.666 Y79.446 F15600.000
G1 X125.774 Y79.446 F540.000 E14.88302
G1 X125.774 Y83.575 E15.15820
G1 X126.527 Y83.764 E15.20997
G1 X127.144 Y82.610 E15.29716
G1 X127.678 Y81.958 E15.35334
G1 X128.330 Y81.424 E15.40951
G1 X129.074 Y81.026 E15.46573
G1 X129.881 Y80.781 E15.52193
G1 X130.720 Y80.698 E15.57815
G1 X131.559 Y80.781 E15.63437
G1 X132.366 Y81.026 E15.69058
G1 X132.994 Y81.362 E15.73800
G1 X132.994 Y82.042 E15.78335
G1 X132.136 Y81.583 E15.84821
G1 X131.441 Y81.372 E15.89658
G1 X130.720 Y81.302 E15.94489
G1 X129.999 Y81.372 E15.99320
G1 X129.304 Y81.583 E16.04157
G1 X128.665 Y81.925 E16.08993
G1 X128.105 Y82.385 E16.13820
G1 X127.645 Y82.945 E16.18648
G1 X127.303 Y83.584 E16.23484
G1 X127.092 Y84.279 E16.28321
G1 X127.022 Y85.000 E16.33152
G1 X127.092 Y85.721 E16.37983
G1 X127.303 Y86.416 E16.42820
G1 X127.645 Y87.055 E16.47655
G1 X128.105 Y87.615 E16.52483
G1 X128.665 Y88.075 E16.57311
G1 X129.304 Y88.417 E16.62146
G1 X129.999 Y88.628 E16.66984
G1 X130.720 Y88.698 E16.71814
G1 X131.441 Y88.628 E16.76645
G1 X132.136 Y88.417 E16.81482
G1 X132.994 Y87.958 E16.87969
G1 X132.994 Y88.638 E16.92503
G1 X132.366 Y88.974 E16.97246
G1 X131.559 Y89.219 E17.02866
G1 X130.720 Y89.302 E17.08488
G1 X129.881 Y89.219 E17.14110
G1 X129.074 Y88.974 E17.19731
G1 X128.330 Y88.576 E17.25352
G1 X127.678 Y88.042 E17.30970
G1 X127.144 Y87.390 E17.36587
G1 X126.527 Y86.236 E17.45306
G1 X125.774 Y86.425 E17.50484
G1 X125.774 Y90.554 E17.78001
G1 X90.666 Y90.554 E20.12002
G1 X90.666 Y86.425 E20.39519
G1 X89.913 Y86.236 E20.44696
G1 X89.296 Y87.390 E20.53415
G1 X88.762 Y88.042 E20.59033
G1 X88.110 Y88.576 E20.64650
G1 X87.366 Y88.974 E20.70272
G1 X86.559 Y89.219 E20.75892
G1 X85.720 Y89.302 E20.81514
G1 X84.881 Y89.219 E20.87136
G1 X84.074 Y88.974 E20.92757
G1 X83.446 Y88.638 E20.97499
G1 X83.446 Y87.958 E21.02034
G1 X84.304 Y88.417 E21.08520
G1 X84.999 Y88.628 E21.13357
G1 X85.720 Y88.698 E21.18188
G1 X86.441 Y88.628 E21.23019
G1 X87.136 Y88.417 E21.27856
G1 X87.775 Y88.075 E21.32692
G1 X88.335 Y87.615 E21.37519
G1 X88.795 Y87.055 E21.42347
G1 X89.137 Y86.416 E21.47183
G1 X89.348 Y85.721 E21.52020
G1 X89.418 Y85.000 E21.56851
G1 X89.348 Y84.279 E21.61682
G1 X89.137 Y83.584 E21.66518
G1 X88.795 Y82.945 E21.71354
G1 X88.335 Y82.385 E21.76182
G1 X87.775 Y81.925 E21.81010
G1 X87.136 Y81.583 E21.85846
G1 X86.441 Y81.372 E21.90683
G1 X85.720 Y81.302 E21.95513
G1 X84.999 Y81.372 E22.00344
G1 X84.304 Y81.583 E22.05181
G1 X83.446 Y82.042 E22.11667
G1 X83.446 Y81.362 E22.16202
G1 X84.074 Y81.026 E22.20945
G1 X84.881 Y80.781 E22.26565
G1 X85.720 Y80.698 E22.32187
G1 X86.559 Y80.781 E22.37809
G1 X87.366 Y81.026 E22.43430
G1 X88.110 Y81.424 E22.49051
G1 X88.762 Y81.958 E22.54669
G1 X89.296 Y82.610 E22.60286
G1 X89.913 Y83.764 E22.69005
G1 X90.666 Y83.575 E22.74183
G1 X90.666 Y79.580 E23.00807
G1 X91.439 Y79.893 F15600.000
G1 F1800.000 E21.60807
G92 E0
G1 X84.782 Y88.893 F15600.000
G1 F1800.000 E1.40000
G1 X86.316 Y88.956 F1080.000 E1.50228
G1 X87.397 Y88.630 E1.57754
G1 X88.675 Y87.686 E1.68348
G1 X89.028 Y87.247 E1.72102
G1 X88.880 Y86.903 E1.74596
G1 X89.028 Y87.247 F15600.000
G1 X89.299 Y87.146 F1080.000 E1.76523
G1 X89.299 Y87.146 F15600.000
G1 X89.363 Y87.083 F1080.000 E1.77120
G1 X88.847 Y83.147 F15600.000
G1 X88.933 Y83.055 F1080.000 E1.77956
G1 X88.933 Y83.055 F15600.000
G1 X89.029 Y82.756 F1080.000 E1.80050
G1 X89.565 Y82.968 F15600.000
G1 X89.029 Y82.756 F1080.000 E1.83892
G1 X88.409 Y82.041 E1.90196
G1 X88.409 Y82.041 F15600.000
G1 X87.454 Y81.419 F1080.000 E1.97793
G1 X87.454 Y81.419 F15600.000
G1 X86.312 Y81.045 F1080.000 E2.05804
G1 X86.312 Y81.045 F15600.000
G1 X85.849 Y80.998 F1080.000 E2.08906
G1 X85.849 Y80.998 F15600.000
G1 X85.489 Y81.020 F1080.000 E2.11313
G1 X85.489 Y81.020 F15600.000
G1 X83.981 Y81.411 F1080.000 E2.21692
G1 X83.981 Y81.411 F15600.000
G1 X83.398 Y82.152 F1080.000 E2.27980
G1 X83.398 Y82.152 F15600.000
G1 X83.353 Y82.367 F1080.000 E2.29443
G1 X83.353 Y82.367 F15600.000
G1 X83.186 Y82.569 F1080.000 E2.31191
G1 X83.186 Y82.569 F15600.000
G1 X83.218 Y82.741 F1080.000 E2.32352
G1 F1800.000 E0.92352
G92 E0
G1 X83.179 Y87.419 F15600.000
G1 F1800.000 E1.40000
G1 X83.349 Y87.594 F1080.000 E1.41626
G1 X83.349 Y87.594 F15600.000
G1 X83.812 Y88.493 F1080.000 E1.48367
G1 X84.782 Y88.893 E1.55362
G1 F1800.000 E0.15362
G92 E0
G1 X126.854 Y87.026 F15600.000
G1 F1800.000 E1.40000
G1 X127.414 Y87.248 F1080.000 E1.44013
G1 X127.630 Y86.801 E1.47323
G1 X127.414 Y87.248 F15600.000
G1 X128.363 Y88.237 F1080.000 E1.56465
G1 X129.339 Y88.753 E1.63818
G1 X130.560 Y89.001 E1.72123
G1 X131.656 Y88.888 E1.79469
G1 X131.656 Y88.888 F15600.000
G1 X132.682 Y88.455 F1080.000 E1.86893
G1 X133.206 Y87.281 E1.95466
G1 F1800.000 E0.55466
G92 E0
G1 X133.254 Y82.577 F15600.000
G1 F1800.000 E1.40000
G1 X132.604 Y81.495 F1080.000 E1.48418
G1 X130.849 Y80.998 E1.60575
G1 X129.308 Y81.253 E1.70988
G1 X127.749 Y82.347 E1.83683
G1 X127.749 Y82.347 F15600.000
G1 X127.420 Y82.784 F1080.000 E1.87326
G1 X127.157 Y82.872 F15600.000
G1 X127.420 Y82.784 F1080.000 E1.89179
G1 X127.507 Y83.055 E1.91076
G1 X127.507 Y83.055 F15600.000
G1 X127.593 Y83.147 F1080.000 E1.91912
G1 X127.157 Y82.872 F15600.000
G1 X127.072 Y82.937 F1080.000 E1.92620
G1 X127.072 Y82.937 F15600.000
G1 X126.810 Y82.996 F1080.000 E1.94412
G1 F1800.000 E0.54412
G92 E0
G1 X123.341 Y81.879 F15600.000
G1 F1800.000 E1.40000
G1 X123.341 Y83.182 F2160.000 E1.48965
G1 X122.038 Y81.879 E1.61644
G1 X120.735 Y81.879 E1.70608
G1 X123.341 Y84.485 E1.95963
G1 X123.341 Y85.788 E2.04927
G1 X119.432 Y81.879 E2.42959
G1 X118.129 Y81.879 E2.51923
G1 X123.341 Y87.091 E3.02632
G1 X123.068 Y88.121 E3.09963
G1 X116.826 Y81.879 E3.70694
G1 X115.523 Y81.879 E3.79658
G1 X121.765 Y88.121 E4.40389
G1 X120.462 Y88.121 E4.49352
G1 X114.220 Y81.879 E5.10083
G1 X112.917 Y81.879 E5.19047
G1 X119.159 Y88.121 E5.79778
G1 X117.856 Y88.121 E5.88742
G1 X111.614 Y81.879 E6.49472
G1 X110.311 Y81.879 E6.58436
G1 X116.553 Y88.121 E7.19167
G1 X115.250 Y88.121 E7.28131
G1 X109.008 Y81.879 E7.88861
G1 X107.705 Y81.879 E7.97825
G1 X113.947 Y88.121 E8.58556
G1 X112.644 Y88.121 E8.67520
G1 X106.402 Y81.879 E9.28251
G1 X105.099 Y81.879 E9.37215
G1 X111.341 Y88.121 E9.97945
G1 X110.038 Y88.121 E10.06909
G1 X103.796 Y81.879 E10.67640
G1 X102.493 Y81.879 E10.76604
G1 X108.735 Y88.121 E11.37334
G1 X107.432 Y88.121 E11.46298
G1 X101.190 Y81.879 E12.07029
G1 X99.887 Y81.879 E12.15993
G1 X106.129 Y88.121 E12.76724
G1 X104.826 Y88.121 E12.85687
G1 X98.584 Y81.879 E13.46418
G1 X97.281 Y81.879 E13.55382
G1 X103.523 Y88.121 E14.16113
G1 X102.220 Y88.121 E14.25077
G1 X95.978 Y81.879 E14.85807
G1 X94.675 Y81.879 E14.94771
G1 X100.917 Y88.121 E15.55502
G1 X99.614 Y88.121 E15.64466
G1 X93.372 Y81.879 E16.25197
G1 X93.099 Y82.909 E16.32527
G1 X98.311 Y88.121 E16.83236
G1 X97.008 Y88.121 E16.92200
G1 X93.099 Y84.212 E17.30233
G1 X93.099 Y85.515 E17.39197
G1 X95.705 Y88.121 E17.64552
G1 X94.402 Y88.121 E17.73516
G1 X93.099 Y86.818 E17.86195
G1 X93.099 Y88.121 E17.95160
G1 F1800.000 E16.55160
G92 E0
G1 X92.452 Y70.768 F15600.000
G1 F1800.000 E1.40000
G1 X92.452 Y63.232 F1080.000 E1.90233
G1 X123.988 Y63.232 E4.00433
G1 X123.988 Y70.768 E4.50666
G1 X92.586 Y70.768 E6.59974
G1 X91.559 Y71.661 F15600.000
G1 X91.559 Y67.729 F1080.000 E6.86184
G1 X90.276 Y67.407 E6.95003
G1 X90.315 Y67.000 E6.97729
G1 X90.276 Y66.593 E7.00455
G1 X91.559 Y66.271 E7.09274
G1 X91.559 Y62.339 E7.35484
G1 X124.881 Y62.339 E9.57584
G1 X124.881 Y66.271 E9.83794
G1 X126.164 Y66.593 E9.92613
G1 X126.125 Y67.000 E9.95339
G1 X126.164 Y67.407 E9.98065
G1 X124.881 Y67.729 E10.06884
G1 X124.881 Y71.661 E10.33094
G1 X91.693 Y71.661 E12.54302
G1 X90.666 Y72.554 F15600.000
G1 X90.666 Y68.425 F540.000 E12.81819
G1 X89.913 Y68.236 E12.86997
G1 X89.296 Y69.390 E12.95715
G1 X88.762 Y70.042 E13.01333
G1 X88.110 Y70.576 E13.06950
G1 X87.366 Y70.974 E13.12572
G1 X86.559 Y71.219 E13.18193
G1 X85.720 Y71.302 E13.23814
G1 X84.881 Y71.219 E13.29436
G1 X84.074 Y70.974 E13.35057
G1 X83.446 Y70.638 E13.39799
G1 X83.446 Y69.958 E13.44334
G1 X84.304 Y70.417 E13.50820
G1 X84.999 Y70.628 E13.55657
G1 X85.720 Y70.698 E13.60488
G1 X86.441 Y70.628 E13.65319
G1 X87.136 Y70.417 E13.70156
G1 X87.775 Y70.075 E13.74992
G1 X88.335 Y69.615 E13.79819
G1 X88.795 Y69.055 E13.84647
G1 X89.137 Y68.416 E13.89483
G1 X89.348 Y67.721 E13.94320
G1 X89.418 Y67.000 E13.99151
G1 X89.348 Y66.279 E14.03982
G1 X89.137 Y65.584 E14.08819
G1 X88.795 Y64.945 E14.13655
G1 X88.335 Y64.385 E14.18482
G1 X87.775 Y63.925 E14.23310
G1 X87.136 Y63.583 E14.28146
G1 X86.441 Y63.372 E14.32983
G1 X85.720 Y63.302 E14.37814
G1 X84.999 Y63.372 E14.42644
G1 X84.304 Y63.583 E14.47481
G1 X83.446 Y64.042 E14.53968
G1 X83.446 Y63.362 E14.58502
G1 X84.074 Y63.026 E14.63245
G1 X84.881 Y62.781 E14.68866
G1 X85.720 Y62.698 E14.74487
G1 X86.559 Y62.781 E14.80109
G1 X87.366 Y63.026 E14.85730
G1 X88.110 Y63.424 E14.91351
G1 X88.762 Y63.958 E14.96969
G1 X89.296 Y64.610 E15.02587
G1 X89.913 Y65.764 E15.11305
G1 X90.666 Y65.575 E15.16483
G1 X90.666 Y61.446 E15.44000
G1 X125.774 Y61.446 E17.78001
G1 X125.774 Y65.575 E18.05518
G1 X126.527 Y65.764 E18.10695
G1 X127.144 Y64.610 E18.19414
G1 X127.678 Y63.958 E18.25032
G1 X128.330 Y63.424 E18.30649
G1 X129.074 Y63.026 E18.36271
G1 X129.881 Y62.781 E18.41891
G1 X130.720 Y62.698 E18.47513
G1 X131.559 Y62.781 E18.53135
G1 X132.366 Y63.026 E18.58756
G1 X132.994 Y63.362 E18.63498
G1 X132.994 Y64.042 E18.68033
G1 X132.136 Y63.583 E18.74519
G1 X131.441 Y63.372 E18.79356
G1 X130.720 Y63.302 E18.84187
G1 X129.999 Y63.372 E18.89018
G1 X129.304 Y63.583 E18.93855
G1 X128.665 Y63.925 E18.98691
G1 X128.105 Y64.385 E19.03518
G1 X127.645 Y64.945 E19.08346
G1 X127.303 Y65.584 E19.13182
G1 X127.092 Y66.279 E19.18019
G1 X127.022 Y67.000 E19.22850
G1 X127.092 Y67.721 E19.27681
G1 X127.303 Y68.416 E19.32518
G1 X127.645 Y69.055 E19.37353
G1 X128.105 Y69.615 E19.42181
G1 X128.665 Y70.075 E19.47009
G1 X129.304 Y70.417 E19.51845
G1 X129.999 Y70.628 E19.56682
G1 X130.720 Y70.698 E19.61513
G1 X131.441 Y70.628 E19.66343
G1 X132.136 Y70.417 E19.71180
G1 X132.994 Y69.958 E19.77667
G1 X132.994 Y70.638 E19.82201
G1 X132.366 Y70.974 E19.86944
G1 X131.559 Y71.219 E19.92565
G1 X130.720 Y71.302 E19.98186
G1 X129.881 Y71.219 E20.03808
G1 X129.074 Y70.974 E20.09429
G1 X128.330 Y70.576 E20.15050
G1 X127.678 Y70.042 E20.20668
G1 X127.144 Y69.390 E20.26286
G1 X126.527 Y68.236 E20.35004
G1 X125.774 Y68.425 E20.40182
G1 X125.774 Y72.554 E20.67699
G1 X90.800 Y72.554 E23.00807
G1 X91.113 Y71.781 F15600.000
G1 F1800.000 E21.60807
G92 E0
G1 X84.782 Y70.893 F15600.000
G1 F1800.000 E1.40000
G1 X86.316 Y70.956 F1080.000 E1.50228
G1 X87.397 Y70.630 E1.57754
G1 X88.675 Y69.686 E1.68348
G1 X89.028 Y69.247 E1.72102
G1 X88.880 Y68.903 E1.74596
G1 X89.028 Y69.247 F15600.000
G1 X89.299 Y69.146 F1080.000 E1.76523
G1 X89.299 Y69.146 F15600.000
G1 X89.363 Y69.083 F1080.000 E1.77120
G1 X88.847 Y65.147 F15600.000
G1 X88.933 Y65.055 F1080.000 E1.77956
G1 X88.933 Y65.055 F15600.000
G1 X89.029 Y64.756 F1080.000 E1.80050
G1 X89.565 Y64.968 F15600.000
G1 X89.029 Y64.756 F1080.000 E1.83892
G1 X88.409 Y64.041 E1.90196
G1 X88.409 Y64.041 F15600.000
G1 X87.454 Y63.419 F1080.000 E1.97793
G1 X87.454 Y63.419 F15600.000
G1 X86.312 Y63.045 F1080.000 E2.05804
G1 X86.312 Y63.045 F15600.000
G1 X85.849 Y62.998 F1080.000 E2.08906
G1 X85.849 Y62.998 F15600.000
G1 X85.489 Y63.020 F1080.000 E2.11313
G1 X85.489 Y63.020 F15600.000
G1 X83.981 Y63.411 F1080.000 E2.21692
G1 X83.981 Y63.411 F15600.000
G1 X83.398 Y64.152 F1080.000 E2.27980
G1 X83.398 Y64.152 F15600.000
G1 X83.353 Y64.367 F1080.000 E2.29443
G1 X83.353 Y64.367 F15600.000
G1 X83.186 Y64.569 F1080.000 E2.31191
G1 X83.186 Y64.569 F15600.000
G1 X83.218 Y64.741 F1080.000 E2.32352
G1 F1800.000 E0.92352
G92 E0
G1 X83.179 Y69.419 F15600.000
G1 F1800.000 E1.40000
G1 X83.349 Y69.594 F1080.000 E1.41626
G1 X83.349 Y69.594 F15600.000
G1 X83.812 Y70.493 F1080.000 E1.48367
G1 X84.782 Y70.893 E1.55362
G1 F1800.000 E0.15362
G92 E0
G1 X126.854 Y69.026 F15600.000
G1 F1800.000 E1.40000
G1 X127.414 Y69.248 F1080.000 E1.44013
G1 X127.630 Y68.801 E1.47323
G1 X127.414 Y69.248 F15600.000
