; generated by Slic3r 0.9.9 on 2013-07-11 at 00:24:40

; layer_height = 0.31
; perimeters = 3
; top_solid_layers = 3
; bottom_solid_layers = 3
; fill_density = 0.4
; perimeter_speed = 60
; infill_speed = 120
; travel_speed = 260
; nozzle_diameter = 0.5
; filament_diameter = 2.92
; extrusion_multiplier = 1
; perimeters extrusion width = 0.55mm
; infill extrusion width = 0.55mm
; solid infill extrusion width = 0.55mm
; top infill extrusion width = 0.55mm
; first layer extrusion width = 1.00mm

G21 ; set units to millimeters
M107
M190 S115 ; wait for bed temperature to be reached
M104 S230 ; set temperature
G28 ; home all axes
G1 Z5 F5000 ; lift nozzle
M109 S230 ; wait for temperature to be reached
G90 ; use absolute coordinates
G92 E0
M82 ; use absolute distances for extrusion
G1 F1800.000 E-1.40000
G92 E0
G1 Z-0.900 F15600.000
G1 X63.961 Y55.228
G1 F1800.000 E1.40000
G1 X69.771 Y49.428 F1080.000 E1.94719
G1 X70.191 Y49.068 E1.98406
G1 X70.881 Y48.598 E2.03971
G1 X71.611 Y48.218 E2.09456
G1 X72.121 Y48.008 E2.13132
G1 X72.921 Y47.778 E2.18680
G1 X73.741 Y47.648 E2.24214
G1 X74.561 Y47.618 E2.29683
G1 X75.121 Y47.648 E2.33421
G1 X75.481 Y47.688 E2.35836
G1 X76.011 Y47.788 E2.39431
G1 X76.531 Y47.918 E2.43003
G1 X77.421 Y48.188 E2.49202
G1 X77.941 Y48.368 E2.52870
G1 X78.441 Y48.588 E2.56511
G1 X79.801 Y49.328 E2.66831
G1 X84.591 Y52.218 E3.04118
G1 X85.151 Y52.588 E3.08592
G1 X85.661 Y53.018 E3.13038
G1 X111.351 Y78.698 E5.55149
G1 X111.581 Y78.938 E5.57365
G1 X112.011 Y79.448 E5.61811
G1 X112.381 Y79.998 E5.66229
G1 X115.271 Y84.778 E6.03460
G1 X116.011 Y86.148 E6.13838
G1 X116.231 Y86.648 E6.17479
G1 X116.411 Y87.168 E6.21147
G1 X116.681 Y88.058 E6.27346
G1 X116.821 Y88.598 E6.31064
G1 X116.871 Y88.878 E6.32960
G1 X116.951 Y89.548 E6.37458
G1 X116.981 Y90.108 E6.41196
G1 X116.981 Y90.388 E6.43062
G1 X116.941 Y90.948 E6.46804
G1 X116.791 Y91.778 E6.52426
G1 X116.551 Y92.578 E6.57993
G1 X116.331 Y93.098 E6.61756
G1 X116.071 Y93.598 E6.65513
G1 X115.611 Y94.298 E6.71095
G1 X115.251 Y94.738 E6.74885
G1 X115.061 Y94.938 E6.76723
G1 X96.021 Y114.768 E8.59959
G1 X90.231 Y120.558 E9.14536
G1 X89.811 Y120.918 E9.18223
G1 X89.131 Y121.388 E9.23733
G1 X88.641 Y121.658 E9.27462
G1 X87.881 Y121.978 E9.32958
G1 X87.351 Y122.148 E9.36668
G1 X86.811 Y122.268 E9.40355
G1 X86.261 Y122.348 E9.44059
G1 X85.431 Y122.378 E9.49595
G1 X84.871 Y122.348 E9.53333
G1 X84.511 Y122.308 E9.55747
G1 X83.981 Y122.208 E9.59342
G1 X83.461 Y122.078 E9.62915
G1 X82.571 Y121.808 E9.69114
G1 X82.071 Y121.628 E9.72656
G1 X81.581 Y121.418 E9.76209
G1 X80.171 Y120.668 E9.86854
G1 X75.391 Y117.778 E10.24085
G1 X74.841 Y117.408 E10.28503
G1 X74.581 Y117.198 E10.30731
G1 X74.091 Y116.748 E10.35165
G1 X48.401 Y91.058 E12.77323
G1 X47.971 Y90.548 E12.81769
G1 X47.601 Y89.988 E12.86243
G1 X44.711 Y85.198 E13.23531
G1 X43.961 Y83.788 E13.34176
G1 X43.661 Y83.068 E13.39375
G1 X43.241 Y81.668 E13.49117
G1 X43.081 Y80.878 E13.54489
G1 X43.021 Y80.228 E13.58840
G1 X43.021 Y79.378 E13.64506
G1 X43.081 Y78.818 E13.68260
G1 X43.131 Y78.538 E13.70155
G1 X43.341 Y77.708 E13.75862
G1 X43.651 Y76.918 E13.81518
G1 X43.911 Y76.418 E13.85275
G1 X44.211 Y75.938 E13.89048
G1 X44.551 Y75.478 E13.92860
G1 X44.931 Y75.058 E13.96635
G1 X63.868 Y55.324 E15.78932
G1 F1800.000 E14.38932
G92 E0
G1 X76.968 Y66.598 F15600.000
G1 F1800.000 E1.40000
G1 X81.035 Y62.531 F1080.000 E1.78333
G1 X102.072 Y83.569 E3.76633
G1 X98.005 Y87.635 E4.14966
G1 X77.063 Y66.693 E6.12373
G1 X75.706 Y66.598 F15600.000
G1 X81.035 Y61.269 F1080.000 E6.62606
G1 X103.334 Y83.569 E8.72806
G1 X98.005 Y88.898 E9.23039
G1 X75.800 Y66.693 E11.32347
G1 X74.443 Y66.598 F15600.000
G1 X77.224 Y63.817 F1080.000 E11.58557
G1 X76.544 Y62.683 E11.67376
G1 X76.860 Y62.423 E11.70102
G1 X77.119 Y62.107 E11.72828
G1 X78.254 Y62.787 E11.81647
G1 X81.035 Y60.006 E12.07857
G1 X104.597 Y83.569 E14.29957
G1 X101.816 Y86.349 E14.56167
G1 X102.496 Y87.484 E14.64986
G1 X102.180 Y87.744 E14.67712
G1 X101.921 Y88.060 E14.70438
G1 X100.786 Y87.380 E14.79257
G1 X98.005 Y90.160 E15.05467
G1 X74.538 Y66.693 E17.26675
G1 X73.181 Y66.598 F15600.000
G1 X76.100 Y63.679 F540.000 E17.54192
G1 X75.701 Y63.012 E17.59370
G1 X74.449 Y63.392 E17.68088
G1 X73.610 Y63.475 E17.73706
G1 X72.771 Y63.392 E17.79323
G1 X71.964 Y63.147 E17.84945
G1 X71.220 Y62.750 E17.90566
G1 X70.568 Y62.215 E17.96187
G1 X70.033 Y61.563 E18.01809
G1 X69.636 Y60.819 E18.07430
G1 X69.430 Y60.138 E18.12172
G1 X69.911 Y59.657 E18.16707
G1 X70.193 Y60.589 E18.23193
G1 X70.535 Y61.229 E18.28030
G1 X70.995 Y61.789 E18.32861
G1 X71.555 Y62.249 E18.37692
G1 X72.195 Y62.591 E18.42529
G1 X72.889 Y62.801 E18.47365
G1 X73.610 Y62.872 E18.52192
G1 X74.331 Y62.801 E18.57020
G1 X75.025 Y62.591 E18.61856
G1 X75.665 Y62.249 E18.66693
G1 X76.225 Y61.789 E18.71524
G1 X76.685 Y61.229 E18.76355
G1 X77.028 Y60.589 E18.81192
G1 X77.238 Y59.894 E18.86028
G1 X77.308 Y59.173 E18.90855
G1 X77.238 Y58.453 E18.95683
G1 X77.028 Y57.758 E19.00519
G1 X76.685 Y57.118 E19.05356
G1 X76.225 Y56.558 E19.10187
G1 X75.665 Y56.098 E19.15017
G1 X75.025 Y55.756 E19.19855
G1 X74.094 Y55.474 E19.26341
G1 X74.575 Y54.993 E19.30875
G1 X75.256 Y55.200 E19.35618
G1 X76.000 Y55.597 E19.41239
G1 X76.652 Y56.132 E19.46860
G1 X77.187 Y56.784 E19.52482
G1 X77.584 Y57.528 E19.58103
G1 X77.829 Y58.335 E19.63724
G1 X77.912 Y59.173 E19.69342
G1 X77.829 Y60.012 E19.74960
G1 X77.449 Y61.264 E19.83678
G1 X78.115 Y61.663 E19.88856
G1 X81.035 Y58.744 E20.16373
G1 X105.859 Y83.569 E22.50374
G1 X102.940 Y86.488 E22.77891
G1 X103.339 Y87.154 E22.83068
G1 X104.591 Y86.775 E22.91787
G1 X105.430 Y86.691 E22.97405
G1 X106.269 Y86.775 E23.03022
G1 X107.076 Y87.019 E23.08644
G1 X107.820 Y87.416 E23.14265
G1 X108.472 Y87.952 E23.19886
G1 X109.007 Y88.603 E23.25508
G1 X109.404 Y89.347 E23.31129
G1 X109.610 Y90.028 E23.35871
G1 X109.129 Y90.509 E23.40406
G1 X108.847 Y89.578 E23.46892
G1 X108.505 Y88.938 E23.51729
G1 X108.045 Y88.378 E23.56560
G1 X107.485 Y87.918 E23.61391
G1 X106.845 Y87.576 E23.66228
G1 X106.151 Y87.366 E23.71064
G1 X105.430 Y87.295 E23.75892
G1 X104.709 Y87.366 E23.80719
G1 X104.015 Y87.576 E23.85555
G1 X103.375 Y87.918 E23.90392
G1 X102.815 Y88.378 E23.95223
G1 X102.355 Y88.938 E24.00053
G1 X102.012 Y89.578 E24.04891
G1 X101.802 Y90.272 E24.09727
G1 X101.732 Y90.993 E24.14554
G1 X101.802 Y91.714 E24.19382
G1 X102.012 Y92.408 E24.24217
G1 X102.354 Y93.049 E24.29055
G1 X102.815 Y93.608 E24.33886
G1 X103.375 Y94.069 E24.38716
G1 X104.015 Y94.411 E24.43553
G1 X104.946 Y94.692 E24.50040
G1 X104.465 Y95.174 E24.54574
G1 X103.784 Y94.967 E24.59317
G1 X103.040 Y94.570 E24.64937
G1 X102.388 Y94.035 E24.70559
G1 X101.853 Y93.383 E24.76181
G1 X101.456 Y92.639 E24.81802
G1 X101.211 Y91.832 E24.87423
G1 X101.128 Y90.993 E24.93041
G1 X101.211 Y90.155 E24.98659
G1 X101.591 Y88.903 E25.07377
G1 X100.925 Y88.503 E25.12555
G1 X98.005 Y91.423 E25.40072
G1 X73.275 Y66.693 E27.73180
G1 X74.043 Y66.367 F15600.000
G1 F1800.000 E26.33180
G92 E0
G1 X104.879 Y94.672 F15600.000
G1 F1800.000 E1.40000
G1 X105.578 Y94.398 F1080.000 E1.45009
G1 X104.879 Y94.672 F15600.000
G1 X104.309 Y94.816 F1080.000 E1.48923
G1 X103.074 Y94.232 E1.58031
G1 X103.074 Y94.232 F15600.000
G1 X102.014 Y93.083 F1080.000 E1.68447
G1 X102.014 Y93.083 F15600.000
G1 X101.672 Y92.376 F1080.000 E1.73683
G1 X101.672 Y92.376 F15600.000
G1 X101.661 Y92.269 F1080.000 E1.74400
G1 X101.661 Y92.269 F15600.000
G1 X101.542 Y91.929 F1080.000 E1.76802
G1 X101.542 Y91.929 F15600.000
G1 X101.434 Y91.152 F1080.000 E1.82030
G1 X101.434 Y91.152 F15600.000
G1 X101.429 Y90.834 F1080.000 E1.84153
G1 X101.429 Y90.834 F15600.000
G1 X101.459 Y90.731 F1080.000 E1.84868
G1 X101.459 Y90.731 F15600.000
G1 X101.264 Y89.692 F1080.000 E1.91915
G1 X101.503 Y90.245 F15600.000
G1 X101.786 Y90.091 F1080.000 E1.94063
G1 X101.786 Y90.091 F15600.000
G1 X101.972 Y90.082 F1080.000 E1.95302
G1 F1800.000 E0.55302
G92 E0
G1 X104.529 Y87.472 F15600.000
G1 F1800.000 E1.40000
G1 X104.663 Y87.093 F1080.000 E1.42677
G1 X104.309 Y86.955 F15600.000
G1 X105.205 Y87.016 F1080.000 E1.48658
G1 X105.205 Y87.016 F15600.000
G1 X105.977 Y87.059 F1080.000 E1.53813
G1 X105.977 Y87.059 F15600.000
G1 X107.448 Y87.555 F1080.000 E1.64164
G1 X107.448 Y87.555 F15600.000
G1 X108.351 Y88.255 F1080.000 E1.71775
G1 X108.861 Y88.979 E1.77677
G1 X108.861 Y88.979 F15600.000
G1 X109.018 Y89.256 F1080.000 E1.79802
G1 X109.018 Y89.256 F15600.000
G1 X109.270 Y89.934 F1080.000 E1.84622
G1 X109.494 Y89.969 E1.86137
G1 X109.270 Y89.934 F15600.000
G1 X108.798 Y91.176 F1080.000 E1.94992
G1 F1800.000 E0.54992
G92 E0
G1 X104.309 Y86.955 F15600.000
G1 F1800.000 E1.40000
G1 X104.082 Y86.811 F1080.000 E1.41791
G1 F1800.000 E0.01791
G92 E0
G1 X77.659 Y60.276 F15600.000
G1 F1800.000 E1.40000
G1 X77.536 Y59.926 F1080.000 E1.42471
G1 X77.132 Y60.075 F15600.000
G1 X77.536 Y59.926 F1080.000 E1.45344
G1 X77.604 Y58.983 E1.51648
G1 X77.604 Y58.983 F15600.000
G1 X77.590 Y58.942 F1080.000 E1.51938
G1 X77.590 Y58.942 F15600.000
G1 X77.357 Y57.761 F1080.000 E1.59959
G1 X76.825 Y56.796 E1.67305
G1 X76.825 Y56.796 F15600.000
G1 X75.940 Y55.917 F1080.000 E1.75616
G1 X74.656 Y55.340 E1.84999
G1 X74.656 Y55.340 F15600.000
G1 X73.982 Y55.517 F1080.000 E1.89649
G1 X73.982 Y55.517 F15600.000
G1 X73.798 Y55.638 F1080.000 E1.91112
G1 X73.798 Y55.638 F15600.000
G1 X73.537 Y55.663 F1080.000 E1.92860
G1 X73.537 Y55.663 F15600.000
G1 X73.439 Y55.807 F1080.000 E1.94022
G1 F1800.000 E0.54022
G92 E0
G1 X70.103 Y59.087 F15600.000
G1 F1800.000 E1.40000
G1 X69.967 Y59.663 F1080.000 E1.43940
G1 X69.967 Y59.663 F15600.000
G1 X69.834 Y60.027 F1080.000 E1.46525
G1 X69.834 Y60.027 F15600.000
G1 X69.834 Y60.120 F1080.000 E1.47144
G1 X69.834 Y60.120 F15600.000
G1 X69.791 Y60.294 F1080.000 E1.48342
G1 X69.791 Y60.294 F15600.000
G1 X69.841 Y60.450 F1080.000 E1.49428
G1 X69.841 Y60.450 F15600.000
G1 X70.376 Y61.526 F1080.000 E1.57439
G1 X71.522 Y62.585 E1.67841
G1 X71.522 Y62.585 F15600.000
G1 X72.673 Y63.066 F1080.000 E1.76153
G1 X74.126 Y63.116 E1.85848
G1 X74.126 Y63.116 F15600.000
G1 X74.250 Y63.126 F1080.000 E1.86676
G1 X74.250 Y63.126 F15600.000
G1 X74.499 Y62.753 F1080.000 E1.89661
G1 X74.360 Y63.101 F15600.000
G1 X74.713 Y63.222 F1080.000 E1.92145
G1 X81.035 Y63.447 F15600.000
G1 X101.157 Y83.569 F2160.000 E4.28877
G1 X100.369 Y84.356 E4.38146
G1 X80.247 Y64.235 E6.74877
G1 X79.459 Y65.022 E6.84146
G1 X99.581 Y85.144 E9.20878
G1 X98.793 Y85.932 E9.30147
G1 X78.671 Y65.810 E11.66878
G1 X77.883 Y66.598 E11.76147
G1 X98.005 Y86.720 E14.12879
G1 F1800.000 E12.72879
G92 E0
G1 X83.032 Y103.402 F15600.000
G1 F1800.000 E1.40000
G1 X78.965 Y107.469 F1080.000 E1.78333
G1 X57.928 Y86.431 E3.76633
G1 X61.995 Y82.365 E4.14966
G1 X82.937 Y103.307 E6.12373
G1 X84.294 Y103.402 F15600.000
G1 X78.965 Y108.731 F1080.000 E6.62606
G1 X56.666 Y86.431 E8.72806
G1 X61.995 Y81.102 E9.23039
G1 X84.200 Y103.307 E11.32347
G1 X85.557 Y103.402 F15600.000
G1 X82.776 Y106.183 F1080.000 E11.58557
G1 X83.456 Y107.317 E11.67376
G1 X83.140 Y107.577 E11.70102
G1 X82.881 Y107.893 E11.72828
G1 X81.746 Y107.213 E11.81646
G1 X78.965 Y109.994 E12.07857
G1 X55.403 Y86.431 E14.29957
G1 X58.184 Y83.651 E14.56167
G1 X57.504 Y82.516 E14.64986
G1 X57.820 Y82.256 E14.67712
G1 X58.079 Y81.940 E14.70438
G1 X59.214 Y82.620 E14.79257
G1 X61.995 Y79.840 E15.05467
G1 X85.462 Y103.307 E17.26675
G1 X86.599 Y103.623 F15600.000
G1 X83.900 Y106.321 F540.000 E17.52112
G1 X84.299 Y106.988 E17.57290
G1 X85.551 Y106.608 E17.66008
G1 X86.390 Y106.525 E17.71626
G1 X87.229 Y106.608 E17.77244
G1 X88.036 Y106.853 E17.82865
G1 X88.780 Y107.250 E17.88486
G1 X89.432 Y107.785 E17.94108
G1 X89.967 Y108.437 E17.99730
G1 X90.364 Y109.181 E18.05350
G1 X90.570 Y109.862 E18.10093
G1 X90.089 Y110.343 E18.14627
G1 X89.807 Y109.411 E18.21114
G1 X89.465 Y108.771 E18.25951
G1 X89.005 Y108.211 E18.30781
G1 X88.445 Y107.751 E18.35612
G1 X87.805 Y107.409 E18.40450
G1 X87.111 Y107.199 E18.45285
G1 X86.390 Y107.128 E18.50113
G1 X85.669 Y107.199 E18.54940
G1 X84.975 Y107.409 E18.59776
G1 X84.335 Y107.751 E18.64614
G1 X83.775 Y108.211 E18.69444
G1 X83.315 Y108.771 E18.74275
G1 X82.972 Y109.411 E18.79112
G1 X82.762 Y110.106 E18.83948
G1 X82.692 Y110.827 E18.88776
G1 X82.762 Y111.547 E18.93603
G1 X82.972 Y112.242 E18.98439
G1 X83.314 Y112.882 E19.03276
G1 X83.775 Y113.442 E19.08107
G1 X84.335 Y113.902 E19.12938
G1 X84.975 Y114.244 E19.17775
G1 X85.906 Y114.526 E19.24261
G1 X85.425 Y115.007 E19.28796
G1 X84.744 Y114.800 E19.33538
G1 X84.000 Y114.403 E19.39159
G1 X83.348 Y113.868 E19.44781
G1 X82.813 Y113.216 E19.50402
G1 X82.416 Y112.472 E19.56023
G1 X82.171 Y111.665 E19.61645
G1 X82.088 Y110.827 E19.67262
G1 X82.171 Y109.988 E19.72880
G1 X82.551 Y108.736 E19.81599
G1 X81.885 Y108.337 E19.86776
G1 X78.965 Y111.256 E20.14294
G1 X54.141 Y86.431 E22.48294
G1 X57.060 Y83.512 E22.75811
G1 X56.661 Y82.846 E22.80989
G1 X55.409 Y83.225 E22.89707
G1 X54.570 Y83.309 E22.95325
G1 X53.731 Y83.225 E23.00943
G1 X52.924 Y82.981 E23.06564
G1 X52.180 Y82.584 E23.12185
G1 X51.528 Y82.048 E23.17807
G1 X50.993 Y81.397 E23.23428
G1 X50.596 Y80.653 E23.29049
G1 X50.390 Y79.972 E23.33792
G1 X50.871 Y79.491 E23.38326
G1 X51.153 Y80.422 E23.44813
G1 X51.495 Y81.062 E23.49650
G1 X51.955 Y81.622 E23.54480
G1 X52.515 Y82.082 E23.59311
G1 X53.155 Y82.424 E23.64148
G1 X53.849 Y82.634 E23.68984
G1 X54.570 Y82.705 E23.73812
G1 X55.291 Y82.634 E23.78639
G1 X55.985 Y82.424 E23.83475
G1 X56.625 Y82.082 E23.88312
G1 X57.185 Y81.622 E23.93143
G1 X57.645 Y81.062 E23.97974
G1 X57.988 Y80.422 E24.02811
G1 X58.198 Y79.728 E24.07647
G1 X58.268 Y79.007 E24.12475
G1 X58.198 Y78.286 E24.17302
G1 X57.988 Y77.591 E24.22138
G1 X57.645 Y76.951 E24.26975
G1 X57.185 Y76.392 E24.31806
G1 X56.625 Y75.931 E24.36637
G1 X55.985 Y75.589 E24.41474
G1 X55.054 Y75.308 E24.47960
G1 X55.535 Y74.826 E24.52495
G1 X56.216 Y75.033 E24.57237
G1 X56.960 Y75.430 E24.62858
G1 X57.612 Y75.965 E24.68480
G1 X58.147 Y76.617 E24.74101
G1 X58.544 Y77.361 E24.79722
G1 X58.789 Y78.168 E24.85344
G1 X58.872 Y79.007 E24.90961
G1 X58.789 Y79.845 E24.96579
G1 X58.409 Y81.097 E25.05298
G1 X59.075 Y81.497 E25.10475
G1 X61.995 Y78.577 E25.37992
G1 X86.819 Y103.402 E27.71993
G1 X86.693 Y103.528 E27.73180
G1 X85.736 Y103.392 F15600.000
G1 F1800.000 E26.33180
G92 E0
G1 X85.839 Y114.506 F15600.000
G1 F1800.000 E1.40000
G1 X86.538 Y114.231 F1080.000 E1.45009
G1 X85.839 Y114.506 F15600.000
G1 X85.269 Y114.649 F1080.000 E1.48923
G1 X84.034 Y114.065 E1.58031
G1 X84.034 Y114.065 F15600.000
G1 X82.974 Y112.917 F1080.000 E1.68447
G1 X82.974 Y112.917 F15600.000
G1 X82.632 Y112.210 F1080.000 E1.73683
G1 X82.632 Y112.210 F15600.000
G1 X82.621 Y112.103 F1080.000 E1.74400
G1 X82.621 Y112.103 F15600.000
G1 X82.502 Y111.762 F1080.000 E1.76802
G1 X82.502 Y111.762 F15600.000
G1 X82.394 Y110.986 F1080.000 E1.82030
G1 X82.394 Y110.986 F15600.000
G1 X82.389 Y110.667 F1080.000 E1.84153
G1 X82.389 Y110.667 F15600.000
G1 X82.419 Y110.564 F1080.000 E1.84868
G1 X82.419 Y110.564 F15600.000
G1 X82.224 Y109.525 F1080.000 E1.91915
G1 X82.463 Y110.078 F15600.000
G1 X82.746 Y109.925 F1080.000 E1.94063
G1 X82.746 Y109.925 F15600.000
G1 X82.932 Y109.915 F1080.000 E1.95302
G1 F1800.000 E0.55302
G92 E0
G1 X85.489 Y107.305 F15600.000
G1 F1800.000 E1.40000
G1 X85.623 Y106.927 F1080.000 E1.42677
G1 X85.269 Y106.788 F15600.000
G1 X86.165 Y106.850 F1080.000 E1.48658
G1 X86.165 Y106.850 F15600.000
G1 X86.937 Y106.892 F1080.000 E1.53813
G1 X86.937 Y106.892 F15600.000
G1 X88.408 Y107.388 F1080.000 E1.64164
G1 X88.408 Y107.388 F15600.000
G1 X89.311 Y108.088 F1080.000 E1.71775
G1 X89.821 Y108.812 E1.77677
G1 X89.821 Y108.812 F15600.000
G1 X89.978 Y109.089 F1080.000 E1.79802
G1 X89.978 Y109.089 F15600.000
G1 X90.230 Y109.767 F1080.000 E1.84622
G1 X90.454 Y109.803 E1.86137
G1 X90.230 Y109.767 F15600.000
G1 X89.758 Y111.009 F1080.000 E1.94992
G1 F1800.000 E0.54992
G92 E0
G1 X85.269 Y106.788 F15600.000
G1 F1800.000 E1.40000
G1 X85.042 Y106.645 F1080.000 E1.41791
G1 F1800.000 E0.01791
G92 E0
G1 X58.619 Y80.110 F15600.000
G1 F1800.000 E1.40000
G1 X58.496 Y79.760 F1080.000 E1.42471
G1 X58.092 Y79.908 F15600.000
