; generated by Slic3r 0.9.9 on 2013-07-09 at 23:19:32

; layer_height = 0.25
; perimeters = 3
; top_solid_layers = 3
; bottom_solid_layers = 3
; fill_density = 0.4
; perimeter_speed = 30
; infill_speed = 60
; travel_speed = 100  
; nozzle_diameter = 0.5
; filament_diameter = 2.93
; extrusion_multiplier = 1
; perimeters extrusion width = 0.84mm
; infill extrusion width = 0.84mm
; solid infill extrusion width = 0.84mm
; top infill extrusion width = 0.84mm
; first layer extrusion width = 1.00mm

G21 ; set units to millimeters
M107
M190 S115 ; wait for bed temperature to be reached
M104 S230 ; set temperature
G28 ; home all axes
G1 Z5 F5000 ; lift nozzle
M109 S230 ; wait for temperature to be reached
G90 ; use absolute coordinates
G92 E0
M82 ; use absolute distances for extrusion
G1 F1800.000 E-1.00000
G92 E0
G1 Z-0.900 F6000.000
G1 X76.896 Y57.580
G1 F1800.000 E1.00000
G1 X77.296 Y57.110 F540.000 E1.04086
G1 X77.966 Y56.480 E1.10174
G1 X78.446 Y56.100 E1.14226
G1 X79.946 Y55.020 E1.26462
G1 X80.716 Y54.530 E1.32504
G1 X81.256 Y54.260 E1.36501
G1 X82.106 Y53.930 E1.42537
G1 X82.396 Y53.840 E1.44547
G1 X82.986 Y53.700 E1.48561
G1 X83.586 Y53.610 E1.52578
G1 X84.496 Y53.550 E1.58615
G1 X106.346 Y53.550 E3.03259
G1 X106.956 Y53.580 E3.07302
G1 X107.856 Y53.700 E3.13313
G1 X108.446 Y53.840 E3.17327
G1 X109.306 Y54.140 E3.23356
G1 X110.126 Y54.530 E3.29367
G1 X110.646 Y54.850 E3.33409
G1 X112.396 Y56.100 E3.47646
G1 X112.886 Y56.480 E3.51751
G1 X113.556 Y57.120 E3.57884
G1 X113.956 Y57.590 E3.61970
G1 X114.486 Y58.350 E3.68104
G1 X114.786 Y58.890 E3.72193
G1 X115.046 Y59.450 E3.76280
G1 X115.256 Y60.030 E3.80364
G1 X115.826 Y61.800 E3.92673
G1 X116.006 Y62.470 E3.97266
G1 X116.136 Y63.150 E4.01849
G1 X116.196 Y63.840 E4.06434
G1 X116.206 Y64.190 E4.08752
G1 X116.196 Y93.540 E6.03045
G1 X116.136 Y94.230 E6.07630
G1 X115.926 Y95.260 E6.14589
G1 X115.256 Y97.350 E6.29118
G1 X115.046 Y97.920 E6.33139
G1 X114.786 Y98.480 E6.37227
G1 X114.646 Y98.750 E6.39240
G1 X114.326 Y99.270 E6.43282
G1 X113.966 Y99.770 E6.47361
G1 X113.566 Y100.230 E6.51396
G1 X113.136 Y100.670 E6.55469
G1 X112.906 Y100.870 E6.57486
G1 X112.426 Y101.250 E6.61539
G1 X110.926 Y102.340 E6.73814
G1 X110.376 Y102.700 E6.78165
G1 X80.996 Y120.460 E9.05431
G1 X80.476 Y120.750 E9.09372
G1 X79.936 Y121.000 E9.13312
G1 X79.656 Y121.110 E9.15303
G1 X79.096 Y121.290 E9.19197
G1 X78.516 Y121.430 E9.23147
G1 X77.926 Y121.530 E9.27108
G1 X77.036 Y121.590 E9.33013
G1 X76.446 Y121.570 E9.36921
G1 X75.856 Y121.510 E9.40847
G1 X75.266 Y121.400 E9.44820
G1 X74.696 Y121.250 E9.48722
G1 X74.136 Y121.050 E9.52658
G1 X73.586 Y120.820 E9.56605
G1 X73.066 Y120.540 E9.60514
G1 X70.476 Y119.040 E9.80328
G1 X69.736 Y118.550 E9.86203
G1 X69.056 Y117.990 E9.92035
G1 X68.646 Y117.570 E9.95920
G1 X68.256 Y117.120 E9.99862
G1 X67.756 Y116.390 E10.05720
G1 X67.336 Y115.620 E10.11526
G1 X67.006 Y114.800 E10.17377
G1 X66.766 Y113.950 E10.23224
G1 X66.706 Y113.660 E10.25185
G1 X66.626 Y113.070 E10.29126
G1 X66.596 Y112.480 E10.33037
G1 X66.626 Y111.600 E10.38866
G1 X66.696 Y111.020 E10.42733
G1 X74.736 Y62.910 E13.65632
G1 X75.016 Y61.770 E13.73403
G1 X75.696 Y59.710 E13.87764
G1 X76.066 Y58.870 E13.93840
G1 X76.366 Y58.330 E13.97929
G1 X76.816 Y57.687 E14.03123
G1 X77.516 Y58.230 F6000.000
G1 X78.086 Y57.580 F540.000 E14.08846
G1 X78.736 Y57.000 E14.14613
G1 X80.466 Y55.750 E14.28742
G1 X80.946 Y55.430 E14.32561
G1 X81.446 Y55.160 E14.36322
G1 X81.976 Y54.920 E14.40174
G1 X82.516 Y54.740 E14.43942
G1 X82.796 Y54.660 E14.45870
G1 X83.356 Y54.540 E14.49661
G1 X84.206 Y54.450 E14.55319
G1 X106.636 Y54.450 E16.03803
G1 X106.916 Y54.470 E16.05661
G1 X107.486 Y54.540 E16.09463
G1 X108.046 Y54.660 E16.13254
G1 X108.866 Y54.920 E16.18949
G1 X109.396 Y55.160 E16.22801
G1 X110.136 Y55.580 E16.28433
G1 X112.106 Y57.000 E16.44509
G1 X112.546 Y57.380 E16.48358
G1 X112.956 Y57.800 E16.52243
G1 X113.506 Y58.480 E16.58033
G1 X113.956 Y59.230 E16.63823
G1 X114.206 Y59.760 E16.67702
G1 X114.316 Y60.030 E16.69632
G1 X115.066 Y62.370 E16.85899
G1 X115.196 Y62.970 E16.89963
G1 X115.286 Y63.580 E16.94045
G1 X115.306 Y63.880 E16.96035
G1 X115.306 Y93.500 E18.92116
G1 X115.286 Y93.810 E18.94173
G1 X115.196 Y94.420 E18.98254
G1 X115.066 Y95.020 E19.02318
G1 X114.976 Y95.310 E19.04329
G1 X114.406 Y97.070 E19.16575
G1 X114.206 Y97.620 E19.20450
G1 X113.956 Y98.140 E19.24269
G1 X113.666 Y98.640 E19.28095
G1 X113.156 Y99.340 E19.33829
G1 X112.776 Y99.770 E19.37628
G1 X112.566 Y99.970 E19.39547
G1 X111.896 Y100.530 E19.45328
G1 X110.396 Y101.620 E19.57603
G1 X109.916 Y101.940 E19.61421
G1 X80.296 Y119.840 E21.90526
G1 X79.556 Y120.190 E21.95945
G1 X79.046 Y120.370 E21.99525
G1 X78.516 Y120.520 E22.03172
G1 X77.986 Y120.620 E22.06742
G1 X77.436 Y120.680 E22.10405
G1 X76.896 Y120.690 E22.13980
G1 X76.346 Y120.670 E22.17623
G1 X76.076 Y120.640 E22.19422
G1 X75.276 Y120.480 E22.24823
G1 X74.756 Y120.330 E22.28405
G1 X73.996 Y120.020 E22.33839
G1 X73.746 Y119.900 E22.35674
G1 X70.686 Y118.120 E22.59109
G1 X70.226 Y117.800 E22.62819
G1 X69.796 Y117.450 E22.66489
G1 X69.206 Y116.860 E22.72013
G1 X68.856 Y116.430 E22.75683
G1 X68.536 Y115.970 E22.79392
G1 X68.136 Y115.240 E22.84903
G1 X67.926 Y114.720 E22.88615
G1 X67.746 Y114.200 E22.92258
G1 X67.616 Y113.650 E22.95999
G1 X67.526 Y113.110 E22.99623
G1 X67.486 Y112.550 E23.03340
G1 X67.486 Y111.990 E23.07047
G1 X67.576 Y111.160 E23.12574
G1 X75.616 Y63.050 E26.35473
G1 X75.866 Y62.040 E26.42361
G1 X76.446 Y60.270 E26.54691
G1 X76.646 Y59.730 E26.58503
G1 X77.036 Y58.960 E26.64217
G1 X77.439 Y58.340 E26.69114
G1 F1800.000 E25.69114
G92 E0
G1 X80.121 Y59.554 F6000.000
G1 F1800.000 E1.00000
G1 X82.651 Y57.716 F540.000 E1.20698
G1 X83.861 Y57.323 E1.29121
G1 X88.588 Y57.323 E1.60415
G1 X90.941 Y59.676 E1.82446
G1 X90.941 Y74.857 E2.82943
G1 X89.441 Y76.357 E2.96986
G1 X89.441 Y89.176 E3.81845
G1 X101.407 Y89.176 E4.61057
G1 X101.407 Y76.357 E5.45916
G1 X99.907 Y74.857 E5.59959
G1 X99.907 Y59.676 E6.60456
G1 X102.260 Y57.323 E6.82487
G1 X106.987 Y57.323 E7.13781
G1 X108.198 Y57.716 E7.22205
G1 X110.727 Y59.554 E7.42902
G1 X111.475 Y60.584 E7.51327
G1 X112.342 Y63.253 E7.69906
G1 X112.441 Y63.877 E7.74091
G1 X112.441 Y93.510 E9.70253
G1 X112.342 Y94.134 E9.74438
G1 X111.475 Y96.803 E9.93017
G1 X110.727 Y97.833 E10.01442
G1 X108.198 Y99.671 E10.22140
G1 X106.987 Y100.064 E10.30564
G1 X89.549 Y100.064 E11.46003
G1 X79.622 Y117.259 E12.77441
G1 X76.407 Y118.120 E12.99471
G1 X70.927 Y114.956 E13.41361
G1 X70.066 Y111.742 E13.63391
G1 X79.127 Y96.046 E14.83364
G1 X78.506 Y94.134 E14.96675
G1 X78.407 Y93.510 E15.00861
G1 X78.407 Y63.877 E16.97023
G1 X78.506 Y63.253 E17.01209
G1 X79.373 Y60.584 E17.19788
G1 X80.042 Y59.662 E17.27325
G1 X80.760 Y60.193 F6000.000
G1 X83.061 Y58.522 F540.000 E17.46151
G1 X84.002 Y58.216 E17.52703
G1 X88.218 Y58.216 E17.80613
G1 X90.048 Y60.046 E17.97748
G1 X90.048 Y74.488 E18.93349
G1 X88.548 Y75.988 E19.07392
G1 X88.548 Y90.069 E20.00609
G1 X102.300 Y90.069 E20.91640
G1 X102.300 Y75.988 E21.84857
G1 X100.800 Y74.488 E21.98899
G1 X100.800 Y60.046 E22.94501
G1 X102.630 Y58.216 E23.11636
G1 X106.846 Y58.216 E23.39546
G1 X107.787 Y58.522 E23.46098
G1 X110.088 Y60.193 E23.64924
G1 X110.670 Y60.994 E23.71476
G1 X111.472 Y63.462 E23.88654
G1 X111.548 Y63.948 E23.91909
G1 X111.548 Y93.439 E25.87141
G1 X111.472 Y93.925 E25.90396
G1 X110.670 Y96.393 E26.07574
G1 X110.088 Y97.194 E26.14126
G1 X107.787 Y98.865 E26.32952
G1 X106.846 Y99.171 E26.39504
G1 X89.034 Y99.171 E27.57420
G1 X79.033 Y116.492 E28.89821
G1 X76.533 Y117.162 E29.06956
G1 X71.694 Y114.368 E29.43950
G1 X71.024 Y111.868 E29.61085
G1 X80.099 Y96.149 E30.81241
G1 X79.377 Y93.925 E30.96718
G1 X79.300 Y93.439 E30.99974
G1 X79.300 Y63.948 E32.95206
G1 X79.377 Y63.462 E32.98461
G1 X80.178 Y60.994 E33.15639
G1 X80.681 Y60.302 E33.21305
G1 X81.399 Y60.832 F6000.000
G1 X83.471 Y59.327 F540.000 E33.38258
G1 X84.144 Y59.109 E33.42938
G1 X87.848 Y59.109 E33.67465
G1 X89.156 Y60.416 E33.79704
G1 X89.156 Y74.118 E34.70410
G1 X87.848 Y75.425 E34.82649
G1 X87.656 Y75.425 E34.83924
G1 X87.656 Y90.962 E35.86774
G1 X103.192 Y90.962 E36.89624
G1 X103.192 Y75.425 E37.92473
G1 X103.000 Y75.425 E37.93749
G1 X101.692 Y74.118 E38.05988
G1 X101.692 Y60.416 E38.96694
G1 X103.000 Y59.109 E39.08933
G1 X106.705 Y59.109 E39.33459
G1 X107.377 Y59.327 E39.38139
G1 X109.449 Y60.832 E39.55093
G1 X109.864 Y61.404 E39.59773
G1 X110.601 Y63.671 E39.75550
G1 X110.656 Y64.018 E39.77875
G1 X110.656 Y93.369 E41.72177
G1 X110.601 Y93.716 E41.74502
G1 X109.864 Y95.983 E41.90279
G1 X109.449 Y96.555 E41.94959
G1 X107.377 Y98.060 E42.11913
G1 X106.705 Y98.278 E42.16593
G1 X88.518 Y98.278 E43.36985
G1 X78.445 Y115.726 E44.70350
G1 X76.659 Y116.204 E44.82589
G1 X72.460 Y113.780 E45.14688
G1 X71.982 Y111.994 E45.26927
G1 X81.118 Y96.168 E46.47898
G1 X80.984 Y95.983 E46.49415
G1 X80.247 Y93.716 E46.65192
G1 X80.192 Y93.369 E46.67518
G1 X80.192 Y64.018 E48.61820
G1 X80.247 Y63.671 E48.64145
G1 X80.984 Y61.404 E48.79922
G1 X81.321 Y60.941 E48.83716
G1 X82.038 Y61.471 F6000.000
G1 X83.882 Y60.132 F540.000 E48.98797
G1 X84.285 Y60.001 E49.01605
G1 X87.479 Y60.001 E49.22748
G1 X88.263 Y60.786 E49.30091
G1 X88.263 Y73.748 E50.15901
G1 X87.479 Y74.532 E50.23245
G1 X86.763 Y74.532 E50.27982
G1 X86.763 Y91.854 E51.42651
G1 X104.085 Y91.854 E52.57320
G1 X104.085 Y74.532 E53.71989
G1 X103.369 Y74.532 E53.76726
G1 X102.585 Y73.748 E53.84069
G1 X102.585 Y60.786 E54.69880
G1 X103.369 Y60.001 E54.77223
G1 X106.563 Y60.001 E54.98366
G1 X106.967 Y60.132 E55.01174
G1 X108.810 Y61.471 E55.16256
G1 X109.059 Y61.815 E55.19064
G1 X109.730 Y63.880 E55.33439
G1 X109.763 Y64.088 E55.34835
G1 X109.763 Y93.299 E57.28206
G1 X109.730 Y93.507 E57.29601
G1 X109.059 Y95.572 E57.43977
G1 X108.810 Y95.915 E57.46785
G1 X106.967 Y97.255 E57.61867
G1 X106.563 Y97.386 E57.64675
G1 X88.003 Y97.386 E58.87542
G1 X77.857 Y114.959 E60.21872
G1 X76.785 Y115.246 E60.29216
G1 X73.227 Y113.191 E60.56418
G1 X72.940 Y112.120 E60.63762
G1 X82.219 Y96.047 E61.86623
G1 X82.038 Y95.916 E61.88103
G1 X81.789 Y95.572 E61.90911
G1 X81.118 Y93.507 E62.05287
G1 X81.085 Y93.299 E62.06682
G1 X81.085 Y64.088 E64.00054
G1 X81.118 Y63.880 E64.01449
G1 X81.789 Y61.815 E64.15825
G1 X81.960 Y61.580 E64.17747
G1 X82.677 Y62.110 F6000.000
G1 X84.292 Y60.938 F540.000 E64.30957
G1 X84.426 Y60.894 E64.31893
G1 X87.109 Y60.894 E64.49651
G1 X87.370 Y61.155 E64.52099
G1 X87.370 Y73.378 E65.33014
G1 X87.109 Y73.640 E65.35461
G1 X85.870 Y73.640 E65.43660
G1 X85.870 Y92.747 E66.70148
G1 X104.978 Y92.747 E67.96636
G1 X104.978 Y73.640 E69.23124
G1 X103.739 Y73.640 E69.31323
G1 X103.478 Y73.378 E69.33771
G1 X103.478 Y61.155 E70.14686
G1 X103.739 Y60.894 E70.17134
G1 X106.422 Y60.894 E70.34893
G1 X106.556 Y60.938 E70.35829
G1 X108.171 Y62.110 E70.49038
G1 X108.254 Y62.225 E70.49974
G1 X108.870 Y64.158 E70.63409
G1 X108.870 Y93.229 E72.55850
G1 X108.254 Y95.162 E72.69284
G1 X108.171 Y95.276 E72.70220
G1 X106.556 Y96.449 E72.83430
G1 X106.422 Y96.493 E72.84366
G1 X87.487 Y96.493 E74.09709
G1 X77.269 Y114.192 E75.45003
G1 X76.912 Y114.288 E75.47451
G1 X73.993 Y112.603 E75.69758
G1 X73.898 Y112.246 E75.72206
G1 X83.394 Y95.797 E76.97941
G1 X82.677 Y95.276 E77.03806
G1 X82.594 Y95.162 E77.04742
G1 X81.978 Y93.229 E77.18176
G1 X81.978 Y64.158 E79.10618
G1 X82.599 Y62.219 E79.24099
G1 X83.377 Y62.706 F6000.000
G1 X84.642 Y61.787 F378.000 E79.34453
G1 X86.478 Y61.787 E79.46605
G1 X86.478 Y72.747 E80.19162
G1 X84.978 Y72.747 E80.29092
G1 X84.978 Y93.640 E81.67399
G1 X105.870 Y93.640 E83.05706
G1 X105.870 Y72.747 E84.44013
G1 X104.370 Y72.747 E84.53943
G1 X104.370 Y61.787 E85.26500
G1 X106.206 Y61.787 E85.38653
G1 X107.471 Y62.706 E85.49006
G1 X107.978 Y64.264 E85.59852
G1 X107.978 Y93.123 E87.50893
G1 X107.471 Y94.681 E87.61739
G1 X106.206 Y95.600 E87.72093
G1 X86.972 Y95.600 E88.99420
G1 X76.811 Y113.199 E90.33947
G1 X74.986 Y112.146 E90.47897
G1 X84.569 Y95.547 E91.74774
G1 X83.377 Y94.681 E91.84532
G1 X82.870 Y93.123 E91.95378
G1 X82.870 Y64.264 E93.86419
G1 X83.335 Y62.833 E93.96378
G1 X84.250 Y62.892 F6000.000
G1 X84.136 Y63.258
G1 X84.932 Y62.679 F540.000 E94.02892
G1 X85.585 Y62.679 E94.07214
G1 X85.585 Y71.854 E94.67952
G1 X83.763 Y71.854 E94.80013
G1 X83.763 Y64.406 E95.29324
G1 X84.095 Y63.385 E95.36427
G1 X83.422 Y62.739 F6000.000
G1 X84.924 Y93.693
G1 X105.924 Y93.693
G1 X105.924 Y72.693
G1 X104.424 Y61.840
G1 X105.263 Y62.679
G1 X105.916 Y62.679 F540.000 E95.40750
G1 X106.712 Y63.258 E95.47263
G1 X107.085 Y64.406 E95.55253
G1 X107.085 Y71.854 E96.04564
G1 X105.263 Y71.854 E96.16625
G1 X105.263 Y62.813 E96.76476
G1 X104.424 Y61.840 F6000.000
G1 X105.924 Y72.693
G1 X105.924 Y93.693
G1 X84.924 Y93.693
G1 X85.626 Y94.837
G1 X85.626 Y94.836 F360.000 E96.76483
G1 X87.580 Y94.654 F6000.000
G1 X88.832 Y94.586 F360.000 E96.85161
G1 X88.900 Y94.654 E96.85826
G1 X90.152 Y94.586 E96.94504
G1 X90.220 Y94.654 E96.95170
G1 X91.472 Y94.586 E97.03848
G1 X91.540 Y94.654 E97.04513
G1 X92.792 Y94.586 E97.13191
G1 X92.860 Y94.654 E97.13857
G1 X94.112 Y94.586 E97.22535
G1 X94.180 Y94.654 E97.23201
G1 X95.432 Y94.586 E97.31879
G1 X95.500 Y94.654 E97.32544
G1 X96.752 Y94.586 E97.41222
G1 X96.820 Y94.654 E97.41888
G1 X98.072 Y94.586 E97.50566
G1 X98.140 Y94.654 E97.51231
G1 X99.392 Y94.586 E97.59909
G1 X99.460 Y94.654 E97.60575
G1 X100.712 Y94.586 E97.69253
G1 X100.780 Y94.654 E97.69918
G1 X102.032 Y94.586 E97.78596
G1 X102.100 Y94.654 E97.79262
G1 X103.352 Y94.586 E97.87940
G1 X103.420 Y94.654 E97.88606
G1 X104.672 Y94.586 E97.97283
G1 X104.740 Y94.654 E97.97949
G1 X105.992 Y94.586 E98.06628
G1 X84.016 Y93.586 F6000.000
G1 X84.031 Y92.302 F360.000 E98.15386
G1 X83.817 Y92.087 E98.17457
G1 X84.031 Y91.001 E98.24998
G1 X83.817 Y90.787 E98.27069
G1 X84.031 Y89.701 E98.34611
G1 X83.817 Y89.487 E98.36682
G1 X84.031 Y88.401 E98.44223
G1 X83.817 Y88.187 E98.46294
G1 X84.031 Y87.101 E98.53836
G1 X83.817 Y86.887 E98.55906
G1 X84.031 Y85.801 E98.63448
G1 X83.817 Y85.587 E98.65519
G1 X84.031 Y84.501 E98.73060
G1 X83.817 Y84.286 E98.75131
G1 X84.031 Y83.201 E98.82673
G1 X83.817 Y82.986 E98.84743
G1 X84.031 Y81.901 E98.92285
G1 X83.817 Y81.686 E98.94356
G1 X84.031 Y80.601 E99.01897
G1 X83.817 Y80.386 E99.03968
G1 X84.031 Y79.301 E99.11510
G1 X83.817 Y79.086 E99.13581
G1 X84.031 Y78.001 E99.21122
G1 X83.817 Y77.786 E99.23193
G1 X84.031 Y76.701 E99.30735
G1 X83.817 Y76.486 E99.32805
G1 X84.031 Y75.401 E99.40347
G1 X83.817 Y75.186 E99.42418
G1 X84.031 Y74.101 E99.49959
G1 X83.817 Y73.886 E99.52030
G1 X84.031 Y72.801 E99.59573
G1 X84.924 Y72.693 F6000.000
G1 X84.565 Y95.661
G1 X77.328 Y112.197
G1 X76.279 Y111.800
G1 X76.912 Y111.131 F360.000 E99.65855
G1 X76.755 Y110.974 E99.67373
G1 X77.389 Y110.306 E99.73655
G1 X77.232 Y110.149 E99.75172
G1 X77.865 Y109.481 E99.81454
G1 X77.708 Y109.324 E99.82972
G1 X78.342 Y108.656 E99.89254
G1 X78.184 Y108.499 E99.90772
G1 X78.818 Y107.831 E99.97054
G1 X78.661 Y107.674 E99.98571
G1 X79.294 Y107.006 E100.04853
G1 X79.137 Y106.849 E100.06371
G1 X79.771 Y106.181 E100.12653
G1 X79.613 Y106.024 E100.14171
G1 X80.247 Y105.356 E100.20453
G1 X80.090 Y105.199 E100.21971
G1 X80.723 Y104.531 E100.28253
G1 X80.566 Y104.374 E100.29771
G1 X81.200 Y103.706 E100.36053
G1 X81.042 Y103.549 E100.37570
G1 X81.676 Y102.881 E100.43852
G1 X81.519 Y102.724 E100.45370
G1 X82.152 Y102.056 E100.51652
G1 X81.995 Y101.898 E100.53170
G1 X82.629 Y101.231 E100.59452
G1 X82.471 Y101.073 E100.60970
G1 X83.105 Y100.406 E100.67252
G1 X82.948 Y100.248 E100.68770
G1 X83.581 Y99.581 E100.75052
G1 X83.424 Y99.423 E100.76569
G1 X84.058 Y98.755 E100.82851
G1 X83.901 Y98.598 E100.84369
G1 X84.534 Y97.930 E100.90651
G1 X84.377 Y97.773 E100.92169
G1 X85.011 Y97.105 E100.98451
G1 X84.853 Y96.948 E100.99969
G1 X85.486 Y96.280 E101.06251
G1 X84.565 Y95.661 F6000.000
G1 X105.924 Y93.693
G1 X106.817 Y93.633
G1 X107.031 Y92.533 F360.000 E101.13987
G1 X106.817 Y92.318 E101.16082
G1 X107.031 Y91.217 E101.23817
G1 X106.817 Y91.002 E101.25913
G1 X107.031 Y89.902 E101.33648
G1 X106.817 Y89.687 E101.35743
G1 X107.031 Y88.586 E101.43479
G1 X106.817 Y88.372 E101.45574
