; generated by Slic3r 0.9.9 on 2013-07-06 at 20:07:06

; layer_height = 0.31
; perimeters = 3
; top_solid_layers = 3
; bottom_solid_layers = 3
; fill_density = 0.4
; perimeter_speed = 30
; infill_speed = 60
; travel_speed = 130
; nozzle_diameter = 0.5
; filament_diameter = 2.93
; extrusion_multiplier = 1
; perimeters extrusion width = 0.67mm
; infill extrusion width = 0.67mm
; solid infill extrusion width = 0.67mm
; top infill extrusion width = 0.67mm
; first layer extrusion width = 1.00mm

G21 ; set units to millimeters
M107
M190 S120 ; wait for bed temperature to be reached
M104 S240 ; set temperature
G28 ; home all axes
G1 Z5 F5000 ; lift nozzle
M109 S240 ; wait for temperature to be reached
G90 ; use absolute coordinates
G92 E0
M82 ; use absolute distances for extrusion
G1 F1800.000 E-1.00000
G92 E0
G1 Z-0.900 F7800.000
G1 X49.928 Y54.280
G1 F1800.000 E1.00000
G1 X50.338 Y53.930 F540.000 E1.03569
G1 X50.778 Y53.610 E1.07170
G1 X51.488 Y53.200 E1.12598
G1 X51.978 Y52.980 E1.16153
G1 X52.488 Y52.790 E1.19756
G1 X53.278 Y52.590 E1.25151
G1 X53.818 Y52.510 E1.28765
G1 X54.358 Y52.470 E1.32349
G1 X81.638 Y51.570 E3.13038
G1 X123.618 Y51.010 E5.90965
G1 X124.168 Y51.020 E5.94606
G1 X124.708 Y51.080 E5.98203
G1 X125.248 Y51.180 E6.01839
G1 X125.778 Y51.320 E6.05468
G1 X126.038 Y51.410 E6.07289
G1 X126.788 Y51.730 E6.12687
G1 X127.498 Y52.140 E6.18114
G1 X127.948 Y52.460 E6.21770
G1 X128.368 Y52.820 E6.25432
G1 X128.938 Y53.410 E6.30862
G1 X129.278 Y53.840 E6.34491
G1 X129.578 Y54.290 E6.38071
G1 X129.968 Y55.010 E6.43492
G1 X130.178 Y55.520 E6.47143
G1 X130.348 Y56.040 E6.50765
G1 X130.418 Y56.310 E6.52611
G1 X130.558 Y57.120 E6.58053
G1 X130.598 Y57.660 E6.61637
G1 X131.158 Y73.820 E7.68679
G1 X131.158 Y79.580 E8.06809
G1 X131.138 Y79.890 E8.08866
G1 X131.058 Y80.490 E8.12873
G1 X130.998 Y80.780 E8.14833
G1 X130.838 Y81.370 E8.18880
G1 X130.628 Y81.940 E8.22901
G1 X112.698 Y124.810 E11.30517
G1 X112.328 Y125.560 E11.36053
G1 X112.188 Y125.800 E11.37893
G1 X111.868 Y126.260 E11.41602
G1 X111.518 Y126.700 E11.45324
G1 X111.138 Y127.100 E11.48976
G1 X110.718 Y127.470 E11.52682
G1 X110.498 Y127.650 E11.54564
G1 X109.798 Y128.110 E11.60108
G1 X109.308 Y128.370 E11.63781
G1 X108.798 Y128.590 E11.67457
G1 X108.268 Y128.770 E11.71163
G1 X107.728 Y128.900 E11.74840
G1 X107.178 Y128.990 E11.78529
G1 X106.618 Y129.040 E11.82251
G1 X73.058 Y129.040 E14.04414
G1 X72.228 Y128.950 E14.09941
G1 X71.418 Y128.770 E14.15434
G1 X71.148 Y128.690 E14.17298
G1 X70.628 Y128.490 E14.20986
G1 X70.128 Y128.250 E14.24657
G1 X69.638 Y127.970 E14.28393
G1 X68.968 Y127.480 E14.33888
G1 X68.548 Y127.110 E14.37594
G1 X67.988 Y126.490 E14.43124
G1 X67.648 Y126.050 E14.46805
G1 X67.218 Y125.330 E14.52357
G1 X67.098 Y125.080 E14.54193
G1 X48.798 Y81.620 E17.66358
G1 X48.678 Y81.330 E17.68435
G1 X48.488 Y80.740 E17.72539
G1 X48.308 Y79.810 E17.78809
G1 X48.258 Y79.190 E17.82927
G1 X47.698 Y63.030 E18.89968
G1 X47.698 Y59.090 E19.16051
G1 X47.778 Y58.280 E19.21439
G1 X47.888 Y57.740 E19.25087
G1 X48.128 Y56.960 E19.30490
G1 X48.338 Y56.460 E19.34080
G1 X48.578 Y55.980 E19.37632
G1 X49.018 Y55.290 E19.43050
G1 X49.358 Y54.870 E19.46627
G1 X49.831 Y54.372 E19.51172
G1 F1800.000 E18.51172
G92 E0
G1 X58.477 Y76.842 F7800.000
G1 F1800.000 E1.00000
G1 X81.104 Y76.023 F540.000 E2.49889
G1 X81.104 Y78.464 E2.66051
G1 X58.477 Y77.647 E4.15939
G1 X58.477 Y76.976 E4.20382
G1 X58.033 Y75.976 F7800.000
G1 X81.997 Y75.097 F378.000 E5.79125
G1 X81.997 Y79.390 E6.07546
G1 X58.033 Y78.513 E7.66288
G1 X55.592 Y78.513 E7.82447
G1 X55.592 Y75.976 E7.99243
G1 X57.899 Y75.976 E8.14515
G1 X58.498 Y76.738 F7800.000
G1 X56.789 Y77.317
G1 X56.789 Y77.317 F360.000 E8.14518
G1 X65.421 Y77.244 F7800.000
G1 X66.015 Y77.222 F360.000 E8.16440
G1 X66.061 Y77.268 E8.16648
G1 X66.610 Y77.200 E8.18436
G1 X66.700 Y77.291 E8.18850
G1 X67.204 Y77.179 E8.20518
G1 X67.340 Y77.314 E8.21139
G1 X67.799 Y77.157 E8.22707
G1 X67.980 Y77.338 E8.23533
G1 X68.393 Y77.135 E8.25022
G1 X68.620 Y77.361 E8.26055
G1 X68.988 Y77.113 E8.27490
G1 X69.259 Y77.384 E8.28730
G1 X69.583 Y77.091 E8.30140
G1 X69.899 Y77.408 E8.31586
G1 X70.177 Y77.070 E8.33001
G1 X70.539 Y77.431 E8.34654
G1 X70.772 Y77.048 E8.36103
G1 X71.178 Y77.455 E8.37962
G1 X71.366 Y77.026 E8.39474
G1 X71.818 Y77.478 E8.41539
G1 X71.961 Y77.004 E8.43138
G1 X73.624 Y77.244 F7800.000
G1 X74.931 Y77.196 F360.000 E8.52424
G1 X75.030 Y77.295 E8.53423
G1 X76.238 Y77.148 E8.62061
G1 X76.436 Y77.347 E8.64057
G1 X77.544 Y77.100 E8.72119
G1 X77.842 Y77.398 E8.75113
G1 X78.851 Y77.052 E8.82686
G1 X79.248 Y77.449 E8.86677
G1 X80.158 Y77.004 E8.93869
G1 F1800.000 E7.93869
G92 E0
G1 X83.587 Y82.903 F7800.000
G1 X84.871 Y82.903
G1 X86.629 Y81.146
G1 X86.629 Y73.341
G1 X83.020 Y66.737
G1 X80.537 Y62.297
G1 F1800.000 E1.00000
G1 X57.910 Y61.480 F540.000 E2.49888
G1 X57.910 Y60.675 E2.55218
G1 X80.537 Y59.856 E4.05107
G1 X80.537 Y62.164 E4.20382
G1 X81.430 Y63.223 F7800.000
G1 X57.467 Y62.346 F378.000 E5.79124
G1 X55.026 Y62.346 E5.95283
G1 X55.026 Y59.809 E6.12079
G1 X57.467 Y59.809 E6.28238
G1 X81.430 Y58.930 E7.86980
G1 X81.430 Y63.089 E8.14515
G1 X80.668 Y62.758 F7800.000
G1 X56.222 Y61.150
G1 X56.222 Y61.150 F360.000 E8.14518
G1 X64.854 Y61.077 F7800.000
G1 X65.449 Y61.055 F360.000 E8.16440
G1 X65.494 Y61.101 E8.16648
G1 X66.043 Y61.034 E8.18436
G1 X66.134 Y61.124 E8.18850
G1 X66.638 Y61.012 E8.20518
G1 X66.773 Y61.148 E8.21139
G1 X67.232 Y60.990 E8.22707
G1 X67.413 Y61.171 E8.23533
G1 X67.827 Y60.968 E8.25022
G1 X68.053 Y61.194 E8.26055
G1 X68.421 Y60.947 E8.27490
G1 X68.693 Y61.218 E8.28730
G1 X69.016 Y60.925 E8.30140
G1 X69.332 Y61.241 E8.31586
G1 X69.611 Y60.903 E8.33001
G1 X69.972 Y61.265 E8.34654
G1 X70.205 Y60.881 E8.36103
G1 X70.612 Y61.288 E8.37962
G1 X70.800 Y60.859 E8.39474
G1 X71.251 Y61.311 E8.41539
G1 X71.394 Y60.838 E8.43138
G1 X73.058 Y61.077 F7800.000
G1 X74.364 Y61.029 F360.000 E8.52424
G1 X74.464 Y61.129 E8.53423
G1 X75.671 Y60.981 E8.62061
G1 X75.870 Y61.180 E8.64057
G1 X76.978 Y60.933 E8.72119
G1 X77.276 Y61.231 E8.75113
G1 X78.284 Y60.885 E8.82686
G1 X78.682 Y61.283 E8.86677
G1 X79.591 Y60.838 E8.93869
G1 F1800.000 E7.93869
G92 E0
G1 X83.020 Y66.737 F7800.000
G1 X84.305 Y66.737
G1 X86.062 Y64.979
G1 X95.067 Y55.839
G1 X99.743 Y60.914
G1 F1800.000 E1.00000
G1 X99.743 Y60.109 F540.000 E1.05329
G1 X122.371 Y59.289 E2.55218
G1 X122.371 Y61.731 E2.71380
G1 X99.877 Y60.918 E4.20382
G1 X99.300 Y61.780 F7800.000
G1 X96.859 Y61.780 F378.000 E4.36540
G1 X96.859 Y59.242 E4.53337
G1 X99.300 Y59.242 E4.69495
G1 X123.264 Y58.363 E6.28238
G1 X123.264 Y62.657 E6.56659
G1 X99.434 Y61.785 E8.14515
G1 X98.863 Y61.001 F7800.000
G1 X98.055 Y60.583
G1 X98.055 Y60.583 F360.000 E8.14518
G1 X106.688 Y60.511 F7800.000
G1 X107.282 Y60.489 F360.000 E8.16440
G1 X107.327 Y60.534 E8.16648
G1 X107.876 Y60.467 E8.18436
G1 X107.967 Y60.558 E8.18850
G1 X108.471 Y60.445 E8.20518
G1 X108.607 Y60.581 E8.21139
G1 X109.066 Y60.423 E8.22707
G1 X109.246 Y60.604 E8.23533
G1 X109.660 Y60.402 E8.25022
G1 X109.886 Y60.628 E8.26055
G1 X110.255 Y60.380 E8.27490
G1 X110.526 Y60.651 E8.28730
G1 X110.849 Y60.358 E8.30140
G1 X111.166 Y60.674 E8.31586
G1 X111.444 Y60.336 E8.33001
G1 X111.805 Y60.698 E8.34654
G1 X112.038 Y60.315 E8.36103
G1 X112.445 Y60.721 E8.37962
G1 X112.633 Y60.293 E8.39474
G1 X113.085 Y60.745 E8.41539
G1 X113.228 Y60.271 E8.43138
G1 X114.891 Y60.510 F7800.000
G1 X116.198 Y60.462 F360.000 E8.52424
G1 X116.297 Y60.562 E8.53423
G1 X117.504 Y60.415 E8.62061
G1 X117.703 Y60.613 E8.64057
G1 X118.811 Y60.367 E8.72119
G1 X119.109 Y60.665 E8.75113
G1 X120.118 Y60.319 E8.82687
G1 X120.515 Y60.716 E8.86677
G1 X121.425 Y60.271 E8.93869
G1 F1800.000 E7.93869
G92 E0
G1 X124.854 Y66.170 F7800.000
G1 X126.677 Y70.989
G1 X122.937 Y75.456
G1 F1800.000 E1.00000
G1 X122.937 Y77.897 F540.000 E1.16162
G1 X100.310 Y77.080 E2.66050
G1 X100.310 Y76.275 E2.71379
G1 X122.804 Y75.461 E4.20382
G1 X123.830 Y74.530 F7800.000
G1 X123.830 Y78.823 F378.000 E4.48803
G1 X99.867 Y77.946 E6.07545
G1 X97.426 Y77.946 E6.23704
G1 X97.426 Y75.409 E6.40500
G1 X99.867 Y75.409 E6.56659
G1 X123.696 Y74.535 E8.14515
G1 X123.393 Y75.309 F7800.000
G1 X98.622 Y76.750
G1 X98.622 Y76.750 F360.000 E8.14518
G1 X107.254 Y76.677 F7800.000
G1 X107.849 Y76.655 F360.000 E8.16440
G1 X107.894 Y76.701 E8.16648
G1 X108.443 Y76.634 E8.18436
G1 X108.534 Y76.724 E8.18850
G1 X109.038 Y76.612 E8.20518
G1 X109.173 Y76.748 E8.21139
G1 X109.632 Y76.590 E8.22707
G1 X109.813 Y76.771 E8.23533
G1 X110.227 Y76.568 E8.25022
G1 X110.453 Y76.794 E8.26055
G1 X110.821 Y76.547 E8.27490
G1 X111.093 Y76.818 E8.28730
G1 X111.416 Y76.525 E8.30140
G1 X111.732 Y76.841 E8.31586
G1 X112.011 Y76.503 E8.33001
G1 X112.372 Y76.865 E8.34653
G1 X112.605 Y76.481 E8.36103
G1 X113.012 Y76.888 E8.37962
G1 X113.200 Y76.459 E8.39474
G1 X113.651 Y76.911 E8.41539
G1 X113.794 Y76.438 E8.43138
G1 X115.458 Y76.677 F7800.000
G1 X116.764 Y76.629 F360.000 E8.52424
G1 X116.864 Y76.729 E8.53423
G1 X118.071 Y76.581 E8.62061
G1 X118.270 Y76.780 E8.64057
G1 X119.378 Y76.533 E8.72119
G1 X119.676 Y76.831 E8.75113
G1 X120.684 Y76.485 E8.82686
G1 X121.082 Y76.883 E8.86677
G1 X121.991 Y76.438 E8.93869
G1 F1800.000 E7.93869
G92 E0
G1 X125.420 Y82.337 F7800.000
G1 X72.095 Y89.150
G1 X82.106 Y94.382
G1 F1800.000 E1.00000
G1 X82.106 Y119.918 F540.000 E2.69049
G1 X75.570 Y119.918 E3.12319
G1 X75.570 Y94.382 E4.81368
G1 X81.972 Y94.382 E5.23752
G1 X82.999 Y93.489 F7800.000
G1 X82.999 Y120.811 F540.000 E7.04620
G1 X74.677 Y120.811 E7.59710
G1 X74.677 Y93.489 E9.40578
G1 X82.865 Y93.489 E9.94781
G1 X83.892 Y92.596 F7800.000
G1 X83.892 Y121.704 F378.000 E11.87468
G1 X73.784 Y121.704 E12.54377
G1 X73.784 Y92.596 E14.47064
G1 X83.758 Y92.596 E15.13086
G1 X83.445 Y93.369 F7800.000
G1 X81.459 Y95.029
G1 X80.177 Y95.029 F1080.000 E15.21705
G1 X81.459 Y96.311 E15.33893
G1 X81.459 Y97.593 E15.42510
G1 X78.895 Y95.029 E15.66884
G1 X77.613 Y95.029 E15.75501
G1 X81.459 Y98.875 E16.12062
G1 X81.459 Y100.157 E16.20679
G1 X76.331 Y95.029 E16.69426
G1 X76.217 Y96.196 E16.77311
G1 X81.459 Y101.439 E17.27146
G1 X81.459 Y102.721 E17.35763
G1 X76.217 Y97.478 E17.85597
G1 X76.217 Y98.760 E17.94214
G1 X81.459 Y104.003 E18.44049
G1 X81.459 Y105.284 E18.52666
G1 X76.217 Y100.042 E19.02500
G1 X76.217 Y101.324 E19.11117
G1 X81.459 Y106.566 E19.60952
G1 X81.459 Y107.848 E19.69569
G1 X76.217 Y102.606 E20.19404
G1 X76.217 Y103.888 E20.28021
G1 X81.459 Y109.130 E20.77855
G1 X81.459 Y110.412 E20.86472
G1 X76.217 Y105.170 E21.36307
G1 X76.217 Y106.452 E21.44924
G1 X81.459 Y111.694 E21.94759
G1 X81.459 Y112.976 E22.03376
G1 X76.217 Y107.734 E22.53210
G1 X76.217 Y109.016 E22.61827
G1 X81.459 Y114.258 E23.11662
G1 X81.459 Y115.540 E23.20279
G1 X76.217 Y110.297 E23.70114
G1 X76.217 Y111.579 E23.78731
G1 X81.459 Y116.822 E24.28565
G1 X81.459 Y118.104 E24.37182
G1 X76.217 Y112.861 E24.87017
G1 X76.217 Y114.143 E24.95634
G1 X81.345 Y119.271 E25.44381
G1 X80.063 Y119.271 E25.52998
G1 X76.217 Y115.425 E25.89558
G1 X76.217 Y116.707 E25.98175
G1 X78.781 Y119.271 E26.22550
G1 X77.499 Y119.271 E26.31167
G1 X76.217 Y117.989 E26.43355
G1 X76.217 Y119.271 E26.51973
G1 F1800.000 E25.51973
G92 E0
G1 X73.838 Y121.650 F7800.000
G1 X83.838 Y121.650
G1 X95.838 Y121.650
G1 X97.570 Y119.918
G1 F1800.000 E1.00000
G1 X97.570 Y94.382 F540.000 E2.69049
G1 X104.106 Y94.382 E3.12319
G1 X104.106 Y119.918 E4.81368
G1 X97.704 Y119.918 E5.23752
G1 X96.677 Y120.811 F7800.000
G1 X96.677 Y93.489 F540.000 E7.04620
G1 X104.999 Y93.489 E7.59710
G1 X104.999 Y120.811 E9.40578
G1 X96.811 Y120.811 E9.94781
G1 X95.784 Y121.704 F7800.000
G1 X95.784 Y92.596 F378.000 E11.87468
G1 X105.892 Y92.596 E12.54377
G1 X105.892 Y121.704 E14.47064
G1 X95.918 Y121.704 E15.13086
G1 X96.231 Y120.931 F7800.000
G1 X98.217 Y119.271
G1 X98.217 Y117.989 F1080.000 E15.21705
G1 X99.499 Y119.271 E15.33893
G1 X100.781 Y119.271 E15.42510
G1 X98.217 Y116.707 E15.66884
G1 X98.217 Y115.425 E15.75501
G1 X102.063 Y119.271 E16.12062
G1 X103.345 Y119.271 E16.20679
G1 X98.217 Y114.143 E16.69426
G1 X98.217 Y112.861 E16.78043
G1 X103.459 Y118.104 E17.27877
G1 X103.459 Y116.822 E17.36494
G1 X98.217 Y111.579 E17.86329
G1 X98.217 Y110.297 E17.94946
G1 X103.459 Y115.540 E18.44781
G1 X103.459 Y114.258 E18.53398
G1 X98.217 Y109.016 E19.03232
G1 X98.217 Y107.734 E19.11849
G1 X103.459 Y112.976 E19.61684
G1 X103.459 Y111.694 E19.70301
G1 X98.217 Y106.452 E20.20135
G1 X98.217 Y105.170 E20.28752
G1 X103.459 Y110.412 E20.78587
G1 X103.459 Y109.130 E20.87204
G1 X98.217 Y103.888 E21.37039
G1 X98.217 Y102.606 E21.45656
G1 X103.459 Y107.848 E21.95490
G1 X103.459 Y106.566 E22.04107
G1 X98.217 Y101.324 E22.53942
G1 X98.217 Y100.042 E22.62559
G1 X103.459 Y105.284 E23.12394
G1 X103.459 Y104.003 E23.21011
G1 X98.217 Y98.760 E23.70845
G1 X98.217 Y97.478 E23.79462
G1 X103.459 Y102.721 E24.29297
G1 X103.459 Y101.439 E24.37914
G1 X98.217 Y96.196 E24.87748
G1 X98.331 Y95.029 E24.95634
G1 X103.459 Y100.157 E25.44381
G1 X103.459 Y98.875 E25.52998
G1 X99.613 Y95.029 E25.89558
G1 X100.895 Y95.029 E25.98175
G1 X103.459 Y97.593 E26.22550
G1 X103.459 Y96.311 E26.31167
G1 X102.177 Y95.029 E26.43355
G1 X103.459 Y95.029 E26.51973
M106 S255
M104 S225 ; set temperature
M140 S100 ; set bed temperature
G1 F1800.000 E25.51973
G92 E0
G1 Z-0.590 F7800.000
G1 X109.338 Y90.907
G1 X107.581 Y89.150
G1 X83.587 Y82.903
G1 X81.227 Y78.226
G1 F1800.000 E1.00000
G1 X68.627 Y77.766 F1662.250 E1.36715
G1 X61.615 Y77.530 E1.57146
G1 X61.615 Y76.959 E1.58809
G1 X68.628 Y76.722 E1.79242
G1 X81.227 Y76.261 E2.15956
G1 X81.227 Y78.131 E2.21403
G1 X81.860 Y78.883 F7800.000
G1 X68.605 Y78.399 F1662.250 E2.60028
G1 X61.960 Y78.175 E2.79390
G1 X58.035 Y78.009 E2.90830
G1 X56.079 Y78.009 E2.96527
G1 X56.079 Y76.479 E3.00982
G1 X58.035 Y76.479 E3.06680
G1 X61.960 Y76.313 E3.18120
G1 X68.605 Y76.089 E3.37482
G1 X81.860 Y75.604 E3.76107
G1 X81.860 Y78.788 E3.85381
G1 X82.494 Y79.540 F7800.000
G1 X68.583 Y79.032 F1163.575 E4.25916
G1 X61.936 Y78.808 E4.45283
G1 X58.022 Y78.643 E4.56692
G1 X55.445 Y78.643 E4.64195
G1 X55.445 Y75.846 E4.72339
G1 X58.022 Y75.846 E4.79842
G1 X61.936 Y75.680 E4.91251
G1 X68.583 Y75.456 E5.10618
G1 X82.494 Y74.947 E5.51154
G1 X82.494 Y79.445 E5.64254
G1 X81.953 Y79.210 F7800.000
G1 X80.408 Y77.377
G1 X78.726 Y77.172 F1108.167 E5.74644
G1 X78.588 Y77.310 E5.75845
G1 X76.768 Y77.244 E5.87014
G1 X74.962 Y77.345 F7800.000
G1 X74.178 Y77.171 F1108.167 E5.89517
G1 X74.038 Y77.311 E5.90137
G1 X73.183 Y77.207 E5.92819
G1 X73.113 Y77.278 E5.93129
G1 X72.188 Y77.244 E5.96012
G1 X71.074 Y77.404 F7800.000
G1 X70.918 Y77.089 F1108.167 E5.96550
G1 X70.620 Y77.388 E5.97196
G1 X70.429 Y77.107 E5.97716
G1 X70.165 Y77.371 E5.98287
G1 X69.940 Y77.125 E5.98798
G1 X69.711 Y77.354 E5.99295
G1 X69.452 Y77.143 E5.99807
G1 X69.257 Y77.338 E6.00229
G1 X68.963 Y77.161 E6.00755
G1 X68.802 Y77.321 E6.01102
G1 X68.474 Y77.178 E6.01650
G1 X68.347 Y77.305 E6.01926
G1 X67.987 Y77.195 E6.02503
G1 X67.891 Y77.290 E6.02709
G1 X67.499 Y77.211 E6.03322
G1 X67.436 Y77.275 E6.03460
G1 X67.012 Y77.228 E6.04112
G1 X66.980 Y77.259 E6.04182
G1 X66.524 Y77.244 E6.04880
G1 X60.796 Y77.306 F7800.000
G1 X59.333 Y77.244 F1108.167 E6.12147
G1 X57.533 Y77.358 F7800.000
G1 X56.730 Y77.131 F1108.167 E6.14937
G1 F1800.000 E5.14937
G92 E0
G1 X53.801 Y72.572 F7800.000
G1 X52.322 Y65.720
G1 X51.453 Y58.251
G1 X53.234 Y56.405
G1 X61.049 Y61.363
G1 F1800.000 E1.00000
G1 X61.049 Y60.792 F1662.250 E1.01663
G1 X68.061 Y60.556 E1.22095
G1 X80.660 Y60.094 E1.58810
G1 X80.660 Y62.060 E1.64534
G1 X68.061 Y61.599 E2.01248
G1 X61.144 Y61.366 E2.21403
G1 X61.394 Y62.009 F7800.000
G1 X57.469 Y61.843 F1662.250 E2.32843
G1 X55.512 Y61.843 E2.38541
G1 X55.512 Y60.313 E2.42996
G1 X57.469 Y60.313 E2.48693
G1 X61.394 Y60.147 E2.60133
G1 X68.039 Y59.923 E2.79495
G1 X81.293 Y59.437 E3.18120
G1 X81.293 Y62.716 E3.27670
G1 X68.039 Y62.232 E3.66295
G1 X61.489 Y62.012 E3.85381
G1 X61.370 Y62.642 F7800.000
G1 X57.455 Y62.476 F1163.575 E3.96790
G1 X54.879 Y62.476 E4.04292
G1 X54.879 Y59.679 E4.12436
G1 X57.455 Y59.679 E4.19939
G1 X61.370 Y59.514 E4.31348
G1 X68.016 Y59.290 E4.50716
