; generated by Slic3r 0.9.9 on 2013-06-20 at 22:23:14

; layer_height = 0.4
; perimeters = 3
; top_solid_layers = 3
; bottom_solid_layers = 3
; fill_density = 0.4
; perimeter_speed = 30
; infill_speed = 60
; travel_speed = 130
; nozzle_diameter = 0.5
; filament_diameter = 3
; extrusion_multiplier = 1
; perimeters extrusion width = 0.53mm
; infill extrusion width = 0.53mm
; solid infill extrusion width = 0.53mm
; top infill extrusion width = 0.53mm
; first layer extrusion width = 1.00mm

G21 ; set units to millimeters
M107
M190 S120 ; wait for bed temperature to be reached
M104 S240 ; set temperature
G28 ; home all axes
G1 Z5 F5000 ; lift nozzle
M109 S240 ; wait for temperature to be reached
G90 ; use absolute coordinates
G92 E0
M82 ; use absolute distances for extrusion
G1 F1800.000 E-1.00000
G92 E0
G1 Z-3.300 F7800.000
G1 X67.520 Y76.790
G1 F1800.000 E1.00000
G1 X84.200 Y60.120 F540.000 E2.48910
G1 X84.620 Y59.740 E2.52486
G1 X85.070 Y59.390 E2.56086
G1 X85.300 Y59.230 E2.57855
G1 X85.790 Y58.940 E2.61451
G1 X86.300 Y58.690 E2.65037
G1 X86.570 Y58.580 E2.66878
G1 X87.100 Y58.390 E2.70434
G1 X87.660 Y58.250 E2.74079
G1 X88.220 Y58.160 E2.77660
G1 X88.790 Y58.110 E2.81273
G1 X91.200 Y58.110 E2.96491
G1 X92.050 Y58.200 E3.01889
G1 X92.330 Y58.250 E3.03685
G1 X92.890 Y58.390 E3.07330
G1 X93.690 Y58.690 E3.12725
G1 X94.450 Y59.080 E3.18119
G1 X95.150 Y59.560 E3.23479
G1 X95.790 Y60.120 E3.28849
G1 X120.070 Y84.400 E5.45672
G1 X120.260 Y84.620 E5.47508
G1 X120.610 Y85.060 E5.51058
G1 X120.770 Y85.300 E5.52879
G1 X121.190 Y86.040 E5.58252
G1 X121.420 Y86.560 E5.61843
G1 X121.610 Y87.100 E5.65457
G1 X121.750 Y87.660 E5.69102
G1 X121.800 Y87.940 E5.70898
G1 X121.890 Y88.790 E5.76296
G1 X121.890 Y91.200 E5.91514
G1 X121.800 Y92.050 E5.96911
G1 X121.750 Y92.330 E5.98707
G1 X121.610 Y92.890 E6.02352
G1 X121.310 Y93.690 E6.07747
G1 X120.920 Y94.450 E6.13141
G1 X120.610 Y94.930 E6.16750
G1 X120.070 Y95.590 E6.22134
G1 X95.590 Y120.070 E8.40744
G1 X95.370 Y120.260 E8.42579
G1 X94.930 Y120.610 E8.46130
G1 X94.690 Y120.770 E8.47951
G1 X93.950 Y121.190 E8.53324
G1 X93.430 Y121.420 E8.56914
G1 X92.890 Y121.610 E8.60529
G1 X92.330 Y121.750 E8.64174
G1 X92.050 Y121.800 E8.65970
G1 X91.200 Y121.890 E8.71368
G1 X88.790 Y121.890 E8.86586
G1 X87.940 Y121.800 E8.91983
G1 X87.660 Y121.750 E8.93779
G1 X87.100 Y121.610 E8.97424
G1 X86.300 Y121.310 E9.02819
G1 X85.540 Y120.920 E9.08213
G1 X85.060 Y120.610 E9.11821
G1 X84.400 Y120.070 E9.17206
G1 X60.120 Y95.790 E11.34030
G1 X59.560 Y95.150 E11.39400
G1 X59.230 Y94.690 E11.42975
G1 X58.940 Y94.200 E11.46570
G1 X58.690 Y93.690 E11.50157
G1 X58.390 Y92.890 E11.55552
G1 X58.250 Y92.330 E11.59197
G1 X58.160 Y91.770 E11.62778
G1 X58.110 Y91.200 E11.66391
G1 X58.110 Y88.790 E11.81609
G1 X58.200 Y87.940 E11.87007
G1 X58.250 Y87.660 E11.88803
G1 X58.390 Y87.100 E11.92448
G1 X58.690 Y86.300 E11.97843
G1 X58.940 Y85.790 E12.01429
G1 X59.230 Y85.300 E12.05025
G1 X59.560 Y84.840 E12.08600
G1 X60.120 Y84.200 E12.13970
G1 X67.425 Y76.885 E12.79252
G1 F1800.000 E11.79252
G92 E0
G1 X84.444 Y91.620 F7800.000
G1 F1800.000 E1.00000
G1 X84.444 Y90.000 F540.000 E1.10232
G1 X78.889 Y90.000 E1.45313
G1 X78.889 Y88.148 E1.57007
G1 X78.657 Y87.917 E1.59074
G1 X78.889 Y88.148 F7800.000
G1 X79.120 Y87.917 F540.000 E1.61141
G1 X79.120 Y87.917 F7800.000
G1 X79.120 Y87.917 F540.000 E1.61141
G1 X78.889 Y90.000 F7800.000
G1 X74.491 Y90.000 F540.000 E1.88913
G1 X74.491 Y90.000 F7800.000
G1 X73.333 Y90.000 F540.000 E1.96222
G1 X73.333 Y90.000 F7800.000
G1 X73.333 Y84.444 F540.000 E2.31302
G1 X71.482 Y84.444 E2.42996
G1 X71.250 Y84.213 E2.45063
G1 X71.482 Y84.444 F7800.000
G1 X71.250 Y84.676 F540.000 E2.47131
G1 X73.333 Y84.444 F7800.000
G1 X73.333 Y83.287 F540.000 E2.54439
G1 X73.333 Y83.287 F7800.000
G1 X73.333 Y82.824 F540.000 E2.57363
G1 X73.333 Y82.824 F7800.000
G1 X73.102 Y82.361 F540.000 E2.60631
G1 X73.333 Y82.593 F7800.000
G1 X73.565 Y82.361 F540.000 E2.62698
G1 X73.333 Y84.444 F7800.000
G1 X74.491 Y84.444 F540.000 E2.70007
G1 X74.491 Y84.444 F7800.000
G1 X75.185 Y84.444 F540.000 E2.74392
G1 X75.417 Y84.213 E2.76459
G1 X75.185 Y84.444 F7800.000
G1 X75.417 Y84.676 F540.000 E2.78526
G1 X75.417 Y84.676 F7800.000
G1 X75.417 Y84.676 F540.000 E2.78527
G1 X75.611 Y84.870 F7800.000
G1 X73.759 Y84.870
G1 X73.759 Y89.574
G1 X79.315 Y90.426
G1 X78.889 Y90.000
G1 X78.889 Y91.852 F540.000 E2.90220
G1 X78.889 Y91.852 F7800.000
G1 X79.120 Y92.083 F540.000 E2.92288
G1 X78.889 Y91.852 F7800.000
G1 X78.657 Y92.083 F540.000 E2.94355
G1 X78.463 Y92.278 F7800.000
G1 X78.463 Y90.426
G1 X73.759 Y90.426
G1 X73.759 Y95.130
G1 X75.611 Y95.130
G1 X75.417 Y95.324
G1 X74.954 Y95.556 F540.000 E2.97623
G1 X74.954 Y95.556 F7800.000
G1 X74.491 Y95.556 F540.000 E3.00546
G1 X74.491 Y95.556 F7800.000
G1 X74.491 Y95.556 F1800.000
G1 X74.491 Y95.556 F7800.000
G1 X73.333 Y95.556 F540.000 E3.07855
G1 X73.333 Y95.556 F7800.000
G1 X73.333 Y97.407 F540.000 E3.19549
G1 X73.333 Y97.407 F7800.000
G1 X73.565 Y97.639 F540.000 E3.21616
G1 X73.333 Y97.407 F7800.000
G1 X73.102 Y97.639 F540.000 E3.23683
G1 X73.102 Y97.639 F7800.000
G1 X73.102 Y97.639 F540.000 E3.23683
G1 X72.907 Y97.833 F7800.000
G1 X72.907 Y95.981
G1 X71.056 Y95.981
G1 X71.250 Y95.787
G1 X71.482 Y95.556 F540.000 E3.25751
G1 X71.250 Y95.324 F7800.000
G1 X71.482 Y95.556 F540.000 E3.27818
G1 X73.333 Y95.556 E3.39512
G1 X73.333 Y90.000 E3.74592
G1 X67.778 Y90.000 E4.09673
G1 X67.778 Y88.148 E4.21367
G1 X67.546 Y87.917 E4.23434
G1 X67.778 Y88.148 F7800.000
G1 X68.009 Y87.917 F540.000 E4.25501
G1 X68.009 Y87.917 F7800.000
G1 X68.009 Y87.917 F540.000 E4.25501
G1 X67.778 Y90.000 F7800.000
G1 X66.620 Y90.000 F540.000 E4.32810
G1 X66.620 Y90.000 F7800.000
G1 X65.926 Y90.000 F540.000 E4.37195
G1 X65.694 Y90.231 F7800.000
G1 X65.926 Y90.000 F540.000 E4.39262
G1 X65.694 Y89.769 E4.41329
G1 X65.694 Y90.231 F7800.000
G1 X65.694 Y90.231 F540.000 E4.41329
G1 X67.778 Y90.000 F7800.000
G1 X67.778 Y91.852 F540.000 E4.53023
G1 X67.778 Y91.852 F7800.000
G1 X68.009 Y92.083 F540.000 E4.55090
G1 X68.009 Y92.083 F7800.000
G1 X68.009 Y92.083 F540.000 E4.55090
G1 X67.778 Y91.852 F7800.000
G1 X67.546 Y92.083 F540.000 E4.57158
G1 X67.352 Y92.278 F7800.000
G1 X68.204 Y90.426
G1 X72.907 Y90.426
G1 X73.759 Y95.130
G1 X75.611 Y95.130
G1 X75.185 Y95.556
G1 X75.417 Y95.787 F540.000 E4.59225
G1 X75.417 Y95.787 F7800.000
G1 X75.417 Y95.787 F540.000 E4.59225
G1 X75.611 Y95.981 F7800.000
G1 X73.759 Y95.130
G1 X73.759 Y90.426
G1 X84.019 Y90.426
G1 X84.019 Y92.278
G1 X84.213 Y92.083
G1 X84.444 Y91.620 F540.000 E4.62493
G1 X84.444 Y91.852 F7800.000
G1 X84.676 Y92.083 F540.000 E4.64561
G1 X84.444 Y90.000 F7800.000
G1 X84.444 Y88.148 F540.000 E4.76254
G1 X84.213 Y87.917 E4.78321
G1 X84.444 Y88.148 F7800.000
G1 X84.676 Y87.917 F540.000 E4.80388
G1 X84.676 Y87.917 F7800.000
G1 X84.676 Y87.917 F540.000 E4.80388
G1 X84.444 Y90.000 F7800.000
G1 X86.991 Y90.000 F540.000 E4.96467
G1 X86.991 Y90.000 F7800.000
G1 X88.380 Y90.000 F540.000 E5.05237
G1 X88.380 Y90.000 F7800.000
G1 X90.000 Y90.000 F540.000 E5.15469
G1 X90.000 Y84.444 E5.50550
G1 X88.148 Y84.444 E5.62244
G1 X87.917 Y84.213 E5.64311
G1 X88.148 Y84.444 F7800.000
G1 X87.917 Y84.676 F540.000 E5.66378
G1 X87.917 Y84.676 F7800.000
G1 X87.917 Y84.676 F540.000 E5.66378
G1 X90.000 Y84.444 F7800.000
G1 X90.000 Y82.824 F540.000 E5.76610
G1 X90.000 Y82.824 F7800.000
G1 X90.000 Y81.435 F540.000 E5.85380
G1 X90.000 Y81.435 F7800.000
G1 X90.000 Y78.889 F540.000 E6.01459
G1 X88.148 Y78.889 E6.13153
G1 X87.917 Y78.657 E6.15220
G1 X88.148 Y78.889 F7800.000
G1 X87.917 Y79.120 F540.000 E6.17287
G1 X87.917 Y79.120 F7800.000
G1 X87.917 Y79.120 F540.000 E6.17287
G1 X90.000 Y78.889 F7800.000
G1 X90.000 Y74.954 F540.000 E6.42136
G1 X90.000 Y74.954 F7800.000
G1 X90.000 Y73.333 F540.000 E6.52368
G1 X90.000 Y73.333 F7800.000
G1 X88.380 Y73.333 F540.000 E6.62600
G1 X88.380 Y73.333 F7800.000
G1 X86.991 Y73.333 F540.000 E6.71370
G1 X86.991 Y73.333 F7800.000
G1 X84.444 Y73.333 F540.000 E6.87449
G1 X84.444 Y73.333 F7800.000
G1 X84.444 Y71.713 F540.000 E6.97681
G1 X84.444 Y71.713 F7800.000
G1 X84.213 Y71.250 F540.000 E7.00949
G1 X84.444 Y71.482 F7800.000
G1 X84.676 Y71.250 F540.000 E7.03016
G1 X84.676 Y71.250 F7800.000
G1 X84.676 Y71.250 F540.000 E7.03016
G1 X84.870 Y71.056 F7800.000
G1 X84.019 Y72.907
G1 X82.167 Y73.759
G1 X82.593 Y73.333
G1 X82.361 Y73.565 F540.000 E7.05084
G1 X82.361 Y73.565 F7800.000
G1 X82.361 Y73.565 F540.000 E7.05084
G1 X82.361 Y73.102 F7800.000
G1 X82.593 Y73.333 F540.000 E7.07151
G1 X84.444 Y73.333 E7.18845
G1 X84.444 Y74.491 E7.26153
G1 X84.444 Y74.491 F7800.000
G1 X84.444 Y75.185 F540.000 E7.30538
G1 X84.213 Y75.417 E7.32605
G1 X84.213 Y75.417 F7800.000
G1 X84.213 Y75.417 F540.000 E7.32606
G1 X84.444 Y75.185 F7800.000
G1 X84.676 Y75.417 F540.000 E7.34673
G1 X84.676 Y75.417 F7800.000
G1 X84.676 Y75.417 F540.000 E7.34673
G1 X84.870 Y75.611 F7800.000
G1 X84.870 Y73.759
G1 X89.574 Y73.759
G1 X90.426 Y79.315
G1 X90.000 Y78.889
G1 X91.620 Y78.889 F540.000 E7.44905
G1 X91.620 Y78.889 F7800.000
G1 X92.083 Y78.657 F540.000 E7.48173
G1 X92.083 Y78.657 F7800.000
G1 X92.083 Y78.657 F540.000 E7.48173
G1 X91.852 Y78.889 F7800.000
G1 X92.083 Y79.120 F540.000 E7.50240
G1 X92.083 Y79.120 F7800.000
G1 X92.083 Y79.120 F540.000 E7.50241
G1 X92.278 Y79.315 F7800.000
G1 X90.426 Y78.463
G1 X90.426 Y73.759
G1 X95.130 Y73.759
G1 X95.130 Y75.611
G1 X95.324 Y75.417
G1 X95.556 Y75.185 F540.000 E7.52308
G1 X95.556 Y75.185 F7800.000
G1 X95.787 Y75.417 F540.000 E7.54375
G1 X95.556 Y75.185 F7800.000
G1 X95.556 Y74.954 F540.000 E7.55837
G1 X95.556 Y74.954 F7800.000
G1 X95.556 Y73.333 F540.000 E7.66069
G1 X90.000 Y73.333 E8.01150
G1 X90.000 Y67.778 E8.36230
G1 X88.148 Y67.778 E8.47924
G1 X87.917 Y67.546 E8.49991
G1 X88.148 Y67.778 F7800.000
G1 X87.917 Y68.009 F540.000 E8.52058
G1 X87.917 Y68.009 F7800.000
G1 X87.917 Y68.009 F540.000 E8.52058
G1 X90.000 Y67.778 F7800.000
G1 X90.000 Y65.926 F540.000 E8.63752
G1 X90.231 Y65.694 F7800.000
G1 X90.000 Y65.926 F540.000 E8.65819
G1 X89.769 Y65.694 E8.67887
G1 X90.000 Y67.778 F7800.000
G1 X91.157 Y67.778 F540.000 E8.75195
G1 X91.157 Y67.778 F7800.000
G1 X91.620 Y67.778 F540.000 E8.78119
G1 X91.620 Y67.778 F7800.000
G1 X92.083 Y67.546 F540.000 E8.81387
G1 X91.852 Y67.778 F7800.000
G1 X92.083 Y68.009 F540.000 E8.83454
G1 X92.083 Y68.009 F7800.000
G1 X92.083 Y68.009 F540.000 E8.83454
G1 X92.278 Y68.204 F7800.000
G1 X90.426 Y68.204
G1 X90.426 Y72.907
G1 X95.130 Y72.907
G1 X95.130 Y71.056
G1 X95.324 Y71.250
G1 X95.556 Y71.482 F540.000 E8.85522
G1 X95.556 Y72.176 E8.89906
G1 X95.556 Y72.176 F7800.000
G1 X95.556 Y73.333 F540.000 E8.97215
G1 X95.556 Y73.333 F7800.000
G1 X96.713 Y73.333 F540.000 E9.04524
G1 X96.713 Y73.333 F7800.000
G1 X97.407 Y73.333 F540.000 E9.08909
G1 X97.639 Y73.102 E9.10976
G1 X97.407 Y73.333 F7800.000
G1 X97.639 Y73.565 F540.000 E9.13043
G1 X97.639 Y73.565 F7800.000
G1 X97.639 Y73.565 F540.000 E9.13043
G1 X95.556 Y71.482 F7800.000
G1 X95.787 Y71.250 F540.000 E9.15111
G1 X95.981 Y71.056 F7800.000
G1 X95.130 Y72.907
G1 X90.426 Y73.759
G1 X90.426 Y84.019
G1 X92.278 Y84.019
G1 X92.083 Y84.213
G1 X91.852 Y84.444 F540.000 E9.17178
G1 X92.083 Y84.676 F7800.000
G1 X91.852 Y84.444 F540.000 E9.19245
G1 X91.157 Y84.444 E9.23630
G1 X91.157 Y84.444 F7800.000
G1 X90.000 Y84.444 F540.000 E9.30939
G1 X90.000 Y90.000 F7800.000
G1 X90.000 Y95.556 F540.000 E9.66020
G1 X90.000 Y95.556 F7800.000
G1 X91.852 Y95.556 F540.000 E9.77713
G1 X92.083 Y95.324 E9.79780
G1 X91.852 Y95.556 F7800.000
G1 X92.083 Y95.787 F540.000 E9.81847
G1 X92.083 Y95.787 F7800.000
G1 X92.083 Y95.787 F540.000 E9.81847
G1 X92.278 Y95.981 F7800.000
G1 X90.426 Y95.981
G1 X90.426 Y100.685
G1 X90.000 Y99.028
G1 X90.000 Y95.556 F540.000 E10.03773
G1 X88.148 Y95.556 E10.15467
G1 X87.917 Y95.324 E10.17534
G1 X88.148 Y95.556 F7800.000
G1 X87.917 Y95.787 F540.000 E10.19601
G1 X87.722 Y95.981 F7800.000
G1 X89.574 Y95.981
G1 X90.426 Y100.685
G1 X90.000 Y99.028
G1 X90.000 Y101.111 F540.000 E10.32756
G1 X90.000 Y101.111 F7800.000
G1 X91.620 Y101.111 F540.000 E10.42988
G1 X91.620 Y101.111 F7800.000
G1 X92.083 Y100.880 F540.000 E10.46257
G1 X91.852 Y101.111 F7800.000
G1 X92.083 Y101.343 F540.000 E10.48324
G1 X91.620 Y101.111 F7800.000
G1 X91.620 Y101.111 F1800.000
G1 X88.148 Y101.111 F7800.000
G1 X87.917 Y101.343 F540.000 E10.50391
G1 X87.917 Y100.880 F7800.000
G1 X88.148 Y101.111 F540.000 E10.52458
G1 X90.000 Y101.111 E10.64152
G1 X90.000 Y106.667 E10.99233
G1 X88.380 Y106.667 E11.09465
G1 X88.380 Y106.667 F7800.000
G1 X87.917 Y106.667 F540.000 E11.12388
G1 X87.917 Y106.667 F7800.000
G1 X87.454 Y106.667 F540.000 E11.15311
G1 X87.454 Y106.667 F7800.000
G1 X86.528 Y106.667 F540.000 E11.21158
G1 X86.528 Y106.667 F7800.000
G1 X86.065 Y106.667 F540.000 E11.24082
G1 X86.065 Y106.667 F7800.000
G1 X84.444 Y106.667 F540.000 E11.34314
G1 X84.444 Y106.667 F7800.000
G1 X84.444 Y108.287 F540.000 E11.44546
G1 X84.444 Y108.287 F7800.000
G1 X84.213 Y108.750 F540.000 E11.47814
G1 X84.444 Y108.518 F7800.000
G1 X84.676 Y108.750 F540.000 E11.49881
G1 X84.676 Y108.750 F7800.000
G1 X84.676 Y108.750 F540.000 E11.49881
G1 X82.593 Y106.667 F7800.000
G1 X84.444 Y106.667 F540.000 E11.61575
G1 X84.444 Y104.815 E11.73268
G1 X84.676 Y104.583 F7800.000
G1 X84.444 Y104.815 F540.000 E11.75336
G1 X84.213 Y104.583 E11.77403
G1 X84.019 Y104.389 F7800.000
G1 X84.019 Y106.241
G1 X82.167 Y106.241
G1 X82.361 Y106.435
G1 X82.593 Y106.667 F540.000 E11.79470
G1 X82.361 Y106.898 E11.81538
G1 X82.167 Y107.093 F7800.000
G1 X89.574 Y107.093
G1 X89.574 Y111.796
G1 X87.722 Y111.796
G1 X87.917 Y111.991
G1 X87.917 Y111.991 F540.000 E11.81538
G1 X87.917 Y111.991 F7800.000
G1 X88.148 Y112.222 F540.000 E11.83605
G1 X87.917 Y112.454 E11.85672
G1 X88.148 Y112.222 F7800.000
G1 X90.000 Y112.222 F540.000 E11.97366
G1 X90.000 Y108.750 E12.19291
G1 X90.000 Y108.750 F7800.000
G1 X90.000 Y106.667 F540.000 E12.32447
G1 X90.000 Y106.667 F7800.000
G1 X93.472 Y106.667 F540.000 E12.54372
G1 X93.472 Y106.667 F7800.000
G1 X95.556 Y106.667 F540.000 E12.67528
G1 X95.556 Y104.815 E12.79221
G1 X95.324 Y104.583 E12.81288
G1 X95.556 Y104.815 F7800.000
G1 X95.787 Y104.583 F540.000 E12.83356
G1 X95.556 Y106.667 F7800.000
G1 X96.713 Y106.667 F540.000 E12.90664
G1 X96.713 Y106.667 F7800.000
G1 X97.176 Y106.667 F540.000 E12.93588
G1 X97.176 Y106.667 F7800.000
G1 X97.639 Y106.898 F540.000 E12.96856
G1 X97.407 Y106.667 F7800.000
G1 X97.639 Y106.435 F540.000 E12.98924
G1 X97.176 Y106.667 F7800.000
G1 X97.176 Y106.667 F1800.000
G1 X96.713 Y106.667 F7800.000
G1 X96.713 Y106.667 F1800.000
G1 X95.556 Y106.667 F7800.000
G1 X95.556 Y108.287 F540.000 E13.09156
G1 X95.556 Y108.287 F7800.000
G1 X95.324 Y108.750 F540.000 E13.12424
G1 X95.324 Y108.750 F7800.000
G1 X95.324 Y108.750 F540.000 E13.12424
G1 X95.556 Y108.518 F7800.000
G1 X95.787 Y108.750 F540.000 E13.14491
G1 X95.981 Y108.944 F7800.000
G1 X95.130 Y107.093
G1 X90.426 Y107.093
G1 X90.426 Y111.796
G1 X92.278 Y111.796
G1 X92.083 Y111.991
G1 X91.852 Y112.222 F540.000 E13.16559
G1 X91.157 Y112.222 E13.20944
G1 X91.157 Y112.222 F7800.000
G1 X90.000 Y112.222 F540.000 E13.28252
G1 X90.000 Y112.222 F7800.000
G1 X90.000 Y114.074 F540.000 E13.39946
G1 X89.769 Y114.306 E13.42013
G1 X89.769 Y114.306 F7800.000
G1 X89.769 Y114.306 F540.000 E13.42013
G1 X90.000 Y114.074 F7800.000
G1 X90.231 Y114.306 F540.000 E13.44080
G1 X90.426 Y114.500 F7800.000
G1 X90.426 Y112.648
G1 X92.278 Y112.648
G1 X92.083 Y112.454
G1 X92.083 Y112.454 F540.000 E13.44081
G1 X92.083 Y112.454 F7800.000
G1 X91.852 Y112.222 F540.000 E13.46148
G1 X92.278 Y112.648 F7800.000
G1 X90.426 Y111.796
G1 X90.426 Y90.426
G1 X95.130 Y90.426
G1 X95.130 Y92.278
G1 X95.324 Y92.083
G1 X95.556 Y91.852 F540.000 E13.48215
G1 X95.787 Y92.083 E13.50282
G1 X95.556 Y91.852 F7800.000
G1 X95.556 Y91.620 F540.000 E13.51744
G1 X95.556 Y91.620 F7800.000
G1 X95.556 Y90.000 F540.000 E13.61976
G1 X95.556 Y90.000 F7800.000
G1 X101.111 Y90.000 F540.000 E13.97056
G1 X101.111 Y88.148 E14.08750
G1 X100.880 Y87.917 E14.10817
G1 X101.111 Y88.148 F7800.000
G1 X101.343 Y87.917 F540.000 E14.12884
G1 X101.343 Y87.917 F7800.000
