; generated by Slic3r 0.9.9 on 2013-07-03 at 22:36:30

; layer_height = 0.4
; perimeters = 3
; top_solid_layers = 3
; bottom_solid_layers = 3
; fill_density = 0.4
; perimeter_speed = 30
; infill_speed = 60
; travel_speed = 130
; nozzle_diameter = 0.5
; filament_diameter = 2.93
; extrusion_multiplier = 1
; perimeters extrusion width = 0.53mm
; infill extrusion width = 0.53mm
; solid infill extrusion width = 0.53mm
; top infill extrusion width = 0.53mm
; first layer extrusion width = 1.00mm

G21 ; set units to millimeters
M107
M190 S120 ; wait for bed temperature to be reached
M104 S240 ; set temperature
G28 ; home all axes
G1 Z5 F5000 ; lift nozzle
M109 S240 ; wait for temperature to be reached
G90 ; use absolute coordinates
G92 E0
M82 ; use absolute distances for extrusion
G1 F1800.000 E-1.00000
G92 E0
G1 Z-0.900 F7800.000
G1 X80.900 Y81.594
G1 F1800.000 E1.00000
G1 X81.340 Y81.194 F600.000 E1.03936
G1 X83.040 Y79.774 E1.18600
G1 X83.530 Y79.424 E1.22586
G1 X84.060 Y79.114 E1.26651
G1 X84.610 Y78.864 E1.30650
G1 X86.980 Y78.004 E1.47340
G1 X87.850 Y77.794 E1.53265
G1 X88.440 Y77.714 E1.57206
G1 X88.740 Y77.694 E1.59197
G1 X91.250 Y77.694 E1.75813
G1 X91.550 Y77.714 E1.77803
G1 X92.140 Y77.794 E1.81744
G1 X93.020 Y78.004 E1.87733
G1 X95.090 Y78.754 E2.02308
G1 X95.920 Y79.114 E2.08297
G1 X96.440 Y79.414 E2.12272
G1 X96.690 Y79.584 E2.14273
G1 X97.160 Y79.944 E2.18192
G1 X98.860 Y81.374 E2.32898
G1 X99.080 Y81.584 E2.34911
G1 X99.490 Y82.034 E2.38941
G1 X100.030 Y82.764 E2.44952
G1 X101.280 Y84.934 E2.61530
G1 X101.530 Y85.484 E2.65530
G1 X101.740 Y86.044 E2.69489
G1 X101.890 Y86.624 E2.73455
G1 X102.280 Y88.804 E2.88115
G1 X102.360 Y89.394 E2.92057
G1 X102.380 Y89.694 E2.94047
G1 X102.380 Y90.294 E2.98019
G1 X102.360 Y90.594 E3.00009
G1 X102.280 Y91.184 E3.03951
G1 X101.890 Y93.354 E3.18546
G1 X101.740 Y93.934 E3.22512
G1 X101.540 Y94.494 E3.26448
G1 X101.420 Y94.764 E3.28404
G1 X101.140 Y95.294 E3.32372
G1 X100.030 Y97.224 E3.47111
G1 X99.680 Y97.724 E3.51151
G1 X99.280 Y98.204 E3.55288
G1 X99.070 Y98.424 E3.57301
G1 X98.610 Y98.834 E3.61380
G1 X96.880 Y100.264 E3.76238
G1 X96.330 Y100.644 E3.80664
G1 X95.740 Y100.964 E3.85107
G1 X95.120 Y101.224 E3.89558
G1 X93.050 Y101.984 E4.04155
G1 X92.460 Y102.144 E4.08202
G1 X92.160 Y102.204 E4.10227
G1 X91.560 Y102.284 E4.14234
G1 X91.250 Y102.304 E4.16291
G1 X88.740 Y102.304 E4.32907
G1 X88.440 Y102.284 E4.34897
G1 X87.840 Y102.204 E4.38904
G1 X87.540 Y102.144 E4.40929
G1 X86.950 Y101.984 E4.44976
G1 X86.670 Y101.884 E4.46944
G1 X84.590 Y101.114 E4.61627
G1 X83.790 Y100.724 E4.67519
G1 X83.290 Y100.404 E4.71449
G1 X82.820 Y100.044 E4.75368
G1 X81.130 Y98.624 E4.89980
G1 X80.700 Y98.194 E4.94006
G1 X80.300 Y97.724 E4.98091
G1 X80.120 Y97.474 E5.00131
G1 X79.800 Y96.954 E5.04173
G1 X78.850 Y95.294 E5.16834
G1 X78.570 Y94.764 E5.20802
G1 X78.450 Y94.494 E5.22758
G1 X78.250 Y93.934 E5.26694
G1 X78.040 Y93.064 E5.32619
G1 X77.710 Y91.184 E5.45255
G1 X77.630 Y90.594 E5.49196
G1 X77.610 Y90.294 E5.51187
G1 X77.610 Y89.694 E5.55159
G1 X77.630 Y89.394 E5.57149
G1 X77.710 Y88.804 E5.61090
G1 X78.100 Y86.624 E5.75751
G1 X78.250 Y86.044 E5.79717
G1 X78.350 Y85.764 E5.81685
G1 X78.710 Y84.934 E5.87674
G1 X79.960 Y82.764 E6.04252
G1 X80.490 Y82.044 E6.10170
G1 X80.808 Y81.690 E6.13314
G1 F1800.000 E5.13314
G92 E0
G1 X88.427 Y87.275 F7800.000
G1 F1800.000 E1.00000
G1 X91.573 Y87.275 F600.000 E1.20827
G1 X93.146 Y90.000 E1.41655
G1 X91.573 Y92.725 E1.62482
G1 X88.427 Y92.725 E1.83310
G1 X86.854 Y90.000 E2.04137
G1 X88.360 Y87.391 E2.24078
G1 X88.942 Y88.168 F7800.000
G1 X91.058 Y88.168 F600.000 E2.38082
G1 X92.115 Y90.000 E2.52086
G1 X91.058 Y91.832 E2.66089
G1 X88.942 Y91.832 E2.80093
G1 X87.885 Y90.000 E2.94097
G1 X88.875 Y88.284 E3.07214
G1 X89.097 Y87.289 F7800.000
G1 X89.281 Y85.923
G1 X90.719 Y85.923 F600.000 E3.16733
G1 X92.070 Y86.414 E3.26252
G1 X93.172 Y87.339 E3.35770
G1 X93.891 Y88.584 E3.45289
G1 X94.140 Y90.000 E3.54808
G1 X93.891 Y91.416 E3.64327
G1 X93.172 Y92.661 E3.73845
G1 X92.070 Y93.586 E3.83364
G1 X90.719 Y94.077 E3.92883
G1 X89.281 Y94.077 E4.02402
G1 X87.930 Y93.586 E4.11921
G1 X86.828 Y92.661 E4.21439
G1 X86.109 Y91.416 E4.30958
G1 X85.860 Y90.000 E4.40477
G1 X86.109 Y88.584 E4.49996
G1 X86.828 Y87.339 E4.59514
G1 X87.930 Y86.414 E4.69033
G1 X89.155 Y85.968 E4.77666
G1 X89.124 Y85.030 F7800.000
G1 X90.876 Y85.030 F600.000 E4.89268
G1 X92.523 Y85.629 E5.00871
G1 X93.866 Y86.756 E5.12474
G1 X94.742 Y88.274 E5.24077
G1 X95.047 Y90.000 E5.35680
G1 X94.742 Y91.726 E5.47282
G1 X93.866 Y93.244 E5.58885
G1 X92.523 Y94.371 E5.70488
G1 X90.876 Y94.970 E5.82091
G1 X89.124 Y94.970 E5.93694
G1 X87.477 Y94.371 E6.05296
G1 X86.134 Y93.244 E6.16899
G1 X85.258 Y91.726 E6.28502
G1 X84.953 Y90.000 E6.40105
G1 X85.258 Y88.274 E6.51708
G1 X86.134 Y86.756 E6.63311
G1 X87.477 Y85.629 E6.74913
G1 X88.998 Y85.076 E6.85630
G1 X89.657 Y85.746 F7800.000
G1 X89.137 Y85.108
G1 X87.823 Y90.000
G1 X88.911 Y91.886
G1 X89.230 Y93.371
G1 X90.000 Y93.371 F600.000 E6.88736
G1 X90.060 Y93.431 E6.89080
G1 X90.770 Y93.371 E6.91955
G1 X87.332 Y92.240 F7800.000
G1 X87.331 Y92.239 F600.000 E6.91960
G1 X86.696 Y88.981 F7800.000
G1 X86.952 Y88.537 F600.000 E6.93847
G1 X86.908 Y88.493 E6.94076
G1 X87.209 Y88.092 E6.95917
G1 X87.165 Y88.048 E6.96146
G1 X87.465 Y87.648 E6.97987
G1 X89.230 Y86.629 F7800.000
G1 X89.940 Y86.569 F600.000 E7.00862
G1 X90.000 Y86.629 E7.01206
G1 X90.770 Y86.629 E7.04313
G1 X93.304 Y88.981 F7800.000
G1 X93.304 Y88.981 F600.000 E7.04314
G1 X92.535 Y92.352 F7800.000
G1 X92.835 Y91.952 F600.000 E7.06155
G1 X92.791 Y91.908 E7.06384
G1 X93.092 Y91.507 E7.08225
G1 X93.048 Y91.463 E7.08454
G1 X93.304 Y91.019 E7.10341
M106 S255
M104 S225 ; set temperature
M140 S100 ; set bed temperature
G1 F1800.000 E6.10341
G92 E0
G1 Z-0.500 F7800.000
G1 X92.650 Y90.779
G1 F1800.000 E1.00000
G1 X91.550 Y92.685 F600.000 E1.06784
G1 X88.450 Y92.685 E1.16341
G1 X86.900 Y90.000 E1.25897
G1 X88.450 Y87.315 E1.35454
G1 X91.550 Y87.315 E1.45010
G1 X93.100 Y90.000 E1.54567
G1 X92.689 Y90.711 E1.57099
G1 X92.200 Y90.519 F7800.000
G1 X91.250 Y92.165 F600.000 E1.62958
G1 X88.750 Y92.165 E1.70665
G1 X87.500 Y90.000 E1.78372
G1 X88.750 Y87.835 E1.86079
G1 X91.250 Y87.835 E1.93786
G1 X92.500 Y90.000 E2.01493
G1 X92.239 Y90.452 E2.03100
G1 X91.750 Y90.259 F7800.000
G1 X90.950 Y91.645 F600.000 E2.08035
G1 X89.050 Y91.645 E2.13892
G1 X88.100 Y90.000 E2.19749
G1 X89.050 Y88.355 E2.25606
G1 X90.950 Y88.355 E2.31463
G1 X91.900 Y90.000 E2.37321
G1 X91.789 Y90.192 E2.38003
G1 X92.010 Y90.709 F7800.000
G1 X93.929 Y91.430
G1 X93.203 Y92.687 F600.000 E2.42479
G1 X92.090 Y93.621 E2.46955
G1 X90.726 Y94.117 E2.51431
G1 X89.274 Y94.117 E2.55908
G1 X87.910 Y93.621 E2.60384
G1 X86.797 Y92.687 E2.64860
G1 X86.071 Y91.430 E2.69336
G1 X85.819 Y90.000 E2.73812
G1 X86.071 Y88.570 E2.78288
G1 X86.797 Y87.313 E2.82764
G1 X87.910 Y86.379 E2.87240
G1 X89.274 Y85.883 E2.91716
G1 X90.726 Y85.883 E2.96193
G1 X92.090 Y86.379 E3.00669
G1 X93.203 Y87.313 E3.05145
G1 X93.929 Y88.570 E3.09621
G1 X94.181 Y90.000 E3.14097
G1 X93.942 Y91.353 E3.18333
G1 X94.425 Y91.610 F7800.000
G1 X93.607 Y93.027 F600.000 E3.23374
G1 X92.354 Y94.078 E3.28415
G1 X90.818 Y94.637 E3.33456
G1 X89.182 Y94.637 E3.38497
G1 X87.646 Y94.078 E3.43538
G1 X86.393 Y93.027 E3.48579
G1 X85.575 Y91.610 E3.53620
G1 X85.291 Y90.000 E3.58661
G1 X85.575 Y88.390 E3.63702
G1 X86.393 Y86.973 E3.68743
G1 X87.646 Y85.922 E3.73784
G1 X89.182 Y85.363 E3.78825
G1 X90.818 Y85.363 E3.83866
G1 X92.354 Y85.922 E3.88907
G1 X93.607 Y86.973 E3.93948
G1 X94.425 Y88.390 E3.98989
G1 X94.709 Y90.000 E4.04030
G1 X94.438 Y91.534 E4.08831
G1 X94.920 Y91.791 F7800.000
G1 X94.011 Y93.366 F600.000 E4.14437
G1 X92.618 Y94.535 E4.20043
G1 X90.909 Y95.157 E4.25649
G1 X89.091 Y95.157 E4.31254
G1 X87.382 Y94.535 E4.36860
G1 X85.989 Y93.366 E4.42466
G1 X85.080 Y91.791 E4.48072
G1 X84.764 Y90.000 E4.53678
G1 X85.080 Y88.209 E4.59284
G1 X85.989 Y86.634 E4.64890
G1 X87.382 Y85.465 E4.70496
G1 X89.091 Y84.843 E4.76102
G1 X90.909 Y84.843 E4.81708
G1 X92.618 Y85.465 E4.87314
G1 X94.011 Y86.634 E4.92920
G1 X94.920 Y88.209 E4.98526
G1 X95.236 Y90.000 E5.04132
G1 X94.934 Y91.714 E5.09497
G1 X94.404 Y91.851 F7800.000
G1 X90.956 Y93.338
G1 X89.044 Y93.338 F600.000 E5.24818
G1 X92.695 Y92.261 F7800.000
G1 X92.694 Y92.262 F600.000 E5.24825
G1 X93.369 Y89.158 F7800.000
G1 X92.891 Y88.331 F600.000 E5.30057
G1 X92.983 Y88.239 E5.30769
G1 X92.413 Y87.503 E5.35864
G1 X90.956 Y86.662 F7800.000
G1 X89.044 Y86.662 F600.000 E5.51185
G1 X86.631 Y89.158 F7800.000
G1 X86.631 Y89.158 F600.000 E5.51187
G1 X87.587 Y92.497 F7800.000
G1 X87.017 Y91.761 F600.000 E5.56281
G1 X87.109 Y91.669 E5.56994
G1 X86.631 Y90.842 E5.62226
G1 F1800.000 E4.62226
G92 E0
G1 Z-0.100 F7800.000
G1 X86.900 Y90.000
G1 F1800.000 E1.00000
G1 X88.450 Y87.315 F600.000 E1.09557
G1 X91.550 Y87.315 E1.19113
G1 X93.100 Y90.000 E1.28670
G1 X91.550 Y92.685 E1.38226
G1 X88.450 Y92.685 E1.47783
G1 X86.939 Y90.068 E1.57099
G1 X87.500 Y90.000 F7800.000
G1 X88.750 Y87.835 F600.000 E1.64806
G1 X91.250 Y87.835 E1.72513
G1 X92.500 Y90.000 E1.80220
G1 X91.250 Y92.165 E1.87927
G1 X88.750 Y92.165 E1.95634
G1 X87.539 Y90.068 E2.03100
G1 X88.100 Y90.000 F7800.000
G1 X89.050 Y88.355 F600.000 E2.08957
G1 X90.950 Y88.355 E2.14815
G1 X91.900 Y90.000 E2.20672
G1 X90.950 Y91.645 E2.26529
G1 X89.050 Y91.645 E2.32386
G1 X88.139 Y90.068 E2.38003
G1 X87.702 Y89.666 F7800.000
G1 X85.819 Y90.000
G1 X86.071 Y88.570 F600.000 E2.42479
G1 X86.797 Y87.313 E2.46955
G1 X87.910 Y86.379 E2.51431
G1 X89.274 Y85.883 E2.55908
G1 X90.726 Y85.883 E2.60384
G1 X92.090 Y86.379 E2.64860
G1 X93.203 Y87.313 E2.69336
G1 X93.929 Y88.570 E2.73812
G1 X94.181 Y90.000 E2.78288
G1 X93.929 Y91.430 E2.82764
G1 X93.203 Y92.687 E2.87240
G1 X92.090 Y93.621 E2.91716
G1 X90.726 Y94.117 E2.96193
G1 X89.274 Y94.117 E3.00669
G1 X87.910 Y93.621 E3.05145
G1 X86.797 Y92.687 E3.09621
G1 X86.071 Y91.430 E3.14097
G1 X85.833 Y90.077 E3.18333
G1 X85.291 Y90.000 F7800.000
G1 X85.575 Y88.390 F600.000 E3.23374
G1 X86.393 Y86.973 E3.28415
G1 X87.646 Y85.922 E3.33456
G1 X89.182 Y85.363 E3.38497
G1 X90.818 Y85.363 E3.43538
G1 X92.354 Y85.922 E3.48579
G1 X93.607 Y86.973 E3.53620
G1 X94.425 Y88.390 E3.58661
G1 X94.709 Y90.000 E3.63702
G1 X94.425 Y91.610 E3.68743
G1 X93.607 Y93.027 E3.73784
G1 X92.354 Y94.078 E3.78825
G1 X90.818 Y94.637 E3.83866
G1 X89.182 Y94.637 E3.88907
G1 X87.646 Y94.078 E3.93948
G1 X86.393 Y93.027 E3.98989
G1 X85.575 Y91.610 E4.04030
G1 X85.305 Y90.077 E4.08831
G1 X84.764 Y90.000 F7800.000
G1 X85.080 Y88.209 F600.000 E4.14437
G1 X85.989 Y86.634 E4.20043
G1 X87.382 Y85.465 E4.25649
G1 X89.091 Y84.843 E4.31254
G1 X90.909 Y84.843 E4.36860
G1 X92.618 Y85.465 E4.42466
G1 X94.011 Y86.634 E4.48072
G1 X94.920 Y88.209 E4.53678
G1 X95.236 Y90.000 E4.59284
G1 X94.920 Y91.791 E4.64890
G1 X94.011 Y93.366 E4.70496
G1 X92.618 Y94.535 E4.76102
G1 X90.909 Y95.157 E4.81708
G1 X89.091 Y95.157 E4.87314
G1 X87.382 Y94.535 E4.92920
G1 X85.989 Y93.366 E4.98526
G1 X85.080 Y91.791 E5.04132
G1 X84.777 Y90.077 E5.09497
G1 X85.228 Y89.767 F7800.000
G1 X89.045 Y93.338
G1 X90.956 Y93.338 F600.000 E5.24817
G1 X87.306 Y92.262 F7800.000
G1 X87.305 Y92.261 F600.000 E5.24823
G1 X86.631 Y89.158 F7800.000
G1 X87.109 Y88.331 F600.000 E5.30055
G1 X87.017 Y88.239 E5.30768
G1 X87.587 Y87.503 E5.35863
G1 X89.045 Y86.662 F7800.000
G1 X90.956 Y86.662 F600.000 E5.51183
G1 X93.369 Y89.158 F7800.000
G1 X93.369 Y89.158 F600.000 E5.51185
G1 X92.413 Y92.497 F7800.000
G1 X92.983 Y91.761 F600.000 E5.56279
G1 X92.891 Y91.669 E5.56992
G1 X93.369 Y90.842 E5.62224
G1 F1800.000 E4.62224
G92 E0
G1 Z0.300 F7800.000
G1 X93.100 Y90.000
G1 F1800.000 E1.00000
G1 X91.550 Y92.685 F600.000 E1.09557
G1 X88.450 Y92.685 E1.19113
G1 X86.900 Y90.000 E1.28670
G1 X88.450 Y87.315 E1.38226
G1 X91.550 Y87.315 E1.47783
G1 X93.061 Y89.932 E1.57099
G1 X92.500 Y90.000 F7800.000
G1 X91.250 Y92.165 F600.000 E1.64806
G1 X88.750 Y92.165 E1.72513
G1 X87.500 Y90.000 E1.80220
G1 X88.750 Y87.835 E1.87927
G1 X91.250 Y87.835 E1.95634
G1 X92.461 Y89.932 E2.03100
G1 X91.900 Y90.000 F7800.000
G1 X90.950 Y91.645 F600.000 E2.08957
G1 X89.050 Y91.645 E2.14815
G1 X88.100 Y90.000 E2.20672
G1 X89.050 Y88.355 E2.26529
G1 X90.950 Y88.355 E2.32386
G1 X91.861 Y89.932 E2.38003
G1 X92.298 Y90.334 F7800.000
G1 X94.181 Y90.000
G1 X93.929 Y91.430 F600.000 E2.42479
G1 X93.203 Y92.687 E2.46955
G1 X92.090 Y93.621 E2.51431
G1 X90.726 Y94.117 E2.55908
G1 X89.274 Y94.117 E2.60384
G1 X87.910 Y93.621 E2.64860
G1 X86.797 Y92.687 E2.69336
G1 X86.071 Y91.430 E2.73812
G1 X85.819 Y90.000 E2.78288
G1 X86.071 Y88.570 E2.82764
G1 X86.797 Y87.313 E2.87240
G1 X87.910 Y86.379 E2.91716
G1 X89.274 Y85.883 E2.96192
G1 X90.726 Y85.883 E3.00669
G1 X92.123 Y86.391 E3.05251
G1 X93.203 Y87.313 E3.09627
G1 X93.929 Y88.570 E3.14103
G1 X94.167 Y89.923 E3.18339
G1 X94.709 Y90.000 F7800.000
G1 X94.425 Y91.610 F600.000 E3.23380
G1 X93.607 Y93.027 E3.28421
G1 X92.354 Y94.078 E3.33462
G1 X90.818 Y94.637 E3.38503
G1 X89.182 Y94.637 E3.43544
G1 X87.646 Y94.078 E3.48585
G1 X86.393 Y93.027 E3.53626
G1 X85.575 Y91.610 E3.58667
G1 X85.291 Y90.000 E3.63708
G1 X85.575 Y88.390 E3.68749
G1 X86.393 Y86.973 E3.73790
G1 X87.646 Y85.922 E3.78831
G1 X89.182 Y85.363 E3.83872
G1 X90.818 Y85.363 E3.88914
G1 X92.354 Y85.922 E3.93955
G1 X93.607 Y86.973 E3.98996
G1 X94.425 Y88.390 E4.04037
G1 X94.695 Y89.923 E4.08837
G1 X95.236 Y90.000 F7800.000
G1 X94.920 Y91.791 F600.000 E4.14443
G1 X94.011 Y93.366 E4.20049
G1 X92.618 Y94.535 E4.25655
G1 X90.909 Y95.157 E4.31261
G1 X89.091 Y95.157 E4.36867
G1 X87.382 Y94.535 E4.42473
G1 X85.989 Y93.366 E4.48079
G1 X85.080 Y91.791 E4.53685
G1 X84.764 Y90.000 E4.59291
G1 X85.080 Y88.209 E4.64897
G1 X85.989 Y86.634 E4.70502
G1 X87.382 Y85.465 E4.76108
G1 X89.091 Y84.843 E4.81714
G1 X90.909 Y84.843 E4.87320
G1 X92.618 Y85.465 E4.92926
G1 X94.011 Y86.634 E4.98532
G1 X94.920 Y88.209 E5.04138
G1 X95.223 Y89.923 E5.09504
G1 X94.772 Y90.233 F7800.000
G1 X90.956 Y93.338
G1 X89.044 Y93.338 F600.000 E5.24825
G1 X92.695 Y92.261 F7800.000
G1 X92.694 Y92.262 F600.000 E5.24831
G1 X93.369 Y89.158 F7800.000
G1 X92.891 Y88.331 F600.000 E5.30063
G1 X92.983 Y88.239 E5.30776
G1 X92.413 Y87.503 E5.35871
G1 X90.956 Y86.662 F7800.000
G1 X89.044 Y86.662 F600.000 E5.51192
G1 X86.631 Y89.158 F7800.000
G1 X86.631 Y89.158 F600.000 E5.51193
G1 X87.587 Y92.497 F7800.000
G1 X87.017 Y91.761 F600.000 E5.56288
G1 X87.109 Y91.669 E5.57000
G1 X86.631 Y90.842 E5.62232
G1 F1800.000 E4.62232
G92 E0
G1 Z0.700 F7800.000
G1 X86.900 Y90.000
G1 F1800.000 E1.00000
G1 X88.450 Y87.315 F600.000 E1.09557
G1 X91.550 Y87.315 E1.19113
G1 X93.100 Y90.000 E1.28670
G1 X91.550 Y92.685 E1.38226
G1 X88.450 Y92.685 E1.47783
G1 X86.939 Y90.068 E1.57099
G1 X87.500 Y90.000 F7800.000
G1 X88.750 Y87.835 F600.000 E1.64806
G1 X91.250 Y87.835 E1.72513
G1 X92.500 Y90.000 E1.80220
G1 X91.250 Y92.165 E1.87927
G1 X88.750 Y92.165 E1.95634
G1 X87.539 Y90.068 E2.03100
G1 X88.100 Y90.000 F7800.000
G1 X89.050 Y88.355 F600.000 E2.08957
G1 X90.950 Y88.355 E2.14815
G1 X91.900 Y90.000 E2.20672
G1 X90.950 Y91.645 E2.26529
G1 X89.050 Y91.645 E2.32386
G1 X88.139 Y90.068 E2.38003
G1 X87.702 Y89.666 F7800.000
G1 X85.819 Y90.000
G1 X86.071 Y88.570 F600.000 E2.42479
G1 X86.797 Y87.313 E2.46955
G1 X87.910 Y86.379 E2.51431
G1 X89.274 Y85.883 E2.55908
G1 X90.726 Y85.883 E2.60384
G1 X92.090 Y86.379 E2.64860
G1 X93.203 Y87.313 E2.69336
G1 X93.929 Y88.570 E2.73812
G1 X94.181 Y90.000 E2.78288
G1 X93.929 Y91.430 E2.82764
G1 X93.203 Y92.687 E2.87240
G1 X92.090 Y93.621 E2.91716
G1 X90.726 Y94.117 E2.96193
G1 X89.274 Y94.117 E3.00669
G1 X87.910 Y93.621 E3.05145
G1 X86.797 Y92.687 E3.09621
G1 X86.071 Y91.430 E3.14097
G1 X85.833 Y90.077 E3.18333
G1 X85.291 Y90.000 F7800.000
G1 X85.575 Y88.390 F600.000 E3.23374
G1 X86.393 Y86.973 E3.28415
G1 X87.646 Y85.922 E3.33456
G1 X89.182 Y85.363 E3.38497
G1 X90.818 Y85.363 E3.43538
G1 X92.354 Y85.922 E3.48579
G1 X93.607 Y86.973 E3.53620
G1 X94.425 Y88.390 E3.58661
G1 X94.709 Y90.000 E3.63702
G1 X94.425 Y91.610 E3.68743
G1 X93.607 Y93.027 E3.73784
G1 X92.354 Y94.078 E3.78825
G1 X90.818 Y94.637 E3.83866
