; generated by Slic3r 0.9.9 on 2013-07-06 at 09:28:58

; layer_height = 0.4
; perimeters = 3
; top_solid_layers = 3
; bottom_solid_layers = 3
; fill_density = 0.4
; perimeter_speed = 30
; infill_speed = 60
; travel_speed = 130
; nozzle_diameter = 0.5
; filament_diameter = 2.93
; extrusion_multiplier = 1
; perimeters extrusion width = 0.53mm
; infill extrusion width = 0.53mm
; solid infill extrusion width = 0.53mm
; top infill extrusion width = 0.53mm
; first layer extrusion width = 1.00mm

G21 ; set units to millimeters
M107
M190 S120 ; wait for bed temperature to be reached
M104 S240 ; set temperature
G28 ; home all axes
G1 Z5 F5000 ; lift nozzle
M109 S240 ; wait for temperature to be reached
G90 ; use absolute coordinates
G92 E0
M82 ; use absolute distances for extrusion
G1 F1800.000 E-1.00000
G92 E0
G1 Z-0.900 F7800.000
G1 X70.320 Y77.940
G1 F1800.000 E1.00000
G1 X70.950 Y77.420 F540.000 E1.05408
G1 X71.400 Y77.120 E1.08988
G1 X71.870 Y76.860 E1.12544
G1 X72.360 Y76.630 E1.16127
G1 X72.870 Y76.440 E1.19730
G1 X73.660 Y76.240 E1.25124
G1 X73.920 Y76.190 E1.26877
G1 X74.730 Y76.110 E1.32265
G1 X105.270 Y76.110 E3.34436
G1 X106.080 Y76.190 E3.39825
G1 X106.610 Y76.300 E3.43408
G1 X107.130 Y76.440 E3.46973
G1 X107.890 Y76.740 E3.52382
G1 X108.600 Y77.120 E3.57713
G1 X109.050 Y77.420 E3.61293
G1 X109.480 Y77.760 E3.64922
G1 X110.060 Y78.320 E3.70259
G1 X110.580 Y78.950 E3.75667
G1 X110.880 Y79.400 E3.79247
G1 X111.010 Y79.630 E3.80996
G1 X111.370 Y80.360 E3.86384
G1 X111.560 Y80.870 E3.89987
G1 X111.700 Y81.390 E3.93552
G1 X111.810 Y81.920 E3.97135
G1 X111.890 Y82.730 E4.02523
G1 X111.890 Y92.270 E4.65677
G1 X111.800 Y93.090 E4.71138
G1 X111.300 Y95.570 E4.87885
G1 X111.130 Y96.140 E4.91823
G1 X110.920 Y96.690 E4.95720
G1 X110.650 Y97.230 E4.99717
G1 X110.350 Y97.730 E5.03577
G1 X109.270 Y99.350 E5.16466
G1 X108.910 Y99.840 E5.20491
G1 X108.510 Y100.300 E5.24526
G1 X108.070 Y100.720 E5.28553
G1 X107.590 Y101.100 E5.32606
G1 X105.710 Y102.360 E5.47588
G1 X105.190 Y102.670 E5.51595
G1 X104.650 Y102.940 E5.55592
G1 X104.080 Y103.150 E5.59613
G1 X103.500 Y103.320 E5.63614
G1 X101.310 Y103.760 E5.78402
G1 X100.780 Y103.840 E5.81950
G1 X100.260 Y103.880 E5.85402
G1 X79.720 Y103.880 E7.21375
G1 X79.180 Y103.840 E7.24959
G1 X78.920 Y103.800 E7.26701
G1 X76.440 Y103.310 E7.43435
G1 X75.850 Y103.140 E7.47500
G1 X75.290 Y102.920 E7.51483
G1 X74.490 Y102.500 E7.57464
G1 X72.370 Y101.080 E7.74356
G1 X71.910 Y100.710 E7.78264
G1 X71.470 Y100.290 E7.82290
G1 X71.270 Y100.070 E7.84259
G1 X70.720 Y99.350 E7.90256
G1 X69.640 Y97.730 E8.03145
G1 X69.330 Y97.220 E8.07096
G1 X68.950 Y96.400 E8.13079
G1 X68.760 Y95.830 E8.17057
G1 X68.620 Y95.250 E8.21006
G1 X68.190 Y93.060 E8.35781
G1 X68.150 Y92.800 E8.37522
G1 X68.110 Y92.260 E8.41107
G1 X68.110 Y82.730 E9.04194
G1 X68.130 Y82.460 E9.05986
G1 X68.190 Y81.920 E9.09583
G1 X68.300 Y81.390 E9.13166
G1 X68.440 Y80.870 E9.16731
G1 X68.740 Y80.110 E9.22140
G1 X69.120 Y79.400 E9.27471
G1 X69.420 Y78.950 E9.31051
G1 X69.760 Y78.520 E9.34680
G1 X70.225 Y78.035 E9.39131
G1 F1800.000 E8.39131
G92 E0
G1 X97.232 Y85.232 F7800.000
G1 F1800.000 E1.00000
G1 X102.768 Y85.232 F540.000 E1.36651
G1 X102.768 Y91.780 E1.80001
G1 X102.517 Y93.043 E1.88522
G1 X101.927 Y93.927 E1.95559
G1 X101.043 Y94.517 E2.02597
G1 X100.000 Y94.725 E2.09634
G1 X98.957 Y94.517 E2.16671
G1 X98.073 Y93.927 E2.23708
G1 X97.483 Y93.043 E2.30746
G1 X97.232 Y91.780 E2.39266
G1 X97.232 Y85.366 E2.81730
G1 X96.339 Y84.339 F7800.000
G1 X103.661 Y84.339 F540.000 E3.30200
G1 X103.661 Y91.868 E3.80041
G1 X103.358 Y93.391 E3.90320
G1 X102.570 Y94.570 E3.99708
G1 X101.391 Y95.358 E4.09096
G1 X100.000 Y95.635 E4.18485
G1 X98.609 Y95.358 E4.27873
G1 X97.430 Y94.570 E4.37261
G1 X96.642 Y93.391 E4.46649
G1 X96.339 Y91.868 E4.56928
G1 X96.339 Y84.473 E5.05883
G1 X95.446 Y83.446 F7800.000
G1 X104.554 Y83.446 F540.000 E5.66172
G1 X104.554 Y91.956 E6.22505
G1 X104.199 Y93.739 E6.34541
G1 X103.214 Y95.214 E6.46280
G1 X101.739 Y96.199 E6.58020
G1 X100.000 Y96.545 E6.69759
G1 X98.261 Y96.199 E6.81498
G1 X96.786 Y95.214 E6.93237
G1 X95.801 Y93.739 E7.04976
G1 X95.446 Y91.956 E7.17012
G1 X95.446 Y83.580 E7.72459
G1 X96.219 Y83.893 F7800.000
G1 X102.121 Y85.879
G1 X100.726 Y85.879 F1080.000 E7.82668
G1 X102.121 Y87.274 E7.97106
G1 X102.121 Y88.670 E8.07314
G1 X99.330 Y85.879 E8.36188
G1 X97.935 Y85.879 E8.46396
G1 X102.121 Y90.065 E8.89706
G1 X102.121 Y91.460 E8.99913
G1 X97.879 Y87.218 E9.43807
G1 X97.879 Y88.613 E9.54015
G1 X101.932 Y92.666 E9.95953
G1 X101.382 Y93.512 E10.03331
G1 X97.879 Y90.008 E10.39582
G1 X97.879 Y91.403 E10.49789
G1 X100.451 Y93.975 E10.76398
G1 X98.540 Y93.460 E10.90871
G1 F1800.000 E9.90871
G92 E0
G1 X95.873 Y93.699 F7800.000
G1 X84.127 Y93.698
G1 X82.768 Y91.780
G1 F1800.000 E1.00000
G1 X82.517 Y93.043 F540.000 E1.08521
G1 X81.927 Y93.927 E1.15558
G1 X81.043 Y94.517 E1.22596
G1 X80.000 Y94.725 E1.29633
G1 X78.957 Y94.517 E1.36670
G1 X78.073 Y93.927 E1.43708
G1 X77.483 Y93.043 E1.50745
G1 X77.232 Y91.780 E1.59266
G1 X77.232 Y85.232 E2.02616
G1 X82.768 Y85.232 E2.39267
G1 X82.768 Y91.646 E2.81730
G1 X83.661 Y91.868 F7800.000
G1 X83.358 Y93.391 F540.000 E2.92008
G1 X82.570 Y94.570 E3.01397
G1 X81.391 Y95.358 E3.10785
G1 X80.000 Y95.635 E3.20173
G1 X78.609 Y95.358 E3.29561
G1 X77.430 Y94.570 E3.38950
G1 X76.642 Y93.391 E3.48338
G1 X76.339 Y91.868 E3.58616
G1 X76.339 Y84.339 E4.08458
G1 X83.661 Y84.339 E4.56928
G1 X83.661 Y91.734 E5.05883
G1 X84.554 Y91.956 F7800.000
G1 X84.199 Y93.739 F540.000 E5.17919
G1 X83.214 Y95.214 E5.29658
G1 X81.739 Y96.199 E5.41398
G1 X80.000 Y96.545 E5.53137
G1 X78.261 Y96.199 E5.64876
G1 X76.786 Y95.214 E5.76615
G1 X75.801 Y93.739 E5.88355
G1 X75.446 Y91.956 E6.00390
G1 X75.446 Y83.446 E6.56724
G1 X84.554 Y83.446 E7.17013
G1 X84.554 Y91.822 E7.72459
G1 X83.729 Y92.298 F7800.000
G1 X78.540 Y93.460
G1 X80.451 Y93.975 F1080.000 E7.86933
G1 X77.879 Y91.403 E8.13541
G1 X77.879 Y90.008 E8.23749
G1 X81.382 Y93.512 E8.59999
G1 X81.932 Y92.666 E8.67378
G1 X77.879 Y88.613 E9.09316
G1 X77.879 Y87.218 E9.19524
G1 X82.121 Y91.460 E9.63418
G1 X82.121 Y90.065 E9.73625
G1 X77.935 Y85.879 E10.16935
G1 X79.330 Y85.879 E10.27143
G1 X82.121 Y88.670 E10.56017
G1 X82.121 Y87.274 E10.66225
G1 X80.726 Y85.879 E10.80663
G1 X82.121 Y85.879 E10.90873
M106 S255
M104 S225 ; set temperature
M140 S100 ; set bed temperature
G1 F1800.000 E9.90873
G92 E0
G1 Z-0.500 F7800.000
G1 X84.482 Y83.500
G1 X95.518 Y83.500
G1 X96.299 Y84.299
G1 F1800.000 E1.00000
G1 X103.701 Y84.299 F797.565 E1.22818
G1 X103.701 Y91.872 E1.46163
G1 X103.396 Y93.407 E1.50986
G1 X102.599 Y94.599 E1.55407
G1 X101.407 Y95.396 E1.59828
G1 X100.000 Y95.675 E1.64249
G1 X98.593 Y95.396 E1.68669
G1 X97.401 Y94.599 E1.73090
G1 X96.604 Y93.407 E1.77511
G1 X96.299 Y91.872 E1.82334
G1 X96.299 Y84.377 E2.05439
G1 X95.779 Y83.779 F7800.000
G1 X104.221 Y83.779 F797.565 E2.31461
G1 X104.221 Y91.923 E2.56566
G1 X103.885 Y93.609 E2.61865
G1 X102.974 Y94.974 E2.66923
G1 X101.609 Y95.885 E2.71982
G1 X100.000 Y96.205 E2.77040
G1 X98.391 Y95.885 E2.82098
G1 X97.026 Y94.974 E2.87156
G1 X96.115 Y93.609 E2.92214
G1 X95.779 Y91.923 E2.97514
G1 X95.779 Y83.857 E3.22378
G1 X95.260 Y83.260 F7800.000
G1 X104.740 Y83.260 F600.000 E3.51604
G1 X104.740 Y91.974 E3.78468
G1 X104.375 Y93.812 E3.84244
G1 X103.348 Y95.348 E3.89939
G1 X101.812 Y96.375 E3.95635
G1 X100.000 Y96.735 E4.01330
G1 X98.188 Y96.375 E4.07026
G1 X96.652 Y95.348 E4.12721
G1 X95.625 Y93.812 E4.18417
G1 X95.260 Y91.974 E4.24192
G1 X95.260 Y83.338 E4.50817
G1 X95.710 Y83.520 F7800.000
G1 X96.676 Y84.676
G1 X97.441 Y84.676 F1595.130 E4.53273
G1 X96.676 Y85.441 E4.56747
G1 X96.676 Y86.206 E4.59203
G1 X98.206 Y84.676 E4.66150
G1 X98.971 Y84.676 E4.68606
G1 X96.676 Y86.971 E4.79027
G1 X96.676 Y87.736 E4.81483
G1 X99.736 Y84.676 E4.95376
G1 X100.502 Y84.676 E4.97832
G1 X96.676 Y88.502 E5.15199
G1 X96.676 Y89.267 E5.17655
G1 X101.267 Y84.676 E5.38495
G1 X102.032 Y84.676 E5.40951
G1 X96.676 Y90.032 E5.65264
G1 X96.676 Y90.797 E5.67720
G1 X102.797 Y84.676 E5.95507
G1 X103.324 Y84.914 E5.97363
G1 X96.676 Y91.562 E6.27543
G1 X96.757 Y92.246 E6.29752
G1 X103.324 Y85.679 E6.59561
G1 X103.324 Y86.444 E6.62017
G1 X96.884 Y92.884 E6.91249
G1 X97.085 Y93.448 E6.93172
G1 X103.324 Y87.209 E7.21493
G1 X103.324 Y87.974 E7.23949
G1 X97.392 Y93.907 E7.50878
G1 X97.711 Y94.353 E7.52639
G1 X103.324 Y88.739 E7.78120
G1 X103.324 Y89.505 E7.80576
G1 X98.169 Y94.659 E8.03975
G1 X98.628 Y94.966 E8.05745
G1 X103.324 Y90.270 E8.27062
G1 X103.324 Y91.035 E8.29518
G1 X99.222 Y95.137 E8.48138
G1 X99.861 Y95.264 E8.50226
G1 X103.324 Y91.800 E8.65949
G1 X103.143 Y92.747 E8.69042
G1 X100.747 Y95.143 E8.79920
G1 X102.328 Y94.327 E8.85631
G1 F1800.000 E7.85631
G92 E0
G1 X104.127 Y93.697 F7800.000
G1 X95.873 Y93.699
G1 X84.127 Y93.697
G1 X83.701 Y91.872
G1 F1800.000 E1.00000
G1 X83.396 Y93.407 F797.565 E1.04823
G1 X82.599 Y94.599 E1.09244
G1 X81.407 Y95.396 E1.13665
G1 X80.000 Y95.675 E1.18086
G1 X78.593 Y95.396 E1.22507
G1 X77.401 Y94.599 E1.26928
G1 X76.604 Y93.407 E1.31348
G1 X76.299 Y91.872 E1.36171
G1 X76.299 Y84.299 E1.59517
G1 X83.701 Y84.299 E1.82334
G1 X83.701 Y91.794 E2.05439
G1 X84.221 Y91.923 F7800.000
G1 X83.885 Y93.609 F797.565 E2.10739
G1 X82.974 Y94.974 E2.15797
G1 X81.609 Y95.885 E2.20855
G1 X80.000 Y96.205 E2.25913
G1 X78.391 Y95.885 E2.30972
G1 X77.026 Y94.974 E2.36030
G1 X76.115 Y93.609 E2.41088
G1 X75.779 Y91.923 E2.46387
G1 X75.779 Y83.779 E2.71492
G1 X84.221 Y83.779 E2.97514
G1 X84.221 Y91.845 E3.22378
G1 X84.740 Y91.974 F7800.000
G1 X84.375 Y93.812 F600.000 E3.28154
G1 X83.348 Y95.348 E3.33850
G1 X81.812 Y96.375 E3.39545
G1 X80.000 Y96.735 E3.45241
G1 X78.188 Y96.375 E3.50936
G1 X76.652 Y95.348 E3.56632
G1 X75.625 Y93.812 E3.62327
G1 X75.260 Y91.974 E3.68103
G1 X75.260 Y83.260 E3.94967
G1 X84.740 Y83.260 E4.24193
G1 X84.740 Y91.896 E4.50817
G1 X84.260 Y92.173 F7800.000
G1 X82.328 Y94.327
G1 X80.747 Y95.143 F1595.130 E4.56528
G1 X83.143 Y92.747 E4.67406
G1 X83.324 Y91.800 E4.70499
G1 X79.861 Y95.264 E4.86222
G1 X79.222 Y95.137 E4.88310
G1 X83.324 Y91.035 E5.06930
G1 X83.324 Y90.270 E5.09386
G1 X78.628 Y94.966 E5.30703
G1 X78.169 Y94.659 E5.32474
G1 X83.324 Y89.505 E5.55873
G1 X83.324 Y88.739 E5.58328
G1 X77.711 Y94.353 E5.83810
G1 X77.392 Y93.907 E5.85570
G1 X83.324 Y87.974 E6.12500
G1 X83.324 Y87.209 E6.14956
G1 X77.085 Y93.448 E6.43277
G1 X76.884 Y92.884 E6.45199
G1 X83.324 Y86.444 E6.74432
G1 X83.324 Y85.679 E6.76888
G1 X76.757 Y92.246 E7.06696
G1 X76.676 Y91.562 E7.08906
G1 X83.324 Y84.914 E7.39085
G1 X82.797 Y84.676 E7.40942
G1 X76.676 Y90.797 E7.68728
G1 X76.676 Y90.032 E7.71184
G1 X82.032 Y84.676 E7.95498
G1 X81.267 Y84.676 E7.97954
G1 X76.676 Y89.267 E8.18794
G1 X76.676 Y88.502 E8.21250
G1 X80.502 Y84.676 E8.38617
G1 X79.736 Y84.676 E8.41073
G1 X76.676 Y87.736 E8.54966
G1 X76.676 Y86.971 E8.57422
G1 X78.971 Y84.676 E8.67843
G1 X78.206 Y84.676 E8.70299
G1 X76.676 Y86.206 E8.77246
G1 X76.676 Y85.441 E8.79702
G1 X77.441 Y84.676 E8.83176
G1 X76.676 Y84.676 E8.85632
G1 F1800.000 E7.85632
G92 E0
G1 Z-0.100 F7800.000
G1 X75.518 Y83.500
G1 X84.482 Y83.500
G1 X95.518 Y83.500
G1 X96.299 Y84.299
G1 F1800.000 E1.00000
G1 X103.701 Y84.299 F797.998 E1.22818
G1 X103.701 Y91.872 E1.46163
G1 X103.396 Y93.407 E1.50986
G1 X102.599 Y94.599 E1.55407
G1 X101.407 Y95.396 E1.59828
G1 X100.000 Y95.675 E1.64249
G1 X98.593 Y95.396 E1.68670
G1 X97.401 Y94.599 E1.73090
G1 X96.604 Y93.407 E1.77511
G1 X96.299 Y91.872 E1.82334
G1 X96.299 Y84.377 E2.05439
G1 X95.779 Y83.779 F7800.000
G1 X104.221 Y83.779 F797.998 E2.31461
G1 X104.221 Y91.923 E2.56566
G1 X103.885 Y93.609 E2.61865
G1 X102.974 Y94.974 E2.66923
G1 X101.609 Y95.885 E2.71982
G1 X100.000 Y96.205 E2.77040
G1 X98.391 Y95.885 E2.82098
G1 X97.026 Y94.974 E2.87156
G1 X96.115 Y93.609 E2.92214
G1 X95.779 Y91.923 E2.97514
G1 X95.779 Y83.857 E3.22378
G1 X95.260 Y83.260 F7800.000
G1 X104.740 Y83.260 F600.000 E3.51604
G1 X104.740 Y91.974 E3.78468
G1 X104.375 Y93.812 E3.84244
G1 X103.348 Y95.348 E3.89939
G1 X101.812 Y96.375 E3.95635
G1 X100.000 Y96.735 E4.01330
G1 X98.188 Y96.375 E4.07026
G1 X96.652 Y95.348 E4.12721
G1 X95.625 Y93.812 E4.18417
G1 X95.260 Y91.974 E4.24192
G1 X95.260 Y83.338 E4.50817
G1 X95.710 Y83.520 F7800.000
G1 X103.324 Y84.676
G1 X103.324 Y85.441 F1595.996 E4.53273
G1 X102.559 Y84.676 E4.56747
G1 X101.794 Y84.676 E4.59203
G1 X103.324 Y86.206 E4.66150
G1 X103.324 Y86.971 E4.68606
G1 X101.029 Y84.676 E4.79027
G1 X100.264 Y84.676 E4.81483
G1 X103.324 Y87.736 E4.95376
G1 X103.324 Y88.502 E4.97832
G1 X99.498 Y84.676 E5.15199
G1 X98.733 Y84.676 E5.17655
G1 X103.324 Y89.267 E5.38495
G1 X103.324 Y90.032 E5.40951
G1 X97.968 Y84.676 E5.65264
G1 X97.203 Y84.676 E5.67720
G1 X103.324 Y90.797 E5.95507
G1 X103.324 Y91.562 E5.97963
G1 X96.676 Y84.914 E6.28142
G1 X96.676 Y85.679 E6.30598
G1 X103.243 Y92.246 E6.60407
G1 X103.116 Y92.884 E6.62496
G1 X96.676 Y86.444 E6.91728
G1 X96.676 Y87.209 E6.94184
G1 X102.915 Y93.448 E7.22505
G1 X102.608 Y93.907 E7.24275
G1 X96.676 Y87.974 E7.51205
G1 X96.676 Y88.739 E7.53661
G1 X102.289 Y94.353 E7.79142
G1 X101.831 Y94.659 E7.80913
G1 X96.676 Y89.505 E8.04312
G1 X96.676 Y90.270 E8.06768
G1 X101.372 Y94.966 E8.28085
G1 X100.778 Y95.137 E8.30069
G1 X96.676 Y91.035 E8.48689
G1 X96.676 Y91.800 E8.51145
G1 X100.139 Y95.264 E8.66867
G1 X99.253 Y95.143 E8.69737
G1 X96.857 Y92.747 E8.80615
G1 X97.673 Y94.328 E8.86327
G1 F1800.000 E7.86327
G92 E0
G1 X95.873 Y93.699 F7800.000
G1 X84.127 Y93.696
G1 X83.701 Y91.872
G1 F1800.000 E1.00000
G1 X83.396 Y93.407 F797.998 E1.04823
G1 X82.599 Y94.599 E1.09244
G1 X81.407 Y95.396 E1.13665
G1 X80.000 Y95.675 E1.18086
G1 X78.593 Y95.396 E1.22507
G1 X77.401 Y94.599 E1.26928
G1 X76.604 Y93.407 E1.31348
G1 X76.299 Y91.872 E1.36171
G1 X76.299 Y84.299 E1.59517
G1 X83.701 Y84.299 E1.82334
G1 X83.701 Y91.794 E2.05439
G1 X84.221 Y91.923 F7800.000
G1 X83.885 Y93.609 F797.998 E2.10739
G1 X82.974 Y94.974 E2.15797
G1 X81.609 Y95.885 E2.20855
G1 X80.000 Y96.205 E2.25913
G1 X78.391 Y95.885 E2.30972
G1 X77.026 Y94.974 E2.36030
G1 X76.115 Y93.609 E2.41088
G1 X75.779 Y91.923 E2.46387
G1 X75.779 Y83.779 E2.71492
G1 X84.221 Y83.779 E2.97514
G1 X84.221 Y91.845 E3.22378
G1 X84.740 Y91.974 F7800.000
G1 X84.375 Y93.812 F600.000 E3.28154
G1 X83.348 Y95.348 E3.33850
G1 X81.812 Y96.375 E3.39545
G1 X80.000 Y96.735 E3.45241
G1 X78.188 Y96.375 E3.50936
G1 X76.652 Y95.348 E3.56632
G1 X75.625 Y93.812 E3.62327
G1 X75.260 Y91.974 E3.68103
G1 X75.260 Y83.260 E3.94967
G1 X84.740 Y83.260 E4.24193
G1 X84.740 Y91.896 E4.50817
G1 X84.260 Y92.173 F7800.000
G1 X77.673 Y94.328
G1 X76.857 Y92.747 F1595.996 E4.56528
G1 X79.253 Y95.143 E4.67406
G1 X80.139 Y95.264 E4.70276
G1 X76.676 Y91.800 E4.85998
G1 X76.676 Y91.035 E4.88454
G1 X80.778 Y95.137 E5.07074
G1 X81.372 Y94.966 E5.09059
G1 X76.676 Y90.270 E5.30376
G1 X76.676 Y89.505 E5.32831
G1 X81.831 Y94.659 E5.56231
G1 X82.289 Y94.353 E5.58001
G1 X76.676 Y88.739 E5.83482
G1 X76.676 Y87.974 E5.85938
G1 X82.608 Y93.907 E6.12868
G1 X82.915 Y93.448 E6.14639
G1 X76.676 Y87.209 E6.42960
G1 X76.676 Y86.444 E6.45415
G1 X83.116 Y92.884 E6.74648
G1 X83.243 Y92.246 E6.76737
G1 X76.676 Y85.679 E7.06545
G1 X76.676 Y84.914 E7.09001
G1 X83.324 Y91.562 E7.39181
G1 X83.324 Y90.797 E7.41637
G1 X77.203 Y84.676 E7.69423
G1 X77.968 Y84.676 E7.71879
G1 X83.324 Y90.032 E7.96193
G1 X83.324 Y89.267 E7.98649
G1 X78.733 Y84.676 E8.19489
G1 X79.498 Y84.676 E8.21945
G1 X83.324 Y88.502 E8.39312
G1 X83.324 Y87.736 E8.41768
G1 X80.264 Y84.676 E8.55661
G1 X81.029 Y84.676 E8.58117
G1 X83.324 Y86.971 E8.68538
G1 X83.324 Y86.206 E8.70994
G1 X81.794 Y84.676 E8.77941
G1 X82.559 Y84.676 E8.80397
G1 X83.324 Y85.441 E8.83871
G1 X83.324 Y84.676 E8.86327
G1 F1800.000 E7.86327
G92 E0
G1 Z0.300 F7800.000
G1 X84.482 Y83.500
G1 X95.518 Y83.500
G1 X96.299 Y84.299
G1 F1800.000 E1.00000
G1 X103.701 Y84.299 F797.564 E1.22818
G1 X103.701 Y91.872 E1.46163
G1 X103.396 Y93.407 E1.50986
G1 X102.599 Y94.599 E1.55407
G1 X101.407 Y95.396 E1.59828
G1 X100.000 Y95.675 E1.64249
G1 X98.593 Y95.396 E1.68669
G1 X97.401 Y94.599 E1.73090
G1 X96.604 Y93.407 E1.77511
G1 X96.299 Y91.872 E1.82334
