; generated by Slic3r 0.9.9 on 2013-07-06 at 10:17:39

; layer_height = 0.4
; perimeters = 3
; top_solid_layers = 3
; bottom_solid_layers = 3
; fill_density = 0.4
; perimeter_speed = 30
; infill_speed = 60
; travel_speed = 130
; nozzle_diameter = 0.5
; filament_diameter = 2.93
; extrusion_multiplier = 1
; perimeters extrusion width = 0.53mm
; infill extrusion width = 0.53mm
; solid infill extrusion width = 0.53mm
; top infill extrusion width = 0.53mm
; first layer extrusion width = 1.00mm

G21 ; set units to millimeters
M107
M190 S120 ; wait for bed temperature to be reached
M104 S240 ; set temperature
G28 ; home all axes
G1 Z5 F5000 ; lift nozzle
M109 S240 ; wait for temperature to be reached
G90 ; use absolute coordinates
G92 E0
M82 ; use absolute distances for extrusion
G1 F1800.000 E-1.00000
G92 E0
G1 Z-0.900 F7800.000
G1 X70.020 Y61.987
G1 F1800.000 E1.00000
G1 X70.400 Y61.587 F540.000 E1.03652
G1 X71.030 Y61.057 E1.09102
G1 X71.720 Y60.607 E1.14556
G1 X72.210 Y60.347 E1.18228
G1 X72.720 Y60.137 E1.21879
G1 X73.510 Y59.887 E1.27364
G1 X73.780 Y59.827 E1.29195
G1 X74.320 Y59.747 E1.32809
G1 X74.870 Y59.697 E1.36465
G1 X105.420 Y59.697 E3.38702
G1 X106.230 Y59.777 E3.44090
G1 X106.760 Y59.887 E3.47674
G1 X107.280 Y60.027 E3.51239
G1 X108.040 Y60.327 E3.56647
G1 X108.750 Y60.707 E3.61978
G1 X109.200 Y61.007 E3.65559
G1 X109.830 Y61.527 E3.70966
G1 X110.390 Y62.107 E3.76303
G1 X110.730 Y62.537 E3.79932
G1 X111.030 Y62.987 E3.83513
G1 X111.410 Y63.697 E3.88844
G1 X111.710 Y64.457 E3.94252
G1 X111.850 Y64.977 E3.97817
G1 X111.960 Y65.507 E4.01401
G1 X112.040 Y66.317 E4.06789
G1 X112.040 Y80.157 E4.98408
G1 X111.740 Y108.477 E6.85893
G1 X111.720 Y109.007 E6.89404
G1 X111.600 Y109.777 E6.94563
G1 X111.150 Y111.987 E7.09493
G1 X111.070 Y112.277 E7.11485
G1 X110.770 Y113.107 E7.17327
G1 X110.500 Y113.647 E7.21324
G1 X110.200 Y114.147 E7.25184
G1 X109.120 Y115.767 E7.38073
G1 X108.760 Y116.257 E7.42098
G1 X108.360 Y116.717 E7.46133
G1 X107.920 Y117.137 E7.50160
G1 X107.440 Y117.517 E7.54213
G1 X105.560 Y118.777 E7.69195
G1 X105.040 Y119.087 E7.73202
G1 X104.500 Y119.357 E7.77199
G1 X103.640 Y119.657 E7.83229
G1 X103.060 Y119.807 E7.87194
G1 X101.160 Y120.177 E8.00009
G1 X100.630 Y120.257 E8.03557
G1 X100.110 Y120.297 E8.07009
G1 X79.570 Y120.297 E9.42982
G1 X79.030 Y120.257 E9.46566
G1 X76.580 Y119.787 E9.63081
G1 X75.990 Y119.647 E9.67095
G1 X75.700 Y119.557 E9.69105
G1 X75.140 Y119.337 E9.73088
G1 X74.600 Y119.067 E9.77084
G1 X74.080 Y118.747 E9.81126
G1 X72.220 Y117.497 E9.95962
G1 X71.760 Y117.127 E9.99870
G1 X71.320 Y116.707 E10.03896
G1 X70.930 Y116.257 E10.07838
G1 X70.570 Y115.767 E10.11863
G1 X69.330 Y113.897 E10.26717
G1 X69.180 Y113.637 E10.28704
G1 X68.800 Y112.817 E10.34687
G1 X68.530 Y111.957 E10.40654
G1 X68.040 Y109.477 E10.57388
G1 X68.000 Y109.217 E10.59130
G1 X67.960 Y108.677 E10.62714
G1 X67.960 Y94.847 E11.54267
G1 X68.260 Y66.517 E13.41819
G1 X68.290 Y65.967 E13.45465
G1 X68.360 Y65.417 E13.49136
G1 X68.470 Y64.877 E13.52784
G1 X68.630 Y64.347 E13.56449
G1 X68.830 Y63.837 E13.60075
G1 X69.070 Y63.337 E13.63747
G1 X69.500 Y62.637 E13.69185
G1 X69.933 Y62.088 E13.73810
G1 F1800.000 E12.73810
G92 E0
G1 X97.082 Y97.148 F7800.000
G1 F1800.000 E1.00000
G1 X102.618 Y97.148 F540.000 E1.36651
G1 X102.618 Y108.197 E2.09790
G1 X102.367 Y109.459 E2.18311
G1 X101.777 Y110.343 E2.25348
G1 X100.893 Y110.934 E2.32386
G1 X99.850 Y111.141 E2.39423
G1 X98.807 Y110.934 E2.46460
G1 X97.923 Y110.343 E2.53498
G1 X97.333 Y109.459 E2.60535
G1 X97.082 Y108.197 E2.69056
G1 X97.082 Y97.282 E3.41309
G1 X96.189 Y96.256 F7800.000
G1 X103.511 Y96.256 F540.000 E3.89779
G1 X103.511 Y108.285 E4.69410
G1 X103.208 Y109.808 E4.79688
G1 X102.420 Y110.987 E4.89076
G1 X101.241 Y111.775 E4.98465
G1 X99.850 Y112.051 E5.07853
G1 X98.459 Y111.775 E5.17241
G1 X97.280 Y110.987 E5.26629
G1 X96.492 Y109.808 E5.36018
G1 X96.189 Y108.285 E5.46296
G1 X96.189 Y96.390 E6.25041
G1 X95.296 Y95.363 F7800.000
G1 X104.404 Y95.363 F378.000 E6.85330
G1 X104.404 Y108.373 E7.71452
G1 X104.049 Y110.156 E7.83488
G1 X103.064 Y111.630 E7.95227
G1 X101.589 Y112.616 E8.06967
G1 X99.850 Y112.962 E8.18706
G1 X98.111 Y112.616 E8.30445
G1 X96.636 Y111.630 E8.42184
G1 X95.651 Y110.156 E8.53924
G1 X95.296 Y108.373 E8.65960
G1 X95.296 Y95.497 E9.51196
G1 X96.069 Y95.809 F7800.000
G1 X101.971 Y97.796
G1 X100.666 Y97.795 F1080.000 E9.60129
G1 X101.971 Y99.101 E9.72763
G1 X101.971 Y100.406 E9.81695
G1 X99.361 Y97.795 E10.06961
G1 X98.055 Y97.795 E10.15894
G1 X101.971 Y101.711 E10.53792
G1 X101.971 Y103.016 E10.62724
G1 X97.729 Y98.774 E11.03784
G1 X97.729 Y100.079 E11.12716
G1 X101.971 Y104.322 E11.53775
G1 X101.971 Y105.627 E11.62708
G1 X97.729 Y101.384 E12.03767
G1 X97.729 Y102.690 E12.12699
G1 X101.971 Y106.932 E12.53759
G1 X101.954 Y108.220 E12.62574
G1 X97.729 Y103.995 E13.03467
G1 X97.729 Y105.300 E13.12399
G1 X101.709 Y109.280 E13.50919
G1 X101.124 Y110.001 E13.57269
G1 X97.729 Y106.605 E13.90134
G1 X97.729 Y107.910 E13.99066
G1 X100.225 Y110.407 E14.23230
G1 X98.390 Y109.877 E14.36301
G1 F1800.000 E13.36301
G92 E0
G1 X95.726 Y110.118 F7800.000
G1 X84.350 Y108.317
G1 X82.618 Y108.197
G1 F1800.000 E1.00000
G1 X82.367 Y109.459 F540.000 E1.08521
G1 X81.777 Y110.343 E1.15558
G1 X80.893 Y110.934 E1.22596
G1 X79.850 Y111.141 E1.29633
G1 X78.807 Y110.934 E1.36670
G1 X77.923 Y110.343 E1.43708
G1 X77.333 Y109.459 E1.50745
G1 X77.082 Y108.197 E1.59266
G1 X77.082 Y97.148 E2.32405
G1 X82.618 Y97.148 E2.69056
G1 X82.618 Y108.063 E3.41309
G1 X83.511 Y108.285 F7800.000
G1 X83.208 Y109.808 F540.000 E3.51587
G1 X82.420 Y110.987 E3.60975
G1 X81.241 Y111.775 E3.70364
G1 X79.850 Y112.051 E3.79752
G1 X78.459 Y111.775 E3.89140
G1 X77.280 Y110.987 E3.98529
G1 X76.492 Y109.808 E4.07917
G1 X76.189 Y108.285 E4.18195
G1 X76.189 Y96.256 E4.97826
G1 X83.511 Y96.256 E5.46296
G1 X83.511 Y108.151 E6.25041
G1 X84.404 Y108.373 F7800.000
G1 X84.049 Y110.156 F378.000 E6.37077
G1 X83.064 Y111.630 E6.48816
G1 X81.589 Y112.616 E6.60555
G1 X79.850 Y112.962 E6.72295
G1 X78.111 Y112.616 E6.84034
G1 X76.636 Y111.630 E6.95773
G1 X75.651 Y110.156 E7.07512
G1 X75.296 Y108.373 E7.19548
G1 X75.296 Y95.363 E8.05671
G1 X84.404 Y95.363 E8.65960
G1 X84.404 Y108.239 E9.51196
G1 X83.579 Y108.714 F7800.000
G1 X78.390 Y109.877
G1 X80.225 Y110.407 F1080.000 E9.64267
G1 X77.729 Y107.910 E9.88430
G1 X77.729 Y106.605 E9.97363
G1 X81.124 Y110.001 E10.30227
G1 X81.709 Y109.280 E10.36578
G1 X77.729 Y105.300 E10.75098
G1 X77.729 Y103.995 E10.84030
G1 X81.954 Y108.220 E11.24923
G1 X81.971 Y106.932 E11.33738
G1 X77.729 Y102.690 E11.74798
G1 X77.729 Y101.384 E11.83730
G1 X81.971 Y105.627 E12.24789
G1 X81.971 Y104.322 E12.33722
G1 X77.729 Y100.079 E12.74781
G1 X77.729 Y98.774 E12.83714
G1 X81.971 Y103.016 E13.24773
G1 X81.971 Y101.711 E13.33705
G1 X78.055 Y97.795 E13.71604
G1 X79.361 Y97.795 E13.80536
G1 X81.971 Y100.406 E14.05802
G1 X81.971 Y99.101 E14.14734
G1 X80.666 Y97.795 E14.27368
G1 X81.971 Y97.796 E14.36302
G1 F1800.000 E13.36302
G92 E0
G1 X73.607 Y91.917 F7800.000
G1 X100.593 Y88.083
G1 X98.223 Y82.010
G1 F1800.000 E1.00000
G1 X97.633 Y81.126 F540.000 E1.07038
G1 X97.382 Y79.864 E1.15558
G1 X97.382 Y68.815 E1.88698
G1 X102.918 Y68.815 E2.25348
G1 X102.918 Y79.864 E2.98488
G1 X102.667 Y81.126 E3.07008
G1 X102.077 Y82.010 E3.14046
G1 X101.193 Y82.600 E3.21084
G1 X100.150 Y82.808 E3.28121
G1 X99.107 Y82.600 E3.35158
G1 X98.335 Y82.084 E3.41309
G1 X97.580 Y82.653 F7800.000
G1 X96.792 Y81.474 F540.000 E3.50697
G1 X96.489 Y79.951 E3.60975
G1 X96.489 Y67.922 E4.40606
G1 X103.811 Y67.922 E4.89076
G1 X103.811 Y79.951 E5.68707
G1 X103.508 Y81.474 E5.78986
G1 X102.720 Y82.653 E5.88374
G1 X101.541 Y83.441 E5.97762
G1 X100.150 Y83.718 E6.07151
G1 X98.759 Y83.441 E6.16539
G1 X97.691 Y82.728 E6.25041
G1 X96.936 Y83.297 F7800.000
G1 X95.951 Y81.823 F378.000 E6.36780
G1 X95.596 Y80.039 E6.48816
G1 X95.596 Y67.030 E7.34938
G1 X104.704 Y67.030 E7.95228
G1 X104.704 Y80.039 E8.81350
G1 X104.349 Y81.823 E8.93386
G1 X103.364 Y83.297 E9.05125
G1 X101.889 Y84.282 E9.16865
G1 X100.150 Y84.628 E9.28604
G1 X98.411 Y84.282 E9.40343
G1 X97.048 Y83.371 E9.51196
G1 X97.223 Y82.452 F7800.000
G1 X98.690 Y81.544
G1 X100.525 Y82.073 F1080.000 E9.64267
G1 X98.029 Y79.577 E9.88430
G1 X98.029 Y78.272 E9.97362
G1 X101.424 Y81.667 E10.30227
G1 X102.009 Y80.946 E10.36577
G1 X98.029 Y76.967 E10.75098
G1 X98.029 Y75.661 E10.84030
G1 X102.254 Y79.886 E11.24923
G1 X102.271 Y78.599 E11.33738
G1 X98.029 Y74.356 E11.74797
G1 X98.029 Y73.051 E11.83729
G1 X102.271 Y77.293 E12.24789
G1 X102.271 Y75.988 E12.33721
G1 X98.029 Y71.746 E12.74781
G1 X98.029 Y70.441 E12.83713
G1 X102.271 Y74.683 E13.24772
G1 X102.271 Y73.378 E13.33705
G1 X98.355 Y69.462 E13.71603
G1 X99.661 Y69.462 E13.80535
G1 X102.271 Y72.073 E14.05801
G1 X102.271 Y70.768 E14.14733
G1 X100.966 Y69.462 E14.27367
G1 X102.271 Y69.462 E14.36301
G1 F1800.000 E13.36301
G92 E0
G1 X104.650 Y67.083 F7800.000
G1 X95.662 Y67.083
G1 X84.650 Y67.083
G1 X82.918 Y68.815
G1 F1800.000 E1.00000
G1 X82.918 Y79.864 F540.000 E1.73139
G1 X82.667 Y81.126 E1.81660
G1 X82.077 Y82.010 E1.88697
G1 X81.193 Y82.600 E1.95735
G1 X80.150 Y82.808 E2.02772
G1 X79.107 Y82.600 E2.09809
G1 X78.223 Y82.010 E2.16847
G1 X77.633 Y81.126 E2.23884
G1 X77.382 Y79.864 E2.32405
G1 X77.382 Y68.815 E3.05544
G1 X82.784 Y68.815 E3.41309
G1 X83.811 Y67.922 F7800.000
G1 X83.811 Y79.951 F540.000 E4.20940
G1 X83.508 Y81.474 E4.31218
G1 X82.720 Y82.653 E4.40606
G1 X81.541 Y83.441 E4.49995
G1 X80.150 Y83.718 E4.59383
G1 X78.759 Y83.441 E4.68771
G1 X77.580 Y82.653 E4.78160
G1 X76.792 Y81.474 E4.87548
G1 X76.489 Y79.951 E4.97826
G1 X76.489 Y67.922 E5.77457
G1 X83.677 Y67.922 E6.25041
G1 X84.704 Y67.030 F7800.000
G1 X84.704 Y80.039 F378.000 E7.11163
G1 X84.349 Y81.823 E7.23199
G1 X83.364 Y83.297 E7.34938
G1 X81.889 Y84.282 E7.46678
G1 X80.150 Y84.628 E7.58417
G1 X78.411 Y84.282 E7.70156
G1 X76.936 Y83.297 E7.81896
G1 X75.951 Y81.823 E7.93635
G1 X75.596 Y80.039 E8.05671
G1 X75.596 Y67.030 E8.91793
G1 X84.570 Y67.030 E9.51196
G1 X84.257 Y67.803 F7800.000
G1 X82.271 Y69.462
G1 X80.966 Y69.462 F1080.000 E9.60130
G1 X82.271 Y70.768 E9.72764
G1 X82.271 Y72.073 E9.81696
G1 X79.661 Y69.462 E10.06962
G1 X78.355 Y69.462 E10.15894
G1 X82.271 Y73.378 E10.53793
G1 X82.271 Y74.683 E10.62725
G1 X78.029 Y70.441 E11.03784
G1 X78.029 Y71.746 E11.12717
G1 X82.271 Y75.988 E11.53776
G1 X82.271 Y77.293 E11.62708
G1 X78.029 Y73.051 E12.03768
G1 X78.029 Y74.356 E12.12700
G1 X82.271 Y78.599 E12.53760
G1 X82.254 Y79.886 E12.62575
G1 X78.029 Y75.661 E13.03468
G1 X78.029 Y76.967 E13.12400
G1 X82.009 Y80.946 E13.50920
G1 X81.424 Y81.667 E13.57271
G1 X78.029 Y78.272 E13.90135
G1 X78.029 Y79.577 E13.99068
G1 X80.525 Y82.073 E14.23231
G1 X78.690 Y81.544 E14.36302
M106 S255
M104 S225 ; set temperature
M140 S100 ; set bed temperature
G1 F1800.000 E13.36302
G92 E0
G1 Z-0.500 F7800.000
G1 X74.654 Y86.015
G1 X79.707 Y88.083
G1 X106.093 Y91.917
G1 X96.149 Y96.216
G1 F1800.000 E1.00000
G1 X103.551 Y96.216 F1042.254 E1.22818
G1 X103.551 Y108.289 E1.60035
G1 X103.246 Y109.823 E1.64858
G1 X102.449 Y111.016 E1.69279
G1 X101.257 Y111.812 E1.73700
G1 X99.850 Y112.092 E1.78121
G1 X98.443 Y111.812 E1.82542
G1 X97.251 Y111.016 E1.86963
G1 X96.454 Y109.823 E1.91384
G1 X96.149 Y108.289 E1.96207
G1 X96.149 Y96.294 E2.33184
G1 X95.629 Y95.696 F7800.000
G1 X104.071 Y95.696 F1042.254 E2.59205
G1 X104.071 Y108.340 E2.98182
G1 X103.735 Y110.026 E3.03482
G1 X102.824 Y111.390 E3.08540
G1 X101.459 Y112.302 E3.13598
G1 X99.850 Y112.622 E3.18656
G1 X98.241 Y112.302 E3.23714
G1 X96.876 Y111.390 E3.28773
G1 X95.965 Y110.026 E3.33831
G1 X95.629 Y108.340 E3.39130
G1 X95.629 Y95.774 E3.77867
G1 X95.110 Y95.176 F7800.000
G1 X104.590 Y95.176 F729.578 E4.07092
G1 X104.590 Y108.391 E4.47829
G1 X104.225 Y110.229 E4.53605
G1 X103.198 Y111.765 E4.59300
G1 X101.662 Y112.791 E4.64996
G1 X99.850 Y113.152 E4.70691
G1 X98.038 Y112.791 E4.76387
G1 X96.502 Y111.765 E4.82082
G1 X95.475 Y110.229 E4.87778
G1 X95.110 Y108.391 E4.93553
G1 X95.110 Y95.254 E5.34050
G1 X95.560 Y95.436 F7800.000
G1 X96.526 Y96.593
G1 X97.288 Y96.592 F2084.508 E5.36484
G1 X96.526 Y97.354 E5.39926
G1 X96.526 Y98.116 E5.42360
G1 X98.049 Y96.592 E5.49244
G1 X98.811 Y96.592 E5.51677
G1 X96.526 Y98.877 E5.62003
G1 X96.526 Y99.639 E5.64436
G1 X99.572 Y96.592 E5.78203
G1 X100.334 Y96.592 E5.80637
G1 X96.526 Y100.401 E5.97845
G1 X96.526 Y101.162 E6.00279
G1 X101.096 Y96.592 E6.20929
G1 X101.857 Y96.592 E6.23362
G1 X96.526 Y101.924 E6.47454
G1 X96.526 Y102.686 E6.49887
G1 X102.619 Y96.592 E6.77420
G1 X103.174 Y96.799 E6.79313
G1 X96.526 Y103.447 E7.09354
G1 X96.526 Y104.209 E7.11788
G1 X103.174 Y97.560 E7.41830
G1 X103.174 Y98.322 E7.44263
G1 X96.526 Y104.971 E7.74305
G1 X96.526 Y105.732 E7.76738
G1 X103.174 Y99.084 E8.06780
G1 X103.174 Y99.845 E8.09214
G1 X96.526 Y106.494 E8.39255
G1 X96.526 Y107.256 E8.41689
G1 X103.174 Y100.607 E8.71730
G1 X103.174 Y101.369 E8.74164
G1 X96.526 Y108.017 E9.04206
G1 X96.613 Y108.692 E9.06378
G1 X103.174 Y102.130 E9.36024
G1 X103.174 Y102.892 E9.38458
G1 X96.740 Y109.327 E9.67533
G1 X96.946 Y109.882 E9.69425
G1 X103.174 Y103.654 E9.97566
G1 X103.174 Y104.415 E9.99999
G1 X97.251 Y110.338 E10.26762
G1 X97.573 Y110.778 E10.28503
G1 X103.174 Y105.177 E10.53810
G1 X103.174 Y105.939 E10.56244
G1 X98.030 Y111.083 E10.79489
G1 X98.487 Y111.388 E10.81243
G1 X103.174 Y106.700 E11.02425
G1 X103.174 Y107.462 E11.04858
G1 X99.081 Y111.555 E11.23353
G1 X99.716 Y111.682 E11.25423
G1 X103.174 Y108.224 E11.41047
G1 X102.992 Y109.168 E11.44119
G1 X100.601 Y111.559 E11.54923
G1 X102.178 Y110.744 E11.60595
G1 F1800.000 E10.60595
G92 E0
G1 X102.983 Y111.618 F7800.000
G1 X95.726 Y110.118
G1 X84.350 Y108.317
G1 X83.551 Y108.289
G1 F1800.000 E1.00000
G1 X83.246 Y109.823 F1042.254 E1.04823
G1 X82.449 Y111.016 E1.09244
G1 X81.257 Y111.812 E1.13665
G1 X79.850 Y112.092 E1.18086
G1 X78.443 Y111.812 E1.22507
G1 X77.251 Y111.016 E1.26928
G1 X76.454 Y109.823 E1.31348
G1 X76.149 Y108.289 E1.36171
G1 X76.149 Y96.216 E1.73389
G1 X83.551 Y96.216 E1.96207
G1 X83.551 Y108.211 E2.33184
G1 X84.071 Y108.340 F7800.000
G1 X83.735 Y110.026 F1042.254 E2.38483
G1 X82.824 Y111.390 E2.43541
G1 X81.459 Y112.302 E2.48600
G1 X79.850 Y112.622 E2.53658
G1 X78.241 Y112.302 E2.58716
G1 X76.876 Y111.390 E2.63774
G1 X75.965 Y110.026 E2.68832
G1 X75.629 Y108.340 E2.74132
G1 X75.629 Y95.696 E3.13109
G1 X84.071 Y95.696 E3.39130
G1 X84.071 Y108.262 E3.77867
G1 X84.590 Y108.391 F7800.000
G1 X84.225 Y110.229 F729.578 E3.83643
G1 X83.198 Y111.765 E3.89339
G1 X81.662 Y112.791 E3.95034
G1 X79.850 Y113.152 E4.00729
G1 X78.038 Y112.791 E4.06425
G1 X76.502 Y111.765 E4.12120
G1 X75.475 Y110.229 E4.17816
G1 X75.110 Y108.391 E4.23592
G1 X75.110 Y95.176 E4.64328
G1 X84.590 Y95.176 E4.93554
G1 X84.590 Y108.313 E5.34050
G1 X84.110 Y108.590 F7800.000
G1 X82.178 Y110.744
G1 X80.601 Y111.559 F2084.508 E5.39722
G1 X82.992 Y109.168 E5.50526
G1 X83.174 Y108.224 E5.53598
G1 X79.716 Y111.682 E5.69222
G1 X79.081 Y111.555 E5.71291
G1 X83.174 Y107.462 E5.89786
G1 X83.174 Y106.700 E5.92220
G1 X78.487 Y111.388 E6.13402
G1 X78.030 Y111.083 E6.15156
G1 X83.174 Y105.939 E6.38401
G1 X83.174 Y105.177 E6.40834
G1 X77.573 Y110.778 E6.66142
G1 X77.251 Y110.338 E6.67883
G1 X83.174 Y104.415 E6.94646
G1 X83.174 Y103.654 E6.97079
G1 X76.946 Y109.882 E7.25220
G1 X76.740 Y109.327 E7.27112
G1 X83.174 Y102.892 E7.56187
G1 X83.174 Y102.130 E7.58621
G1 X76.613 Y108.692 E7.88267
G1 X76.526 Y108.017 E7.90439
G1 X83.174 Y101.369 E8.20481
G1 X83.174 Y100.607 E8.22915
G1 X76.526 Y107.256 E8.52956
G1 X76.526 Y106.494 E8.55390
G1 X83.174 Y99.845 E8.85431
G1 X83.174 Y99.084 E8.87865
G1 X76.526 Y105.732 E9.17907
G1 X76.526 Y104.971 E9.20340
G1 X83.174 Y98.322 E9.50382
G1 X83.174 Y97.561 E9.52816
G1 X76.526 Y104.209 E9.82857
G1 X76.526 Y103.447 E9.85291
G1 X83.174 Y96.799 E10.15332
G1 X82.619 Y96.592 E10.17225
G1 X76.526 Y102.686 E10.44758
G1 X76.526 Y101.924 E10.47192
G1 X81.857 Y96.592 E10.71283
G1 X81.096 Y96.592 E10.73717
G1 X76.526 Y101.162 E10.94367
G1 X76.526 Y100.401 E10.96800
G1 X80.334 Y96.592 E11.14009
G1 X79.572 Y96.592 E11.16442
