; generated by Slic3r 0.9.9 on 2013-07-03 at 23:00:05

; layer_height = 0.4
; perimeters = 3
; top_solid_layers = 3
; bottom_solid_layers = 3
; fill_density = 0.4
; perimeter_speed = 30
; infill_speed = 60
; travel_speed = 130
; nozzle_diameter = 0.5
; filament_diameter = 2.93
; extrusion_multiplier = 1
; perimeters extrusion width = 0.53mm
; infill extrusion width = 0.53mm
; solid infill extrusion width = 0.53mm
; top infill extrusion width = 0.53mm
; first layer extrusion width = 1.00mm

G21 ; set units to millimeters
M107
M190 S120 ; wait for bed temperature to be reached
M104 S240 ; set temperature
G28 ; home all axes
G1 Z5 F5000 ; lift nozzle
M109 S240 ; wait for temperature to be reached
G90 ; use absolute coordinates
G92 E0
M82 ; use absolute distances for extrusion
G1 F1800.000 E-1.00000
G92 E0
G1 Z-0.900 F7800.000
G1 X72.820 Y77.940
G1 F1800.000 E1.00000
G1 X73.450 Y77.420 F540.000 E1.05408
G1 X73.900 Y77.120 E1.08988
G1 X74.370 Y76.860 E1.12544
G1 X74.860 Y76.630 E1.16127
G1 X75.370 Y76.440 E1.19730
G1 X76.160 Y76.240 E1.25124
G1 X76.420 Y76.190 E1.26877
G1 X77.230 Y76.110 E1.32265
G1 X102.770 Y76.110 E3.01337
G1 X103.580 Y76.190 E3.06725
G1 X104.110 Y76.300 E3.10308
G1 X104.630 Y76.440 E3.13873
G1 X105.390 Y76.740 E3.19282
G1 X105.870 Y76.990 E3.22865
G1 X106.100 Y77.120 E3.24614
G1 X106.550 Y77.420 E3.28194
G1 X106.980 Y77.760 E3.31823
G1 X107.560 Y78.320 E3.37160
G1 X108.080 Y78.950 E3.42568
G1 X108.380 Y79.400 E3.46148
G1 X108.510 Y79.630 E3.47897
G1 X108.870 Y80.360 E3.53285
G1 X109.060 Y80.870 E3.56888
G1 X109.200 Y81.390 E3.60453
G1 X109.310 Y81.920 E3.64036
G1 X109.390 Y82.730 E3.69424
G1 X109.390 Y92.270 E4.32578
G1 X109.370 Y92.540 E4.34370
G1 X109.250 Y93.360 E4.39856
G1 X108.800 Y95.570 E4.54787
G1 X108.530 Y96.420 E4.60691
G1 X108.420 Y96.690 E4.62621
G1 X108.150 Y97.230 E4.66617
G1 X107.850 Y97.730 E4.70477
G1 X106.770 Y99.350 E4.83366
G1 X106.410 Y99.840 E4.87391
G1 X106.010 Y100.300 E4.91427
G1 X105.570 Y100.720 E4.95453
G1 X104.850 Y101.270 E5.01451
G1 X103.210 Y102.360 E5.14487
G1 X102.690 Y102.670 E5.18495
G1 X102.150 Y102.940 E5.22491
G1 X101.580 Y103.150 E5.26513
G1 X101.000 Y103.320 E5.30514
G1 X98.810 Y103.760 E5.45301
G1 X98.280 Y103.840 E5.48849
G1 X97.760 Y103.880 E5.52302
G1 X82.220 Y103.880 E6.55175
G1 X81.680 Y103.840 E6.58759
G1 X81.420 Y103.800 E6.60500
G1 X78.940 Y103.310 E6.77235
G1 X78.350 Y103.140 E6.81300
G1 X77.790 Y102.920 E6.85283
G1 X77.250 Y102.650 E6.89279
G1 X76.730 Y102.330 E6.93321
G1 X74.870 Y101.080 E7.08156
G1 X74.640 Y100.900 E7.10090
G1 X74.410 Y100.710 E7.12065
G1 X73.970 Y100.290 E7.16092
G1 X73.580 Y99.840 E7.20034
G1 X73.220 Y99.350 E7.24059
G1 X71.980 Y97.480 E7.38912
G1 X71.830 Y97.220 E7.40899
G1 X71.450 Y96.400 E7.46882
G1 X71.180 Y95.540 E7.52849
G1 X70.690 Y93.060 E7.69584
G1 X70.650 Y92.800 E7.71325
G1 X70.610 Y92.260 E7.74910
G1 X70.610 Y82.730 E8.37997
G1 X70.690 Y81.920 E8.43385
G1 X70.800 Y81.390 E8.46969
G1 X70.940 Y80.870 E8.50534
G1 X71.130 Y80.360 E8.54136
G1 X71.360 Y79.870 E8.57720
G1 X71.620 Y79.400 E8.61275
G1 X71.920 Y78.950 E8.64856
G1 X72.260 Y78.520 E8.68484
G1 X72.725 Y78.035 E8.72935
G1 F1800.000 E7.72935
G92 E0
G1 X94.732 Y85.232 F7800.000
G1 F1800.000 E1.00000
G1 X100.268 Y85.232 F540.000 E1.36651
G1 X100.268 Y91.780 E1.80001
G1 X100.017 Y93.043 E1.88522
G1 X99.427 Y93.927 E1.95559
G1 X98.543 Y94.517 E2.02597
G1 X97.500 Y94.725 E2.09634
G1 X96.457 Y94.517 E2.16671
G1 X95.573 Y93.927 E2.23708
G1 X94.983 Y93.043 E2.30746
G1 X94.732 Y91.780 E2.39266
G1 X94.732 Y85.366 E2.81730
G1 X93.839 Y84.339 F7800.000
G1 X101.161 Y84.339 F540.000 E3.30200
G1 X101.161 Y91.868 E3.80041
G1 X100.858 Y93.391 E3.90320
G1 X100.070 Y94.570 E3.99708
G1 X98.891 Y95.358 E4.09096
G1 X97.500 Y95.635 E4.18485
G1 X96.109 Y95.358 E4.27873
G1 X94.930 Y94.570 E4.37261
G1 X94.142 Y93.391 E4.46649
G1 X93.839 Y91.868 E4.56928
G1 X93.839 Y84.473 E5.05883
G1 X92.946 Y83.446 F7800.000
G1 X102.054 Y83.446 F540.000 E5.66172
G1 X102.054 Y91.956 E6.22505
G1 X101.699 Y93.739 E6.34541
G1 X100.714 Y95.214 E6.46280
G1 X99.239 Y96.199 E6.58020
G1 X97.500 Y96.545 E6.69759
G1 X95.761 Y96.199 E6.81498
G1 X94.286 Y95.214 E6.93237
G1 X93.301 Y93.739 E7.04976
G1 X92.946 Y91.956 E7.17012
G1 X92.946 Y83.580 E7.72459
G1 X93.719 Y83.893 F7800.000
G1 X99.621 Y85.879
G1 X98.226 Y85.879 F1080.000 E7.82668
G1 X99.621 Y87.274 E7.97106
G1 X99.621 Y88.670 E8.07314
G1 X96.830 Y85.879 E8.36188
G1 X95.435 Y85.879 E8.46396
G1 X99.621 Y90.065 E8.89706
G1 X99.621 Y91.460 E8.99913
G1 X95.379 Y87.218 E9.43807
G1 X95.379 Y88.613 E9.54015
G1 X99.432 Y92.666 E9.95953
G1 X98.882 Y93.512 E10.03331
G1 X95.379 Y90.008 E10.39582
G1 X95.379 Y91.403 E10.49789
G1 X97.951 Y93.975 E10.76398
G1 X96.040 Y93.460 E10.90871
G1 F1800.000 E9.90871
G92 E0
G1 X93.373 Y93.699 F7800.000
G1 X86.627 Y93.698
G1 X85.268 Y91.780
G1 F1800.000 E1.00000
G1 X85.017 Y93.043 F540.000 E1.08521
G1 X84.427 Y93.927 E1.15558
G1 X83.543 Y94.517 E1.22596
G1 X82.500 Y94.725 E1.29633
G1 X81.457 Y94.517 E1.36670
G1 X80.573 Y93.927 E1.43708
G1 X79.983 Y93.043 E1.50745
G1 X79.732 Y91.780 E1.59266
G1 X79.732 Y85.232 E2.02616
G1 X85.268 Y85.232 E2.39267
G1 X85.268 Y91.646 E2.81730
G1 X86.161 Y91.868 F7800.000
G1 X85.858 Y93.391 F540.000 E2.92008
G1 X85.070 Y94.570 E3.01397
G1 X83.891 Y95.358 E3.10785
G1 X82.500 Y95.635 E3.20173
G1 X81.109 Y95.358 E3.29561
G1 X79.930 Y94.570 E3.38950
G1 X79.142 Y93.391 E3.48338
G1 X78.839 Y91.868 E3.58616
G1 X78.839 Y84.339 E4.08458
G1 X86.161 Y84.339 E4.56928
G1 X86.161 Y91.734 E5.05883
G1 X87.054 Y91.956 F7800.000
G1 X86.699 Y93.739 F540.000 E5.17919
G1 X85.714 Y95.214 E5.29658
G1 X84.239 Y96.199 E5.41398
G1 X82.500 Y96.545 E5.53137
G1 X80.761 Y96.199 E5.64876
G1 X79.286 Y95.214 E5.76615
G1 X78.301 Y93.739 E5.88355
G1 X77.946 Y91.956 E6.00390
G1 X77.946 Y83.446 E6.56724
G1 X87.054 Y83.446 E7.17013
G1 X87.054 Y91.822 E7.72459
G1 X86.229 Y92.298 F7800.000
G1 X81.040 Y93.460
G1 X82.951 Y93.975 F1080.000 E7.86933
G1 X80.379 Y91.403 E8.13541
G1 X80.379 Y90.008 E8.23749
G1 X83.882 Y93.512 E8.59999
G1 X84.432 Y92.666 E8.67378
G1 X80.379 Y88.613 E9.09316
G1 X80.379 Y87.218 E9.19524
G1 X84.621 Y91.460 E9.63418
G1 X84.621 Y90.065 E9.73625
G1 X80.435 Y85.879 E10.16935
G1 X81.830 Y85.879 E10.27143
G1 X84.621 Y88.670 E10.56017
G1 X84.621 Y87.274 E10.66225
G1 X83.226 Y85.879 E10.80663
G1 X84.621 Y85.879 E10.90873
M106 S255
M104 S225 ; set temperature
M140 S100 ; set bed temperature
G1 F1800.000 E9.90873
G92 E0
G1 Z-0.500 F7800.000
G1 X86.982 Y83.500
G1 X93.018 Y83.500
G1 X93.799 Y84.299
G1 F1800.000 E1.00000
G1 X101.201 Y84.299 F797.565 E1.22818
G1 X101.201 Y91.872 E1.46163
G1 X100.896 Y93.407 E1.50986
G1 X100.099 Y94.599 E1.55407
G1 X98.907 Y95.396 E1.59828
G1 X97.500 Y95.675 E1.64249
G1 X96.093 Y95.396 E1.68669
G1 X94.901 Y94.599 E1.73090
G1 X94.104 Y93.407 E1.77511
G1 X93.799 Y91.872 E1.82334
G1 X93.799 Y84.377 E2.05439
G1 X93.279 Y83.779 F7800.000
G1 X101.721 Y83.779 F797.565 E2.31461
G1 X101.721 Y91.923 E2.56566
G1 X101.385 Y93.609 E2.61865
G1 X100.474 Y94.974 E2.66923
G1 X99.109 Y95.885 E2.71982
G1 X97.500 Y96.205 E2.77040
G1 X95.891 Y95.885 E2.82098
G1 X94.526 Y94.974 E2.87156
G1 X93.615 Y93.609 E2.92214
G1 X93.279 Y91.923 E2.97514
G1 X93.279 Y83.857 E3.22378
G1 X92.760 Y83.260 F7800.000
G1 X102.240 Y83.260 F600.000 E3.51604
G1 X102.240 Y91.974 E3.78468
G1 X101.875 Y93.812 E3.84244
G1 X100.848 Y95.348 E3.89939
G1 X99.312 Y96.375 E3.95635
G1 X97.500 Y96.735 E4.01330
G1 X95.688 Y96.375 E4.07026
G1 X94.152 Y95.348 E4.12721
G1 X93.125 Y93.812 E4.18417
G1 X92.760 Y91.974 E4.24192
G1 X92.760 Y83.338 E4.50817
G1 X93.210 Y83.520 F7800.000
G1 X94.176 Y84.676
G1 X94.941 Y84.676 F1595.130 E4.53273
G1 X94.176 Y85.441 E4.56747
G1 X94.176 Y86.206 E4.59203
G1 X95.706 Y84.676 E4.66150
G1 X96.471 Y84.676 E4.68606
G1 X94.176 Y86.971 E4.79027
G1 X94.176 Y87.736 E4.81483
G1 X97.236 Y84.676 E4.95376
G1 X98.002 Y84.676 E4.97832
G1 X94.176 Y88.502 E5.15199
G1 X94.176 Y89.267 E5.17655
G1 X98.767 Y84.676 E5.38495
G1 X99.532 Y84.676 E5.40951
G1 X94.176 Y90.032 E5.65264
G1 X94.176 Y90.797 E5.67720
G1 X100.297 Y84.676 E5.95507
G1 X100.824 Y84.914 E5.97363
G1 X94.176 Y91.562 E6.27543
G1 X94.257 Y92.246 E6.29752
G1 X100.824 Y85.679 E6.59561
G1 X100.824 Y86.444 E6.62017
G1 X94.384 Y92.884 E6.91249
G1 X94.585 Y93.448 E6.93172
G1 X100.824 Y87.209 E7.21493
G1 X100.824 Y87.974 E7.23949
G1 X94.892 Y93.907 E7.50878
G1 X95.211 Y94.353 E7.52639
G1 X100.824 Y88.739 E7.78120
G1 X100.824 Y89.505 E7.80576
G1 X95.669 Y94.659 E8.03975
G1 X96.128 Y94.966 E8.05745
G1 X100.824 Y90.270 E8.27062
G1 X100.824 Y91.035 E8.29518
G1 X96.722 Y95.137 E8.48138
G1 X97.361 Y95.264 E8.50226
G1 X100.824 Y91.800 E8.65949
G1 X100.643 Y92.747 E8.69042
G1 X98.247 Y95.143 E8.79920
G1 X99.828 Y94.327 E8.85631
G1 F1800.000 E7.85631
G92 E0
G1 X101.627 Y93.697 F7800.000
G1 X93.373 Y93.699
G1 X86.627 Y93.697
G1 X86.201 Y91.872
G1 F1800.000 E1.00000
G1 X85.896 Y93.407 F797.565 E1.04823
G1 X85.099 Y94.599 E1.09244
G1 X83.907 Y95.396 E1.13665
G1 X82.500 Y95.675 E1.18086
G1 X81.093 Y95.396 E1.22507
G1 X79.901 Y94.599 E1.26928
G1 X79.104 Y93.407 E1.31348
G1 X78.799 Y91.872 E1.36171
G1 X78.799 Y84.299 E1.59517
G1 X86.201 Y84.299 E1.82334
G1 X86.201 Y91.794 E2.05439
G1 X86.721 Y91.923 F7800.000
G1 X86.385 Y93.609 F797.565 E2.10739
G1 X85.474 Y94.974 E2.15797
G1 X84.109 Y95.885 E2.20855
G1 X82.500 Y96.205 E2.25913
G1 X80.891 Y95.885 E2.30972
G1 X79.526 Y94.974 E2.36030
G1 X78.615 Y93.609 E2.41088
G1 X78.279 Y91.923 E2.46387
G1 X78.279 Y83.779 E2.71492
G1 X86.721 Y83.779 E2.97514
G1 X86.721 Y91.845 E3.22378
G1 X87.240 Y91.974 F7800.000
G1 X86.875 Y93.812 F600.000 E3.28154
G1 X85.848 Y95.348 E3.33850
G1 X84.312 Y96.375 E3.39545
G1 X82.500 Y96.735 E3.45241
G1 X80.688 Y96.375 E3.50936
G1 X79.152 Y95.348 E3.56632
G1 X78.125 Y93.812 E3.62327
G1 X77.760 Y91.974 E3.68103
G1 X77.760 Y83.260 E3.94967
G1 X87.240 Y83.260 E4.24193
G1 X87.240 Y91.896 E4.50817
G1 X86.760 Y92.173 F7800.000
G1 X84.828 Y94.327
G1 X83.247 Y95.143 F1595.130 E4.56528
G1 X85.643 Y92.747 E4.67406
G1 X85.824 Y91.800 E4.70499
G1 X82.361 Y95.264 E4.86222
G1 X81.722 Y95.137 E4.88310
G1 X85.824 Y91.035 E5.06930
G1 X85.824 Y90.270 E5.09386
G1 X81.128 Y94.966 E5.30703
G1 X80.669 Y94.659 E5.32474
G1 X85.824 Y89.505 E5.55873
G1 X85.824 Y88.739 E5.58328
G1 X80.211 Y94.353 E5.83810
G1 X79.892 Y93.907 E5.85570
G1 X85.824 Y87.974 E6.12500
G1 X85.824 Y87.209 E6.14956
G1 X79.585 Y93.448 E6.43277
G1 X79.384 Y92.884 E6.45199
G1 X85.824 Y86.444 E6.74432
G1 X85.824 Y85.679 E6.76888
G1 X79.257 Y92.246 E7.06696
G1 X79.176 Y91.562 E7.08906
G1 X85.824 Y84.914 E7.39085
G1 X85.297 Y84.676 E7.40942
G1 X79.176 Y90.797 E7.68728
G1 X79.176 Y90.032 E7.71184
G1 X84.532 Y84.676 E7.95498
G1 X83.767 Y84.676 E7.97954
G1 X79.176 Y89.267 E8.18794
G1 X79.176 Y88.502 E8.21250
G1 X83.002 Y84.676 E8.38617
G1 X82.236 Y84.676 E8.41073
G1 X79.176 Y87.736 E8.54966
G1 X79.176 Y86.971 E8.57422
G1 X81.471 Y84.676 E8.67843
G1 X80.706 Y84.676 E8.70299
G1 X79.176 Y86.206 E8.77246
G1 X79.176 Y85.441 E8.79702
G1 X79.941 Y84.676 E8.83176
G1 X79.176 Y84.676 E8.85632
G1 F1800.000 E7.85632
G92 E0
G1 Z-0.100 F7800.000
G1 X78.018 Y83.500
G1 X86.982 Y83.500
G1 X93.018 Y83.500
G1 X93.799 Y84.299
G1 F1800.000 E1.00000
G1 X101.201 Y84.299 F797.998 E1.22818
G1 X101.201 Y91.872 E1.46163
G1 X100.896 Y93.407 E1.50986
G1 X100.099 Y94.599 E1.55407
G1 X98.907 Y95.396 E1.59828
G1 X97.500 Y95.675 E1.64249
G1 X96.093 Y95.396 E1.68669
G1 X94.901 Y94.599 E1.73090
G1 X94.104 Y93.407 E1.77511
G1 X93.799 Y91.872 E1.82334
G1 X93.799 Y84.377 E2.05439
G1 X93.279 Y83.779 F7800.000
G1 X101.721 Y83.779 F797.998 E2.31461
G1 X101.721 Y91.923 E2.56566
G1 X101.385 Y93.609 E2.61865
G1 X100.474 Y94.974 E2.66923
G1 X99.109 Y95.885 E2.71982
G1 X97.500 Y96.205 E2.77040
G1 X95.891 Y95.885 E2.82098
G1 X94.526 Y94.974 E2.87156
G1 X93.615 Y93.609 E2.92214
G1 X93.279 Y91.923 E2.97514
G1 X93.279 Y83.857 E3.22378
G1 X92.760 Y83.260 F7800.000
G1 X102.240 Y83.260 F600.000 E3.51604
G1 X102.240 Y91.974 E3.78468
G1 X101.875 Y93.812 E3.84244
G1 X100.848 Y95.348 E3.89939
G1 X99.312 Y96.375 E3.95635
G1 X97.500 Y96.735 E4.01330
G1 X95.688 Y96.375 E4.07026
G1 X94.152 Y95.348 E4.12721
G1 X93.125 Y93.812 E4.18417
G1 X92.760 Y91.974 E4.24192
G1 X92.760 Y83.338 E4.50817
G1 X93.210 Y83.520 F7800.000
G1 X100.824 Y84.676
G1 X100.824 Y85.441 F1595.996 E4.53273
G1 X100.059 Y84.676 E4.56747
G1 X99.294 Y84.676 E4.59203
G1 X100.824 Y86.206 E4.66150
G1 X100.824 Y86.971 E4.68606
G1 X98.529 Y84.676 E4.79027
G1 X97.764 Y84.676 E4.81483
G1 X100.824 Y87.736 E4.95376
G1 X100.824 Y88.502 E4.97832
G1 X96.998 Y84.676 E5.15199
G1 X96.233 Y84.676 E5.17655
G1 X100.824 Y89.267 E5.38495
G1 X100.824 Y90.032 E5.40951
G1 X95.468 Y84.676 E5.65264
G1 X94.703 Y84.676 E5.67720
G1 X100.824 Y90.797 E5.95507
G1 X100.824 Y91.562 E5.97963
G1 X94.176 Y84.914 E6.28142
G1 X94.176 Y85.679 E6.30598
G1 X100.743 Y92.246 E6.60407
G1 X100.616 Y92.884 E6.62495
G1 X94.176 Y86.444 E6.91728
G1 X94.176 Y87.209 E6.94184
G1 X100.415 Y93.448 E7.22505
G1 X100.108 Y93.907 E7.24275
G1 X94.176 Y87.974 E7.51205
G1 X94.176 Y88.739 E7.53661
G1 X99.789 Y94.353 E7.79142
G1 X99.331 Y94.659 E7.80913
G1 X94.176 Y89.505 E8.04312
G1 X94.176 Y90.270 E8.06768
G1 X98.872 Y94.966 E8.28085
G1 X98.278 Y95.137 E8.30069
G1 X94.176 Y91.035 E8.48689
G1 X94.176 Y91.800 E8.51145
G1 X97.639 Y95.264 E8.66867
G1 X96.753 Y95.143 E8.69737
G1 X94.357 Y92.747 E8.80615
G1 X95.173 Y94.328 E8.86326
G1 F1800.000 E7.86326
G92 E0
G1 X93.373 Y93.699 F7800.000
G1 X86.627 Y93.696
G1 X86.201 Y91.872
G1 F1800.000 E1.00000
G1 X85.896 Y93.407 F797.998 E1.04823
G1 X85.099 Y94.599 E1.09244
G1 X83.907 Y95.396 E1.13665
G1 X82.500 Y95.675 E1.18086
G1 X81.093 Y95.396 E1.22507
G1 X79.901 Y94.599 E1.26928
G1 X79.104 Y93.407 E1.31348
G1 X78.799 Y91.872 E1.36171
G1 X78.799 Y84.299 E1.59517
G1 X86.201 Y84.299 E1.82334
G1 X86.201 Y91.794 E2.05439
G1 X86.721 Y91.923 F7800.000
G1 X86.385 Y93.609 F797.998 E2.10739
G1 X85.474 Y94.974 E2.15797
G1 X84.109 Y95.885 E2.20855
G1 X82.500 Y96.205 E2.25913
G1 X80.891 Y95.885 E2.30972
G1 X79.526 Y94.974 E2.36030
G1 X78.615 Y93.609 E2.41088
G1 X78.279 Y91.923 E2.46387
G1 X78.279 Y83.779 E2.71492
G1 X86.721 Y83.779 E2.97514
G1 X86.721 Y91.845 E3.22378
G1 X87.240 Y91.974 F7800.000
G1 X86.875 Y93.812 F600.000 E3.28154
G1 X85.848 Y95.348 E3.33850
G1 X84.312 Y96.375 E3.39545
G1 X82.500 Y96.735 E3.45241
G1 X80.688 Y96.375 E3.50936
G1 X79.152 Y95.348 E3.56632
G1 X78.125 Y93.812 E3.62327
G1 X77.760 Y91.974 E3.68103
G1 X77.760 Y83.260 E3.94967
G1 X87.240 Y83.260 E4.24193
G1 X87.240 Y91.896 E4.50817
G1 X86.760 Y92.173 F7800.000
G1 X80.173 Y94.328
G1 X79.357 Y92.747 F1595.996 E4.56528
G1 X81.753 Y95.143 E4.67406
G1 X82.639 Y95.264 E4.70276
G1 X79.176 Y91.800 E4.85998
G1 X79.176 Y91.035 E4.88454
G1 X83.278 Y95.137 E5.07074
G1 X83.872 Y94.966 E5.09059
G1 X79.176 Y90.270 E5.30376
G1 X79.176 Y89.505 E5.32831
G1 X84.331 Y94.659 E5.56231
G1 X84.789 Y94.353 E5.58001
G1 X79.176 Y88.739 E5.83482
G1 X79.176 Y87.974 E5.85938
G1 X85.108 Y93.907 E6.12868
G1 X85.415 Y93.448 E6.14639
G1 X79.176 Y87.209 E6.42960
G1 X79.176 Y86.444 E6.45415
G1 X85.616 Y92.884 E6.74648
G1 X85.743 Y92.246 E6.76737
G1 X79.176 Y85.679 E7.06545
G1 X79.176 Y84.914 E7.09001
G1 X85.824 Y91.562 E7.39181
G1 X85.824 Y90.797 E7.41637
G1 X79.703 Y84.676 E7.69423
G1 X80.468 Y84.676 E7.71879
G1 X85.824 Y90.032 E7.96193
G1 X85.824 Y89.267 E7.98649
G1 X81.233 Y84.676 E8.19489
G1 X81.998 Y84.676 E8.21945
G1 X85.824 Y88.502 E8.39312
G1 X85.824 Y87.736 E8.41768
G1 X82.764 Y84.676 E8.55661
G1 X83.529 Y84.676 E8.58117
G1 X85.824 Y86.971 E8.68538
G1 X85.824 Y86.206 E8.70994
G1 X84.294 Y84.676 E8.77941
G1 X85.059 Y84.676 E8.80397
G1 X85.824 Y85.441 E8.83871
G1 X85.824 Y84.676 E8.86327
G1 F1800.000 E7.86327
G92 E0
G1 Z0.300 F7800.000
G1 X86.982 Y83.500
G1 X93.018 Y83.500
G1 X93.799 Y84.299
G1 F1800.000 E1.00000
G1 X101.201 Y84.299 F797.564 E1.22818
G1 X101.201 Y91.872 E1.46163
G1 X100.896 Y93.407 E1.50986
G1 X100.099 Y94.599 E1.55407
G1 X98.907 Y95.396 E1.59828
G1 X97.500 Y95.675 E1.64249
G1 X96.093 Y95.396 E1.68669
G1 X94.901 Y94.599 E1.73090
