; generated by Slic3r 0.9.9 on 2013-07-12 at 02:16:18

; layer_height = 0.31
; perimeters = 3
; top_solid_layers = 3
; bottom_solid_layers = 3
; fill_density = 0.4
; perimeter_speed = 60
; infill_speed = 120
; travel_speed = 260
; nozzle_diameter = 0.5
; filament_diameter = 2.92
; extrusion_multiplier = 1
; perimeters extrusion width = 0.55mm
; infill extrusion width = 0.55mm
; solid infill extrusion width = 0.55mm
; top infill extrusion width = 0.55mm
; first layer extrusion width = 1.00mm

G21 ; set units to millimeters
M107
M190 S115 ; wait for bed temperature to be reached
M104 S230 ; set temperature
G28 ; home all axes
G1 Z5 F5000 ; lift nozzle
M109 S230 ; wait for temperature to be reached
G90 ; use absolute coordinates
G92 E0
M82 ; use absolute distances for extrusion
G1 F1800.000 E-1.40000
G92 E0
G1 Z-0.900 F15600.000
G1 X44.409 Y35.230
G1 F1800.000 E1.40000
G1 X44.789 Y34.810 F1080.000 E1.43775
G1 X45.409 Y34.250 E1.49344
G1 X46.989 Y32.990 E1.62814
G1 X47.229 Y32.820 E1.64774
G1 X47.729 Y32.520 E1.68660
G1 X48.249 Y32.260 E1.72536
G1 X48.519 Y32.150 E1.74479
G1 X49.339 Y31.880 E1.80233
G1 X50.199 Y31.710 E1.86076
G1 X50.779 Y31.660 E1.89956
G1 X108.129 Y31.660 E5.72211
G1 X108.439 Y31.680 E5.74282
G1 X109.039 Y31.760 E5.78316
G1 X111.309 Y32.270 E5.93824
G1 X111.849 Y32.440 E5.97597
G1 X112.369 Y32.650 E6.01335
G1 X113.119 Y33.050 E6.07000
G1 X113.589 Y33.360 E6.10753
G1 X114.239 Y33.900 E6.16386
G1 X114.819 Y34.520 E6.22044
G1 X115.319 Y35.200 E6.27670
G1 X115.469 Y35.440 E6.29557
G1 X115.729 Y35.940 E6.33313
G1 X116.479 Y37.500 E6.44850
G1 X116.609 Y37.780 E6.46908
G1 X116.829 Y38.360 E6.51042
G1 X116.919 Y38.660 E6.53130
G1 X117.049 Y39.260 E6.57222
G1 X117.139 Y39.870 E6.61332
G1 X117.159 Y40.180 E6.63402
G1 X117.159 Y129.800 E12.60746
G1 X117.099 Y130.410 E12.64832
G1 X116.989 Y131.010 E12.68897
G1 X116.919 Y131.310 E12.70951
G1 X116.729 Y131.900 E12.75082
G1 X116.489 Y132.460 E12.79143
G1 X115.609 Y134.280 E12.92617
G1 X115.329 Y134.770 E12.96379
G1 X114.829 Y135.460 E13.02059
G1 X114.449 Y135.880 E13.05834
G1 X114.039 Y136.270 E13.09606
G1 X113.359 Y136.780 E13.15271
G1 X113.119 Y136.940 E13.17194
G1 X112.629 Y137.210 E13.20923
G1 X112.109 Y137.450 E13.24740
G1 X111.579 Y137.640 E13.28493
G1 X111.309 Y137.720 E13.30370
G1 X109.039 Y138.230 E13.45877
G1 X108.439 Y138.310 E13.49912
G1 X108.129 Y138.330 E13.51982
G1 X50.779 Y138.330 E17.34237
G1 X50.199 Y138.280 E17.38117
G1 X49.339 Y138.110 E17.43960
G1 X48.519 Y137.840 E17.49714
G1 X48.249 Y137.730 E17.51658
G1 X47.729 Y137.470 E17.55533
G1 X47.229 Y137.170 E17.59419
G1 X46.989 Y137.000 E17.61379
G1 X45.199 Y135.560 E17.76692
G1 X44.789 Y135.180 E17.80418
G1 X44.409 Y134.760 E17.84193
G1 X44.069 Y134.310 E17.87952
G1 X43.629 Y133.600 E17.93520
G1 X43.389 Y133.090 E17.97277
G1 X43.189 Y132.570 E18.00990
G1 X43.029 Y132.030 E18.04744
G1 X42.969 Y131.750 E18.06653
G1 X42.879 Y131.200 E18.10367
G1 X42.829 Y130.640 E18.14115
G1 X42.829 Y39.350 E24.22590
G1 X42.879 Y38.790 E24.26337
G1 X42.969 Y38.240 E24.30052
G1 X43.029 Y37.960 E24.31960
G1 X43.189 Y37.420 E24.35714
G1 X43.389 Y36.900 E24.39428
G1 X43.629 Y36.390 E24.43185
G1 X44.069 Y35.680 E24.48752
G1 X44.327 Y35.336 E24.51619
G1 F1800.000 E23.11619
G92 E0
G1 X61.729 Y75.850 F15600.000
G1 F1800.000 E1.40000
G1 X62.377 Y75.581 F1080.000 E1.44677
G1 X64.901 Y75.249 E1.61643
G1 X67.425 Y75.581 E1.78609
G1 X69.776 Y76.555 E1.95576
G1 X71.796 Y78.105 E2.12543
G1 X73.346 Y80.124 E2.29510
G1 X74.320 Y82.476 E2.46477
G1 X74.652 Y85.000 E2.63443
G1 X74.320 Y87.524 E2.80409
G1 X73.346 Y89.875 E2.97376
G1 X71.796 Y91.895 E3.14343
G1 X69.776 Y93.445 E3.31310
G1 X67.425 Y94.419 E3.48276
G1 X64.901 Y94.751 E3.65243
G1 X62.377 Y94.419 E3.82209
G1 X60.025 Y93.445 E3.99176
G1 X58.006 Y91.895 E4.16143
G1 X56.456 Y89.875 E4.33109
G1 X55.482 Y87.524 E4.50076
G1 X55.150 Y85.000 E4.67043
G1 X55.482 Y82.476 E4.84009
G1 X56.476 Y80.099 E5.01183
G1 X58.006 Y78.105 E5.17935
G1 X60.025 Y76.555 E5.34902
G1 X61.605 Y75.901 E5.46300
G1 X62.071 Y76.675 F15600.000
G1 X62.610 Y76.451 F1080.000 E5.50193
G1 X64.901 Y76.149 E5.65593
G1 X67.192 Y76.451 E5.80993
G1 X69.326 Y77.335 E5.96393
G1 X71.159 Y78.742 E6.11793
G1 X72.566 Y80.575 E6.27193
G1 X73.450 Y82.709 E6.42593
G1 X73.752 Y85.000 E6.57993
G1 X73.450 Y87.291 E6.73392
G1 X72.566 Y89.425 E6.88792
G1 X71.159 Y91.258 E7.04193
G1 X69.326 Y92.665 E7.19593
G1 X67.192 Y93.549 E7.34993
G1 X64.901 Y93.851 E7.50392
G1 X62.610 Y93.549 E7.65792
G1 X60.476 Y92.665 E7.81192
G1 X58.643 Y91.258 E7.96592
G1 X57.236 Y89.425 E8.11992
G1 X56.352 Y87.291 E8.27392
G1 X56.050 Y85.000 E8.42792
G1 X56.352 Y82.709 E8.58192
G1 X57.236 Y80.575 E8.73592
G1 X58.643 Y78.742 E8.88992
G1 X60.476 Y77.335 E9.04392
G1 X61.947 Y76.726 E9.15006
G1 X62.412 Y77.499 F15600.000
G1 X62.843 Y77.321 F540.000 E9.18117
G1 X64.901 Y77.050 E9.31950
G1 X66.959 Y77.321 E9.45783
G1 X68.876 Y78.115 E9.59616
G1 X70.523 Y79.378 E9.73449
G1 X71.786 Y81.025 E9.87283
G1 X72.580 Y82.942 E10.01116
G1 X72.851 Y85.000 E10.14949
G1 X72.580 Y87.058 E10.28782
G1 X71.786 Y88.975 E10.42615
G1 X70.523 Y90.622 E10.56449
G1 X68.876 Y91.885 E10.70282
G1 X66.959 Y92.679 E10.84116
G1 X64.901 Y92.950 E10.97949
G1 X62.843 Y92.679 E11.11782
G1 X60.926 Y91.885 E11.25615
G1 X59.279 Y90.622 E11.39448
G1 X58.016 Y88.975 E11.53282
G1 X57.222 Y87.058 E11.67115
G1 X56.951 Y85.000 E11.80948
G1 X57.222 Y82.942 E11.94781
G1 X58.016 Y81.025 E12.08615
G1 X59.279 Y79.378 E12.22448
G1 X60.926 Y78.115 E12.36281
G1 X62.289 Y77.551 E12.46112
G1 X62.473 Y77.037 F15600.000
G1 F1800.000 E11.06112
G92 E0
G1 X85.482 Y82.476 F15600.000
G1 F1800.000 E1.40000
G1 X86.456 Y80.124 F1080.000 E1.56967
G1 X88.006 Y78.105 E1.73934
G1 X90.025 Y76.555 E1.90900
G1 X92.377 Y75.581 E2.07867
G1 X94.901 Y75.249 E2.24833
G1 X97.425 Y75.581 E2.41800
G1 X99.776 Y76.555 E2.58766
G1 X101.796 Y78.105 E2.75733
G1 X103.346 Y80.124 E2.92700
G1 X104.320 Y82.476 E3.09667
G1 X104.652 Y85.000 E3.26633
G1 X104.320 Y87.524 E3.43600
G1 X103.346 Y89.875 E3.60566
G1 X101.796 Y91.895 E3.77533
G1 X99.776 Y93.445 E3.94500
G1 X97.425 Y94.419 E4.11467
G1 X94.901 Y94.751 E4.28433
G1 X92.377 Y94.419 E4.45400
G1 X90.025 Y93.445 E4.62366
G1 X88.006 Y91.895 E4.79333
G1 X86.456 Y89.875 E4.96300
G1 X85.482 Y87.524 E5.13267
G1 X85.150 Y85.000 E5.30233
G1 X85.465 Y82.609 E5.46307
G1 X86.352 Y82.709 F15600.000
G1 X87.236 Y80.575 F1080.000 E5.61707
G1 X88.643 Y78.742 E5.77107
G1 X90.476 Y77.335 E5.92507
G1 X92.610 Y76.451 E6.07907
G1 X94.901 Y76.149 E6.23307
G1 X97.192 Y76.451 E6.38707
G1 X99.326 Y77.335 E6.54107
G1 X101.159 Y78.742 E6.69507
G1 X102.566 Y80.575 E6.84907
G1 X103.450 Y82.709 E7.00307
G1 X103.752 Y85.000 E7.15707
G1 X103.450 Y87.291 E7.31106
G1 X102.566 Y89.425 E7.46506
G1 X101.159 Y91.258 E7.61906
G1 X99.326 Y92.665 E7.77307
G1 X97.192 Y93.549 E7.92707
G1 X94.901 Y93.851 E8.08106
G1 X92.610 Y93.549 E8.23506
G1 X90.476 Y92.665 E8.38906
G1 X88.643 Y91.258 E8.54306
G1 X87.236 Y89.425 E8.69706
G1 X86.352 Y87.291 E8.85106
G1 X86.050 Y85.000 E9.00506
G1 X86.335 Y82.842 E9.15013
G1 X87.222 Y82.942 F15600.000
G1 X88.016 Y81.025 F540.000 E9.28847
G1 X89.279 Y79.378 E9.42680
G1 X90.926 Y78.115 E9.56513
G1 X92.843 Y77.321 E9.70347
G1 X94.901 Y77.050 E9.84180
G1 X96.959 Y77.321 E9.98013
G1 X98.876 Y78.115 E10.11846
G1 X100.523 Y79.378 E10.25679
G1 X101.786 Y81.025 E10.39513
G1 X102.580 Y82.942 E10.53346
G1 X102.851 Y85.000 E10.67179
G1 X102.580 Y87.058 E10.81012
G1 X101.786 Y88.975 E10.94846
G1 X100.523 Y90.622 E11.08679
G1 X98.876 Y91.885 E11.22512
G1 X96.959 Y92.679 E11.36346
G1 X94.901 Y92.950 E11.50179
G1 X92.843 Y92.679 E11.64012
G1 X90.926 Y91.885 E11.77845
G1 X89.279 Y90.622 E11.91678
G1 X88.016 Y88.975 E12.05512
G1 X87.222 Y87.058 E12.19345
G1 X86.951 Y85.000 E12.33178
G1 X87.204 Y83.075 E12.46119
G1 X86.619 Y82.284 F15600.000
G1 X107.582 Y40.782
G1 X108.046 Y40.888 F1080.000 E12.49296
G1 X108.046 Y129.112 E18.37336
G1 X107.582 Y129.218 E18.40513
G1 X51.954 Y129.218 E22.11289
G1 X51.954 Y40.782 E28.00743
G1 X107.448 Y40.782 E31.70626
G1 X107.682 Y39.889 F15600.000
G1 X108.598 Y40.098 F1080.000 E31.76890
G1 X108.939 Y40.806 E31.82123
G1 X108.939 Y129.194 E37.71260
G1 X108.598 Y129.902 E37.76493
G1 X107.682 Y130.111 E37.82757
G1 X51.547 Y130.111 E41.56911
G1 X51.061 Y129.723 E41.61058
G1 X51.061 Y40.277 E47.57241
G1 X51.547 Y39.889 E47.61388
G1 X107.548 Y39.889 E51.34650
G1 X107.783 Y38.996 F15600.000
G1 X109.216 Y39.324 F540.000 E51.44449
G1 X109.832 Y40.602 E51.53905
G1 X109.832 Y129.398 E57.45759
G1 X109.216 Y130.676 E57.55215
G1 X107.783 Y131.004 E57.65015
G1 X51.235 Y131.004 E61.41922
G1 X50.168 Y130.153 E61.51016
G1 X50.168 Y39.847 E67.52930
G1 X51.235 Y38.996 E67.62024
G1 X107.649 Y38.996 E71.38039
G1 X108.109 Y39.827 F15600.000
G1 X107.399 Y41.429
G1 X107.399 Y42.696 F1620.000 E71.46519
G1 X106.132 Y41.429 E71.58513
G1 X104.864 Y41.429 E71.66993
G1 X107.399 Y43.964 E71.90978
G1 X107.399 Y45.231 E71.99458
G1 X103.597 Y41.429 E72.35435
G1 X102.330 Y41.429 E72.43915
G1 X107.399 Y46.498 E72.91884
G1 X107.399 Y47.766 E73.00364
G1 X101.062 Y41.429 E73.60325
G1 X99.795 Y41.429 E73.68805
G1 X107.399 Y49.033 E74.40758
G1 X107.399 Y50.300 E74.49237
G1 X98.528 Y41.429 E75.33183
G1 X97.260 Y41.429 E75.41662
G1 X107.399 Y51.568 E76.37599
G1 X107.399 Y52.835 E76.46079
G1 X95.993 Y41.429 E77.54008
G1 X94.726 Y41.429 E77.62487
G1 X107.399 Y54.102 E78.82408
G1 X107.399 Y55.370 E78.90888
G1 X93.458 Y41.429 E80.22800
G1 X92.191 Y41.429 E80.31280
G1 X107.399 Y56.637 E81.75185
G1 X107.399 Y57.904 E81.83664
G1 X90.924 Y41.429 E83.39561
G1 X89.656 Y41.429 E83.48040
G1 X107.399 Y59.172 E85.15929
G1 X107.399 Y60.439 E85.24409
G1 X88.389 Y41.429 E87.04289
G1 X87.122 Y41.429 E87.12768
G1 X107.399 Y61.706 E89.04641
G1 X107.399 Y62.974 E89.13120
G1 X85.855 Y41.429 E91.16985
G1 X84.587 Y41.429 E91.25464
G1 X107.399 Y64.241 E93.41320
G1 X107.399 Y65.508 E93.49800
G1 X83.320 Y41.429 E95.77648
G1 X82.053 Y41.429 E95.86127
G1 X107.399 Y66.776 E98.25967
G1 X107.399 Y68.043 E98.34447
G1 X80.785 Y41.429 E100.86279
G1 X79.518 Y41.429 E100.94758
G1 X107.399 Y69.310 E103.58582
G1 X107.399 Y70.578 E103.67062
G1 X78.251 Y41.429 E106.42877
G1 X76.983 Y41.429 E106.51357
G1 X107.399 Y71.845 E109.39164
G1 X107.399 Y73.112 E109.47644
G1 X75.716 Y41.429 E112.47444
G1 X74.449 Y41.429 E112.55923
G1 X107.399 Y74.380 E115.67715
G1 X107.399 Y75.647 E115.76194
G1 X73.181 Y41.429 E118.99977
G1 X71.914 Y41.429 E119.08457
G1 X107.399 Y76.914 E122.44232
G1 X107.399 Y78.181 E122.52712
G1 X70.647 Y41.429 E126.00479
G1 X69.379 Y41.429 E126.08958
G1 X107.399 Y79.449 E129.68717
G1 X107.399 Y80.716 E129.77197
G1 X68.112 Y41.429 E133.48948
G1 X66.845 Y41.429 E133.57428
G1 X107.399 Y81.983 E137.41170
G1 X103.793 Y79.645 F15600.000
G1 X107.399 Y83.251 F1620.000 E137.75293
G1 X107.399 Y84.518 E137.83773
G1 X104.782 Y81.901 E138.08541
G1 X105.106 Y83.492 E138.19411
G1 X107.399 Y85.785 E138.41109
G1 X107.399 Y87.053 E138.49589
G1 X105.298 Y84.952 E138.69468
G1 X105.162 Y86.083 E138.77090
G1 X107.399 Y88.320 E138.98259
G1 X107.399 Y89.587 E139.06738
G1 X105.015 Y87.203 E139.29302
G1 X104.741 Y88.197 E139.36200
G1 X107.399 Y90.855 E139.61350
G1 X107.399 Y92.122 E139.69829
G1 X104.370 Y89.093 E139.98492
G1 X103.999 Y89.989 E140.04982
G1 X107.399 Y93.389 E140.37156
G1 X107.399 Y94.657 E140.45636
G1 X103.491 Y90.749 E140.82615
G1 X102.941 Y91.466 E140.88662
G1 X107.399 Y95.924 E141.30848
G1 X107.399 Y97.191 E141.39327
G1 X102.391 Y92.183 E141.86719
G1 X101.714 Y92.773 E141.92729
G1 X107.399 Y98.459 E142.46524
G1 X107.399 Y99.726 E142.55004
G1 X100.997 Y93.324 E143.15584
G1 X100.280 Y93.874 E143.21632
G1 X107.399 Y100.993 E143.88998
G1 X107.399 Y102.261 E143.97477
G1 X99.428 Y94.289 E144.72904
G1 X98.532 Y94.661 E144.79394
G1 X107.399 Y103.528 E145.63301
G1 X107.399 Y104.795 E145.71781
G1 X97.636 Y95.032 E146.64167
G1 X96.526 Y95.190 E146.71665
G1 X107.399 Y106.063 E147.74549
G1 X107.399 Y107.330 E147.83028
G1 X95.406 Y95.337 E148.96509
G1 X94.100 Y95.298 E149.05252
G1 X107.399 Y108.597 E150.31093
G1 X107.399 Y109.865 E150.39572
G1 X92.641 Y95.106 E151.79223
G1 X90.686 Y94.419 E151.93088
G1 X107.399 Y111.132 E153.51236
G1 X107.399 Y112.399 F15600.000
G1 X52.601 Y57.601 F1620.000 E158.69761
G1 X52.601 Y56.333 E158.78240
G1 X85.482 Y89.215 E161.89379
G1 X84.795 Y87.260 E162.03244
G1 X52.601 Y55.066 E165.07878
G1 X52.601 Y53.799 E165.16357
G1 X84.603 Y85.801 E168.19172
G1 X84.564 Y84.495 E168.27916
G1 X52.601 Y52.532 E171.30363
G1 X52.601 Y51.264 E171.38842
G1 X84.711 Y83.375 E174.42685
G1 X84.869 Y82.265 E174.50182
G1 X52.601 Y49.997 E177.55519
G1 X52.601 Y48.730 E177.63999
G1 X85.240 Y81.369 E180.72848
G1 X85.612 Y80.473 E180.79338
G1 X52.601 Y47.462 E183.91699
G1 X52.601 Y46.195 E184.00178
G1 X86.027 Y79.621 E187.16470
G1 X86.577 Y78.904 E187.22518
G1 X52.601 Y44.928 E190.44016
G1 X52.601 Y43.660 E190.52496
G1 X87.127 Y78.187 E193.79200
G1 X87.718 Y77.510 E193.85210
G1 X52.601 Y42.393 E197.17504
G1 X52.904 Y41.429 E197.24266
G1 X88.435 Y76.960 E200.60475
G1 X89.152 Y76.410 E200.66522
G1 X54.171 Y41.429 E203.97525
G1 X55.439 Y41.429 E204.06004
G1 X89.912 Y75.902 E207.32202
G1 X90.808 Y75.531 E207.38692
G1 X56.706 Y41.429 E210.61378
G1 X57.973 Y41.429 E210.69857
G1 X91.704 Y75.160 E213.89031
G1 X92.698 Y74.886 E213.95929
G1 X59.241 Y41.429 E217.12516
G1 X60.508 Y41.429 E217.20996
G1 X93.818 Y74.739 E220.36188
G1 X94.949 Y74.603 E220.43810
G1 X61.775 Y41.429 E223.57713
G1 X63.043 Y41.429 E223.66192
G1 X96.409 Y74.795 E226.81913
G1 X98.000 Y75.119 E226.92783
G1 X64.310 Y41.429 E230.11575
G1 X65.577 Y41.429 E230.20055
G1 X100.256 Y76.108 E233.48201
G1 X74.180 Y80.447 F15600.000
G1 X107.399 Y113.666 F1620.000 E236.62539
G1 X107.399 Y114.934 E236.71018
G1 X74.977 Y82.512 E239.77810
G1 X75.169 Y83.971 E239.87660
G1 X107.399 Y116.201 E242.92633
G1 X107.399 Y117.468 E243.01113
G1 X75.261 Y85.330 E246.05215
G1 X75.114 Y86.450 E246.12773
G1 X107.399 Y118.736 E249.18271
G1 X107.399 Y120.003 E249.26751
G1 X74.966 Y87.570 E252.33644
G1 X74.620 Y88.491 E252.40227
G1 X107.399 Y121.270 E255.50401
G1 X107.399 Y122.538 E255.58880
G1 X74.248 Y89.387 E258.72567
G1 X73.861 Y90.267 E258.79000
G1 X107.399 Y123.805 E261.96352
G1 X107.399 Y125.072 E262.04831
G1 X73.311 Y90.984 E265.27390
G1 X72.760 Y91.701 E265.33438
G1 X107.399 Y126.340 E268.61203
G1 X107.399 Y127.607 E268.69683
G1 X72.196 Y92.404 E272.02791
G1 X71.479 Y92.954 E272.08838
G1 X107.096 Y128.571 E275.45861
G1 X105.829 Y128.571 E275.54341
G1 X70.762 Y93.504 E278.86157
G1 X70.030 Y94.040 E278.92224
G1 X104.561 Y128.571 E282.18971
G1 X103.294 Y128.571 E282.27451
G1 X69.134 Y94.411 E285.50686
G1 X68.238 Y94.782 E285.57176
G1 X102.027 Y128.571 E288.76899
G1 X100.759 Y128.571 E288.85378
G1 X67.279 Y95.091 E292.02184
G1 X66.159 Y95.238 E292.09742
G1 X99.492 Y128.571 E295.25152
G1 X98.225 Y128.571 E295.33632
G1 X65.039 Y95.385 E298.47647
G1 X63.621 Y95.235 E298.57185
G1 X96.957 Y128.571 E301.72623
G1 X95.690 Y128.571 E301.81102
G1 X62.139 Y95.021 E304.98570
G1 X59.976 Y94.125 E305.14237
G1 X94.423 Y128.571 E308.40183
G1 X52.601 Y128.571 F15600.000
G1 X52.601 Y127.304 F1620.000 E308.48664
G1 X53.868 Y128.571 E308.60658
G1 X55.136 Y128.571 E308.69138
G1 X52.601 Y126.036 E308.93123
G1 X52.601 Y124.769 E309.01603
G1 X56.403 Y128.571 E309.37580
G1 X57.670 Y128.571 E309.46060
G1 X52.601 Y123.502 E309.94030
G1 X52.601 Y122.234 E310.02509
G1 X58.938 Y128.571 E310.62471
G1 X60.205 Y128.571 E310.70950
G1 X52.601 Y120.967 E311.42903
G1 X52.601 Y119.700 E311.51383
G1 X61.472 Y128.571 E312.35328
G1 X62.740 Y128.571 E312.43808
G1 X52.601 Y118.432 E313.39745
G1 X52.601 Y117.165 E313.48225
G1 X64.007 Y128.571 E314.56154
G1 X65.274 Y128.571 E314.64633
G1 X52.601 Y115.898 E315.84554
G1 X52.601 Y114.630 E315.93034
G1 X66.542 Y128.571 E317.24947
G1 X67.809 Y128.571 E317.33426
G1 X52.601 Y113.363 E318.77331
G1 X52.601 Y112.096 E318.85810
G1 X69.076 Y128.571 E320.41707
G1 X70.344 Y128.571 E320.50187
G1 X52.601 Y110.828 E322.18075
G1 X52.601 Y109.561 E322.26555
G1 X71.611 Y128.571 E324.06435
G1 X72.878 Y128.571 E324.14915
