; generated by Slic3r 0.9.9 on 2013-07-11 at 20:56:48

; layer_height = 0.31
; perimeters = 3
; top_solid_layers = 3
; bottom_solid_layers = 3
; fill_density = 0.4
; perimeter_speed = 60
; infill_speed = 120
; travel_speed = 260
; nozzle_diameter = 0.5
; filament_diameter = 2.92
; extrusion_multiplier = 1
; perimeters extrusion width = 0.55mm
; infill extrusion width = 0.55mm
; solid infill extrusion width = 0.55mm
; top infill extrusion width = 0.55mm
; first layer extrusion width = 1.00mm

G21 ; set units to millimeters
M107
M190 S115 ; wait for bed temperature to be reached
M104 S230 ; set temperature
G28 ; home all axes
G1 Z5 F5000 ; lift nozzle
M109 S230 ; wait for temperature to be reached
G90 ; use absolute coordinates
G92 E0
M82 ; use absolute distances for extrusion
G1 F1800.000 E-1.40000
G92 E0
G1 Z-0.900 F15600.000
G1 X43.719 Y35.230
G1 F1800.000 E1.40000
G1 X44.099 Y34.810 F1080.000 E1.43775
G1 X44.719 Y34.250 E1.49344
G1 X46.299 Y32.990 E1.62814
G1 X46.539 Y32.820 E1.64774
G1 X47.039 Y32.520 E1.68660
G1 X47.559 Y32.260 E1.72536
G1 X47.829 Y32.150 E1.74479
G1 X48.649 Y31.880 E1.80233
G1 X49.509 Y31.710 E1.86076
G1 X50.089 Y31.660 E1.89956
G1 X108.819 Y31.660 E5.81409
G1 X109.129 Y31.680 E5.83480
G1 X109.729 Y31.760 E5.87514
G1 X111.989 Y32.270 E6.02957
G1 X112.529 Y32.440 E6.06730
G1 X113.299 Y32.770 E6.12314
G1 X113.799 Y33.040 E6.16101
G1 X114.029 Y33.190 E6.17931
G1 X114.489 Y33.520 E6.21705
G1 X114.699 Y33.700 E6.23548
G1 X115.309 Y34.290 E6.29205
G1 X115.669 Y34.720 E6.32943
G1 X115.989 Y35.180 E6.36678
G1 X116.409 Y35.910 E6.42291
G1 X117.169 Y37.470 E6.53857
G1 X117.409 Y38.040 E6.57980
G1 X117.519 Y38.340 E6.60109
G1 X117.689 Y38.940 E6.64266
G1 X117.799 Y39.560 E6.68463
G1 X117.859 Y40.180 E6.72615
G1 X117.859 Y129.800 E12.69959
G1 X117.799 Y130.420 E12.74111
G1 X117.689 Y131.030 E12.78242
G1 X117.419 Y131.920 E12.84441
G1 X117.169 Y132.490 E12.88590
G1 X116.289 Y134.310 E13.02064
G1 X115.999 Y134.800 E13.05859
G1 X115.679 Y135.260 E13.09594
G1 X115.119 Y135.900 E13.15262
G1 X114.709 Y136.280 E13.18988
G1 X114.039 Y136.790 E13.24601
G1 X113.559 Y137.090 E13.28374
G1 X113.049 Y137.340 E13.32159
G1 X112.529 Y137.550 E13.35897
G1 X111.999 Y137.720 E13.39607
G1 X109.729 Y138.230 E13.55115
G1 X109.129 Y138.310 E13.59149
G1 X108.819 Y138.330 E13.61220
G1 X50.089 Y138.330 E17.52672
G1 X49.509 Y138.280 E17.56553
G1 X48.649 Y138.110 E17.62396
G1 X47.829 Y137.840 E17.68150
G1 X47.559 Y137.730 E17.70093
G1 X47.039 Y137.470 E17.73968
G1 X46.539 Y137.170 E17.77855
G1 X46.299 Y137.000 E17.79815
G1 X44.509 Y135.560 E17.95127
G1 X44.099 Y135.180 E17.98853
G1 X43.719 Y134.760 E18.02629
G1 X43.379 Y134.310 E18.06388
G1 X42.939 Y133.600 E18.11955
G1 X42.699 Y133.090 E18.15712
G1 X42.499 Y132.570 E18.19426
G1 X42.339 Y132.030 E18.23180
G1 X42.279 Y131.750 E18.25088
G1 X42.189 Y131.200 E18.28803
G1 X42.139 Y130.640 E18.32550
G1 X42.139 Y39.350 E24.41025
G1 X42.189 Y38.790 E24.44773
G1 X42.279 Y38.240 E24.48487
G1 X42.339 Y37.960 E24.50396
G1 X42.499 Y37.420 E24.54150
G1 X42.699 Y36.900 E24.57863
G1 X42.939 Y36.390 E24.61620
G1 X43.379 Y35.680 E24.67188
G1 X43.637 Y35.336 E24.70055
G1 F1800.000 E23.30055
G92 E0
G1 X88.506 Y77.605 F15600.000
G1 F1800.000 E1.40000
G1 X90.525 Y76.055 F1080.000 E1.56967
G1 X92.877 Y75.081 E1.73934
G1 X95.401 Y74.749 E1.90900
G1 X97.925 Y75.081 E2.07866
G1 X100.276 Y76.055 E2.24833
G1 X102.296 Y77.605 E2.41800
G1 X103.846 Y79.625 E2.58767
G1 X104.820 Y81.976 E2.75733
G1 X105.152 Y84.500 E2.92700
G1 X104.820 Y87.024 E3.09666
G1 X103.846 Y89.375 E3.26633
G1 X102.296 Y91.395 E3.43600
G1 X100.276 Y92.945 E3.60567
G1 X97.925 Y93.919 E3.77533
G1 X95.401 Y94.251 E3.94500
G1 X92.877 Y93.919 E4.11466
G1 X90.525 Y92.945 E4.28433
G1 X88.506 Y91.395 E4.45400
G1 X86.956 Y89.375 E4.62366
G1 X85.982 Y87.024 E4.79333
G1 X85.650 Y84.500 E4.96299
G1 X85.982 Y81.976 E5.13266
G1 X86.956 Y79.624 E5.30233
G1 X88.424 Y77.711 E5.46307
G1 X89.143 Y78.242 F15600.000
G1 X90.976 Y76.835 F1080.000 E5.61707
G1 X93.110 Y75.951 E5.77107
G1 X95.401 Y75.649 E5.92507
G1 X97.692 Y75.951 E6.07907
G1 X99.826 Y76.835 E6.23306
G1 X101.659 Y78.242 E6.38707
G1 X103.066 Y80.075 E6.54107
G1 X103.950 Y82.209 E6.69507
G1 X104.252 Y84.500 E6.84906
G1 X103.950 Y86.791 E7.00306
G1 X103.066 Y88.925 E7.15706
G1 X101.659 Y90.758 E7.31106
G1 X99.826 Y92.165 E7.46506
G1 X97.692 Y93.049 E7.61906
G1 X95.401 Y93.351 E7.77306
G1 X93.110 Y93.049 E7.92706
G1 X90.976 Y92.165 E8.08106
G1 X89.143 Y90.758 E8.23506
G1 X87.736 Y88.925 E8.38906
G1 X86.852 Y86.791 E8.54306
G1 X86.550 Y84.500 E8.69706
G1 X86.852 Y82.209 E8.85105
G1 X87.736 Y80.075 E9.00506
G1 X89.061 Y78.348 E9.15013
G1 X89.779 Y78.878 F15600.000
G1 X91.426 Y77.615 F540.000 E9.28847
G1 X93.343 Y76.821 E9.42680
G1 X95.401 Y76.550 E9.56513
G1 X97.459 Y76.821 E9.70346
G1 X99.376 Y77.615 E9.84179
G1 X101.023 Y78.878 E9.98013
G1 X102.286 Y80.525 E10.11846
G1 X103.080 Y82.442 E10.25679
G1 X103.351 Y84.500 E10.39513
G1 X103.080 Y86.558 E10.53346
G1 X102.286 Y88.475 E10.67179
G1 X101.023 Y90.122 E10.81012
G1 X99.376 Y91.385 E10.94846
G1 X97.459 Y92.179 E11.08679
G1 X95.401 Y92.450 E11.22512
G1 X93.343 Y92.179 E11.36345
G1 X91.426 Y91.385 E11.50178
G1 X89.779 Y90.122 E11.64012
G1 X88.516 Y88.475 E11.77845
G1 X87.722 Y86.558 E11.91679
G1 X87.451 Y84.500 E12.05512
G1 X87.722 Y82.442 E12.19345
G1 X88.516 Y80.525 E12.33178
G1 X89.698 Y78.985 E12.46119
G1 X89.586 Y78.007 F15600.000
G1 X73.820 Y81.976
G1 X74.152 Y84.500 F1080.000 E12.63085
G1 X73.820 Y87.024 E12.80052
G1 X72.846 Y89.375 E12.97018
G1 X71.296 Y91.395 E13.13985
G1 X69.276 Y92.945 E13.30952
G1 X66.925 Y93.919 E13.47919
G1 X64.401 Y94.251 E13.64885
G1 X61.877 Y93.919 E13.81851
G1 X59.525 Y92.945 E13.98818
G1 X57.506 Y91.395 E14.15785
G1 X55.956 Y89.375 E14.32752
G1 X54.982 Y87.024 E14.49719
G1 X54.650 Y84.500 E14.66685
G1 X54.982 Y81.976 E14.83651
G1 X55.956 Y79.624 E15.00618
G1 X57.506 Y77.605 E15.17585
G1 X59.525 Y76.055 E15.34552
G1 X61.877 Y75.081 E15.51519
G1 X64.401 Y74.749 E15.68485
G1 X66.925 Y75.081 E15.85451
G1 X69.276 Y76.055 E16.02418
G1 X71.296 Y77.605 E16.19385
G1 X72.846 Y79.625 E16.36352
G1 X73.768 Y81.853 E16.52426
G1 X72.950 Y82.209 F15600.000
G1 X73.252 Y84.500 F1080.000 E16.67826
G1 X72.950 Y86.791 E16.83225
G1 X72.066 Y88.925 E16.98625
G1 X70.659 Y90.758 E17.14025
G1 X68.826 Y92.165 E17.29426
G1 X66.692 Y93.049 E17.44825
G1 X64.401 Y93.351 E17.60225
G1 X62.110 Y93.049 E17.75625
G1 X59.976 Y92.165 E17.91025
G1 X58.143 Y90.758 E18.06425
G1 X56.736 Y88.925 E18.21825
G1 X55.852 Y86.791 E18.37225
G1 X55.550 Y84.500 E18.52625
G1 X55.852 Y82.209 E18.68025
G1 X56.736 Y80.075 E18.83425
G1 X58.143 Y78.242 E18.98825
G1 X59.976 Y76.835 E19.14225
G1 X62.110 Y75.951 E19.29625
G1 X64.401 Y75.649 E19.45025
G1 X66.692 Y75.951 E19.60424
G1 X68.826 Y76.835 E19.75824
G1 X70.659 Y78.242 E19.91225
G1 X72.066 Y80.075 E20.06625
G1 X72.899 Y82.086 E20.21132
G1 X72.080 Y82.442 F15600.000
G1 X72.351 Y84.500 F540.000 E20.34965
G1 X72.080 Y86.558 E20.48798
G1 X71.286 Y88.475 E20.62632
G1 X70.023 Y90.122 E20.76465
G1 X68.376 Y91.385 E20.90298
G1 X66.459 Y92.179 E21.04132
G1 X64.401 Y92.450 E21.17965
G1 X62.343 Y92.179 E21.31798
G1 X60.426 Y91.385 E21.45631
G1 X58.779 Y90.122 E21.59464
G1 X57.516 Y88.475 E21.73298
G1 X56.722 Y86.558 E21.87131
G1 X56.451 Y84.500 E22.00964
G1 X56.722 Y82.442 E22.14797
G1 X57.516 Y80.525 E22.28631
G1 X58.779 Y78.878 E22.42464
G1 X60.426 Y77.615 E22.56297
G1 X62.343 Y76.821 E22.70131
G1 X64.401 Y76.550 E22.83964
G1 X66.459 Y76.821 E22.97797
G1 X68.376 Y77.615 E23.11630
G1 X70.023 Y78.878 E23.25464
G1 X71.286 Y80.525 E23.39297
G1 X72.029 Y82.319 E23.52238
G1 X72.932 Y82.711 F15600.000
G1 X51.261 Y40.782
G1 X108.274 Y40.782 F1080.000 E27.32247
G1 X108.739 Y40.888 E27.35424
G1 X108.739 Y129.112 E33.23464
G1 X108.274 Y129.218 E33.26641
G1 X51.261 Y129.218 E37.06650
G1 X51.261 Y40.916 E42.95211
G1 X50.368 Y40.277 F15600.000
G1 X50.855 Y39.889 F1080.000 E42.99358
G1 X108.375 Y39.889 E46.82745
G1 X109.291 Y40.098 E46.89009
G1 X109.632 Y40.806 E46.94242
G1 X109.632 Y129.194 E52.83379
G1 X109.291 Y129.902 E52.88612
G1 X108.375 Y130.111 E52.94876
G1 X50.855 Y130.111 E56.78263
G1 X50.368 Y129.723 E56.82410
G1 X50.368 Y40.411 E62.77701
G1 X49.476 Y39.847 F15600.000
G1 X50.542 Y38.996 F540.000 E62.86795
G1 X108.475 Y38.996 E66.72935
G1 X109.909 Y39.324 E66.82735
G1 X110.524 Y40.602 E66.92191
G1 X110.524 Y129.398 E72.84044
G1 X109.909 Y130.676 E72.93500
G1 X108.475 Y131.004 E73.03300
G1 X50.542 Y131.004 E76.89440
G1 X49.476 Y130.153 E76.98534
G1 X49.476 Y39.981 E82.99556
G1 X50.366 Y39.914 F15600.000
G1 X51.908 Y56.274
G1 X108.092 Y112.458 F2160.000 E88.31625
G1 X108.092 Y111.189 E88.40119
G1 X90.563 Y93.661 E90.06118
G1 X92.722 Y94.551 E90.21754
G1 X108.092 Y109.921 E91.67311
G1 X108.092 Y108.653 E91.75805
G1 X94.182 Y94.743 E93.07529
G1 X95.587 Y94.879 E93.16977
G1 X108.092 Y107.384 E94.35401
G1 X108.092 Y106.116 E94.43895
G1 X96.708 Y94.732 E95.51705
G1 X97.828 Y94.584 E95.59275
G1 X108.092 Y104.847 E96.56471
G1 X108.092 Y103.579 E96.64965
G1 X98.778 Y94.266 E97.53166
G1 X99.675 Y93.894 E97.59666
G1 X108.092 Y102.311 E98.39373
G1 X108.092 Y101.042 E98.47867
G1 X100.572 Y93.523 E99.19080
G1 X101.296 Y92.978 E99.25146
G1 X108.092 Y99.774 E99.89504
G1 X108.092 Y98.506 E99.97998
G1 X102.014 Y92.427 E100.55560
G1 X102.731 Y91.877 E100.61618
G1 X108.092 Y97.237 E101.12384
G1 X108.092 Y95.969 E101.20877
G1 X103.288 Y91.165 E101.66370
G1 X103.839 Y90.447 E101.72427
G1 X108.092 Y94.700 E102.12705
G1 X108.092 Y93.432 E102.21198
G1 X104.389 Y89.730 E102.56261
G1 X104.768 Y88.840 E102.62736
G1 X108.092 Y92.164 E102.94214
G1 X108.092 Y90.895 E103.02708
G1 X105.139 Y87.943 E103.30668
G1 X105.474 Y87.009 E103.37309
G1 X108.092 Y89.627 E103.62098
G1 X108.092 Y88.359 E103.70592
G1 X105.622 Y85.889 E103.93983
G1 X105.769 Y84.768 E104.01553
G1 X108.092 Y87.090 E104.23547
G1 X108.092 Y85.822 E104.32040
G1 X105.658 Y83.388 E104.55086
G1 X105.466 Y81.928 E104.64952
G1 X108.092 Y84.554 E104.89819
G1 X108.092 Y83.285 E104.98312
G1 X104.627 Y79.821 E105.31122
G1 X108.092 Y79.480 F15600.000
G1 X70.041 Y41.429 F2160.000 E108.91473
G1 X68.772 Y41.429 E108.99967
G1 X108.092 Y80.748 E112.72330
G1 X108.092 Y82.017 E112.80824
G1 X67.504 Y41.429 E116.65199
G1 X66.236 Y41.429 E116.73692
G1 X100.080 Y75.274 E119.94208
G1 X97.973 Y74.435 E120.09395
G1 X64.967 Y41.429 E123.21968
G1 X63.699 Y41.429 E123.30462
G1 X96.512 Y74.243 E126.41214
G1 X95.133 Y74.132 E126.50481
G1 X62.430 Y41.429 E129.60181
G1 X61.162 Y41.429 E129.68675
G1 X94.012 Y74.279 E132.79772
G1 X92.891 Y74.427 E132.87342
G1 X59.894 Y41.429 E135.99838
G1 X58.625 Y41.429 E136.08331
G1 X91.958 Y74.762 E139.23998
G1 X91.061 Y75.133 E139.30499
G1 X57.357 Y41.429 E142.49683
G1 X56.089 Y41.429 E142.58177
G1 X90.171 Y75.512 E145.80946
G1 X89.454 Y76.062 E145.87003
G1 X54.820 Y41.429 E149.14987
G1 X53.552 Y41.429 E149.23481
G1 X88.736 Y76.613 E152.56680
G1 X88.024 Y77.170 E152.62730
G1 X52.284 Y41.429 E156.01202
G1 X51.908 Y42.322 E156.07689
G1 X87.474 Y77.887 E159.44500
G1 X86.923 Y78.605 E159.50558
G1 X51.908 Y43.590 E162.82154
G1 X51.908 Y44.859 E162.90648
G1 X86.378 Y79.329 E166.17087
G1 X86.007 Y80.226 E166.23588
G1 X51.908 Y46.127 E169.46509
G1 X51.908 Y47.395 E169.55003
G1 X85.635 Y81.123 E172.74406
G1 X85.317 Y82.073 E172.81115
G1 X51.908 Y48.664 E175.97502
G1 X51.908 Y49.932 E176.05995
G1 X85.169 Y83.193 E179.20985
G1 X85.022 Y84.314 E179.28555
G1 X51.908 Y51.201 E182.42147
G1 X51.908 Y52.469 E182.50640
G1 X85.158 Y85.718 E185.65520
G1 X85.350 Y87.179 E185.75386
G1 X51.908 Y53.737 E188.92087
G1 X51.908 Y55.006 E189.00580
G1 X86.240 Y89.338 E192.25713
G1 X72.576 Y78.210 F15600.000
G1 X108.092 Y113.726 F2160.000 E195.62053
G1 X108.092 Y114.994 E195.70547
G1 X74.129 Y81.031 E198.92184
G1 X74.573 Y82.744 E199.04037
G1 X108.092 Y116.263 E202.21462
G1 X108.092 Y117.531 E202.29955
G1 X74.766 Y84.205 E205.45559
G1 X74.687 Y85.395 E205.53541
G1 X108.092 Y118.799 E208.69892
G1 X108.092 Y120.068 E208.78385
G1 X74.539 Y86.515 E211.96134
G1 X74.303 Y87.547 E212.03225
G1 X108.092 Y121.336 E215.23210
G1 X108.092 Y122.605 E215.31703
G1 X73.932 Y88.444 E218.55206
G1 X73.560 Y89.341 E218.61707
G1 X108.092 Y123.873 E221.88728
G1 X108.092 Y125.141 E221.97222
G1 X73.081 Y90.131 E225.28776
G1 X72.531 Y90.849 E225.34833
G1 X108.092 Y126.410 E228.71603
G1 X108.092 Y127.678 E228.80096
G1 X71.980 Y91.566 E232.22081
G1 X71.330 Y92.185 E232.28088
G1 X107.716 Y128.571 E235.72676
G1 X106.448 Y128.571 E235.81169
G1 X70.612 Y92.735 E239.20541
G1 X69.895 Y93.286 E239.26599
G1 X105.180 Y128.571 E242.60756
G1 X103.911 Y128.571 E242.69249
G1 X69.071 Y93.730 E245.99198
G1 X68.174 Y94.102 E246.05699
G1 X102.643 Y128.571 E249.32130
G1 X101.375 Y128.571 E249.40623
G1 X67.277 Y94.473 E252.63536
G1 X66.202 Y94.667 E252.70851
G1 X100.106 Y128.571 E255.91933
G1 X98.838 Y128.571 E256.00427
G1 X65.081 Y94.814 E259.20111
G1 X63.827 Y94.828 E259.28512
G1 X97.570 Y128.571 E262.48065
G1 X96.301 Y128.571 E262.56559
G1 X62.366 Y94.636 E265.77933
G1 X60.518 Y94.056 E265.90903
G1 X95.033 Y128.571 E269.17767
G1 X93.764 Y128.571 E269.26261
G1 X57.068 Y91.874 E272.73786
G1 X57.027 Y91.833 F15600.000
G1 X51.908 Y86.715 F2160.000 E273.22258
G1 X51.908 Y87.983 E273.30751
G1 X92.496 Y128.571 E277.15127
G1 X91.228 Y128.571 E277.23620
G1 X51.908 Y89.252 E280.95984
G1 X51.908 Y90.520 E281.04477
G1 X89.959 Y128.571 E284.64829
G1 X88.691 Y128.571 E284.73322
G1 X51.908 Y91.788 E288.21663
G1 X51.908 Y93.057 E288.30156
G1 X87.423 Y128.571 E291.66485
G1 X86.154 Y128.571 E291.74978
G1 X51.908 Y94.325 E294.99295
G1 X51.908 Y95.593 E295.07789
G1 X84.886 Y128.571 E298.20094
G1 X83.618 Y128.571 E298.28587
G1 X51.908 Y96.862 E301.28881
G1 X51.908 Y98.130 E301.37374
G1 X82.349 Y128.571 E304.25656
G1 X81.081 Y128.571 E304.34150
G1 X51.908 Y99.398 E307.10420
G1 X51.908 Y100.667 E307.18913
G1 X79.812 Y128.571 E309.83172
G1 X78.544 Y128.571 E309.91665
G1 X51.908 Y101.935 E312.43912
G1 X51.908 Y103.204 E312.52406
G1 X77.276 Y128.571 E314.92641
G1 X76.007 Y128.571 E315.01134
G1 X51.908 Y104.472 E317.29358
G1 X51.908 Y105.740 E317.37851
G1 X74.739 Y128.571 E319.54063
G1 X73.471 Y128.571 E319.62557
G1 X51.908 Y107.009 E321.66757
G1 X51.908 Y108.277 E321.75251
G1 X72.202 Y128.571 E323.67439
G1 X70.934 Y128.571 E323.75933
G1 X51.908 Y109.545 E325.56109
G1 X51.908 Y110.814 E325.64603
G1 X69.665 Y128.571 E327.32768
G1 X68.397 Y128.571 E327.41262
G1 X51.908 Y112.082 E328.97415
G1 X51.908 Y113.350 E329.05909
G1 X67.129 Y128.571 E330.50051
G1 X65.860 Y128.571 E330.58544
G1 X51.908 Y114.619 E331.90674
G1 X51.908 Y115.887 E331.99168
G1 X64.592 Y128.571 E333.19286
G1 X63.324 Y128.571 E333.27780
G1 X51.908 Y117.156 E334.35887
G1 X51.908 Y118.424 E334.44380
G1 X62.055 Y128.571 E335.40476
G1 X60.787 Y128.571 E335.48969
G1 X51.908 Y119.692 E336.33053
G1 X51.908 Y120.961 E336.41546
G1 X59.519 Y128.571 E337.13618
G1 X58.250 Y128.571 E337.22112
G1 X51.908 Y122.229 E337.82172
G1 X51.908 Y123.497 E337.90665
G1 X56.982 Y128.571 E338.38714
G1 X55.713 Y128.571 E338.47207
G1 X51.908 Y124.766 E338.83244
G1 X51.908 Y126.034 E338.91738
G1 X54.445 Y128.571 E339.15763
G1 X53.177 Y128.571 E339.24257
G1 X51.908 Y127.302 E339.36270
G1 X51.908 Y128.571 E339.44765
G1 X51.908 Y85.446 F15600.000
G1 X54.845 Y88.383 F2160.000 E339.72577
G1 X54.265 Y86.535 E339.85547
G1 X51.908 Y84.178 E340.07868
G1 X51.908 Y82.910 E340.16362
G1 X54.073 Y85.074 E340.36862
G1 X54.087 Y83.820 E340.45263
G1 X51.908 Y81.641 E340.65895
G1 X51.908 Y80.373 E340.74389
G1 X54.234 Y82.699 E340.96418
G1 X54.428 Y81.624 E341.03733
G1 X51.908 Y79.105 E341.27593
G1 X51.908 Y77.836 E341.36087
G1 X54.799 Y80.727 E341.63465
G1 X55.171 Y79.830 E341.69966
G1 X51.908 Y76.568 E342.00862
G1 X51.908 Y75.299 E342.09356
G1 X55.615 Y79.006 E342.44460
G1 X56.166 Y78.289 E342.50518
G1 X51.908 Y74.031 E342.90837
G1 X51.908 Y72.763 E342.99331
G1 X56.716 Y77.571 E343.44866
G1 X57.335 Y76.921 E343.50873
G1 X51.908 Y71.494 E344.02263
G1 X51.908 Y70.226 E344.10756
G1 X58.052 Y76.370 E344.68942
G1 X58.770 Y75.819 E344.75000
