; generated by Slic3r 0.9.9 on 2013-07-10 at 19:57:39

; layer_height = 0.4
; perimeters = 3
; top_solid_layers = 3
; bottom_solid_layers = 3
; fill_density = 0.4
; perimeter_speed = 30
; infill_speed = 60
; travel_speed = 130
; nozzle_diameter = 0.5
; filament_diameter = 2.92
; extrusion_multiplier = 1
; perimeters extrusion width = 0.50mm
; infill extrusion width = 0.50mm
; solid infill extrusion width = 0.50mm
; top infill extrusion width = 0.50mm
; first layer extrusion width = 1.00mm

G21 ; set units to millimeters
M190 S115 ; wait for bed temperature to be reached
M104 S230 ; set temperature
G28 ; home all axes
G1 Z5 F5000 ; lift nozzle
M109 S230 ; wait for temperature to be reached
G90 ; use absolute coordinates
G92 E0
M82 ; use absolute distances for extrusion
G1 F1800.000 E-1.20000
G92 E0
G1 Z-0.900 F7800.000
G1 X49.558 Y62.519
G1 F1800.000 E1.20000
G1 X50.048 Y62.149 F540.000 E1.24093
G1 X51.878 Y60.909 E1.38826
G1 X52.408 Y60.609 E1.42886
G1 X52.948 Y60.359 E1.46852
G1 X53.518 Y60.159 E1.50878
G1 X53.808 Y60.079 E1.52883
G1 X54.388 Y59.959 E1.56831
G1 X56.588 Y59.689 E1.71605
G1 X57.418 Y59.639 E1.77147
G1 X77.728 Y59.639 E3.12519
G1 X78.038 Y59.659 E3.14590
G1 X78.948 Y59.809 E3.20737
G1 X79.248 Y59.879 E3.22790
G1 X79.838 Y60.069 E3.26922
G1 X81.628 Y60.739 E3.39661
G1 X82.188 Y60.989 E3.43749
G1 X82.738 Y61.279 E3.47893
G1 X83.248 Y61.619 E3.51978
G1 X83.738 Y61.999 E3.56111
G1 X83.968 Y62.209 E3.58187
G1 X111.698 Y88.649 E6.13567
G1 X112.268 Y89.259 E6.19132
G1 X112.758 Y89.939 E6.24718
G1 X113.038 Y90.419 E6.28422
G1 X113.278 Y90.929 E6.32179
G1 X113.558 Y91.709 E6.37703
G1 X113.628 Y91.979 E6.39562
G1 X113.738 Y92.529 E6.43300
G1 X113.808 Y93.079 E6.46996
G1 X113.828 Y93.359 E6.48867
G1 X113.828 Y95.619 E6.63930
G1 X113.748 Y96.429 E6.69356
G1 X113.638 Y96.969 E6.73029
G1 X113.398 Y97.749 E6.78468
G1 X113.188 Y98.249 E6.82083
G1 X112.948 Y98.729 E6.85660
G1 X112.658 Y99.199 E6.89341
G1 X112.338 Y99.639 E6.92967
G1 X111.978 Y100.049 E6.96604
G1 X111.598 Y100.429 E7.00186
G1 X111.388 Y100.609 E7.02029
G1 X110.968 Y100.949 E7.05631
G1 X110.278 Y101.379 E7.11050
G1 X109.788 Y101.629 E7.14717
G1 X109.028 Y101.919 E7.20139
G1 X79.248 Y110.119 E9.26018
G1 X78.648 Y110.249 E9.30110
G1 X78.038 Y110.339 E9.34220
G1 X77.728 Y110.359 E9.36291
G1 X57.418 Y110.359 E10.71663
G1 X56.588 Y110.309 E10.77205
G1 X54.688 Y110.079 E10.89962
G1 X54.088 Y109.979 E10.94016
G1 X53.218 Y109.739 E11.00031
G1 X52.658 Y109.509 E11.04067
G1 X52.118 Y109.239 E11.08091
G1 X51.858 Y109.079 E11.10125
G1 X50.028 Y107.819 E11.24935
G1 X49.538 Y107.449 E11.29027
G1 X49.078 Y107.039 E11.33134
G1 X48.868 Y106.819 E11.35161
G1 X48.288 Y106.099 E11.41324
G1 X48.118 Y105.849 E11.43339
G1 X47.818 Y105.319 E11.47398
G1 X46.938 Y103.619 E11.60157
G1 X46.688 Y103.079 E11.64124
G1 X46.478 Y102.509 E11.68172
G1 X46.328 Y101.929 E11.72166
G1 X46.228 Y101.349 E11.76088
G1 X46.168 Y100.749 E11.80108
G1 X46.168 Y69.239 E13.90131
G1 X46.188 Y68.939 E13.92135
G1 X46.268 Y68.349 E13.96104
G1 X46.478 Y67.479 E14.02069
G1 X46.688 Y66.909 E14.06118
G1 X46.938 Y66.369 E14.10084
G1 X47.818 Y64.669 E14.22843
G1 X48.298 Y63.879 E14.29005
G1 X48.478 Y63.629 E14.31058
G1 X48.878 Y63.159 E14.35171
G1 X49.318 Y62.719 E14.39319
G1 X49.455 Y62.605 E14.40509
G1 F1800.000 E13.20509
G92 E0
G1 X51.264 Y64.819 F7800.000
G1 F1800.000 E1.20000
G1 X53.643 Y63.177 F540.000 E1.39263
G1 X54.555 Y62.831 E1.45766
G1 X57.060 Y62.527 E1.62588
G1 X57.303 Y62.512 E1.64205
G1 X60.106 Y62.512 E1.82889
G1 X62.459 Y64.865 E2.05071
G1 X62.459 Y81.164 E3.13706
G1 X60.959 Y82.664 E3.27846
G1 X60.959 Y95.483 E4.13287
G1 X72.925 Y95.483 E4.93042
G1 X72.925 Y82.664 E5.78484
G1 X71.425 Y81.164 E5.92623
G1 X71.425 Y64.865 E7.01259
G1 X73.778 Y62.512 E7.23441
G1 X77.789 Y62.512 E7.50176
G1 X78.507 Y62.644 E7.55042
G1 X81.095 Y63.625 E7.73487
G1 X81.898 Y64.179 E7.79990
G1 X83.814 Y66.342 E7.99253
G1 X84.267 Y67.206 E8.05755
G1 X84.900 Y69.775 E8.23386
G1 X84.959 Y70.257 E8.26626
G1 X84.959 Y89.631 E9.55762
G1 X102.979 Y89.631 E10.75868
G1 X103.281 Y89.276 E10.78982
G1 X105.452 Y89.102 E10.93496
G1 X105.810 Y88.797 E10.96631
G1 X109.127 Y89.063 E11.18813
G1 X111.933 Y92.358 E11.47659
G1 X111.761 Y94.500 E11.61981
G1 X111.933 Y96.642 E11.76302
G1 X109.127 Y99.937 E12.05149
G1 X105.810 Y100.203 E12.27331
G1 X104.830 Y99.369 E12.35914
G1 X84.959 Y99.369 E13.68358
G1 X84.959 Y99.743 E13.70854
G1 X84.900 Y100.225 E13.74093
G1 X84.267 Y102.794 E13.91725
G1 X83.814 Y103.658 E13.98227
G1 X81.898 Y105.821 E14.17489
G1 X81.095 Y106.375 E14.23992
G1 X78.507 Y107.356 E14.42438
G1 X77.789 Y107.488 E14.47304
G1 X57.303 Y107.488 E15.83851
G1 X57.060 Y107.473 E15.85469
G1 X54.555 Y107.169 E16.02290
G1 X53.643 Y106.823 E16.08793
G1 X51.264 Y105.181 E16.28056
G1 X50.618 Y104.451 E16.34558
G1 X49.274 Y101.892 E16.53821
G1 X49.041 Y100.945 E16.60324
G1 X49.041 Y69.055 E18.72881
G1 X49.274 Y68.108 E18.79383
G1 X50.618 Y65.549 E18.98646
G1 X51.176 Y64.919 E19.04256
G1 X51.861 Y65.492 F7800.000
G1 X54.061 Y63.973 F540.000 E19.22074
G1 X54.770 Y63.704 E19.27132
G1 X57.330 Y63.405 E19.44307
G1 X59.736 Y63.405 E19.60346
G1 X61.566 Y65.235 E19.77599
G1 X61.566 Y80.794 E20.81305
G1 X60.066 Y82.294 E20.95444
G1 X60.066 Y96.376 E21.89301
G1 X73.817 Y96.376 E22.80956
G1 X73.817 Y82.294 E23.74813
G1 X72.317 Y80.794 E23.88952
G1 X72.317 Y65.235 E24.92658
G1 X74.148 Y63.405 E25.09911
G1 X77.708 Y63.405 E25.33640
G1 X78.266 Y63.507 E25.37425
G1 X80.677 Y64.421 E25.54608
G1 X81.301 Y64.852 E25.59665
G1 X83.074 Y66.853 E25.77483
G1 X83.427 Y67.525 E25.82540
G1 X84.021 Y69.936 E25.99089
G1 X84.066 Y70.311 E26.01609
G1 X84.066 Y90.524 E27.36336
G1 X103.391 Y90.524 E28.65140
G1 X103.721 Y90.136 E28.68538
G1 X105.811 Y89.968 E28.82511
G1 X106.107 Y89.716 E28.85104
G1 X108.687 Y89.923 E29.02356
G1 X111.014 Y92.655 E29.26274
G1 X110.866 Y94.500 E29.38608
G1 X111.014 Y96.345 E29.50943
G1 X108.687 Y99.077 E29.74860
G1 X106.107 Y99.284 E29.92113
G1 X105.158 Y98.476 E30.00421
G1 X84.066 Y98.476 E31.41005
G1 X84.066 Y99.689 E31.49091
G1 X84.021 Y100.064 E31.51611
G1 X83.427 Y102.475 E31.68160
G1 X83.074 Y103.147 E31.73217
G1 X81.301 Y105.148 E31.91035
G1 X80.677 Y105.579 E31.96092
G1 X78.266 Y106.493 E32.13275
G1 X77.708 Y106.595 E32.17060
G1 X57.330 Y106.595 E33.52887
G1 X54.770 Y106.296 E33.70061
G1 X54.061 Y106.027 E33.75119
G1 X51.861 Y104.508 E33.92938
G1 X51.358 Y103.940 E33.97995
G1 X50.115 Y101.573 E34.15813
G1 X49.934 Y100.837 E34.20870
G1 X49.934 Y69.163 E36.31982
G1 X50.115 Y68.427 E36.37040
G1 X51.358 Y66.060 E36.54858
G1 X51.772 Y65.592 E36.59022
G1 X52.457 Y66.165 F7800.000
G1 X54.479 Y64.769 F540.000 E36.75396
G1 X54.986 Y64.577 E36.79009
G1 X57.222 Y64.306 E36.94025
G1 X59.366 Y64.297 E37.08318
G1 X60.674 Y65.605 E37.20641
G1 X60.674 Y80.424 E38.19418
G1 X59.366 Y81.732 E38.31741
G1 X59.174 Y81.732 E38.33025
G1 X59.174 Y97.268 E39.36581
G1 X74.710 Y97.268 E40.40136
G1 X74.710 Y81.732 E41.43691
G1 X74.517 Y81.732 E41.44976
G1 X73.210 Y80.424 E41.57299
G1 X73.210 Y65.605 E42.56076
G1 X74.517 Y64.297 E42.68399
G1 X77.627 Y64.297 E42.89124
G1 X78.026 Y64.371 E42.91827
G1 X80.259 Y65.217 E43.07746
G1 X80.705 Y65.525 E43.11359
G1 X82.334 Y67.364 E43.27732
G1 X82.586 Y67.844 E43.31344
G1 X83.141 Y70.097 E43.46811
G1 X83.174 Y70.365 E43.48610
G1 X83.174 Y91.250 E44.87816
G1 X83.815 Y91.417 E44.92231
G1 X103.803 Y91.417 E46.25462
G1 X104.161 Y90.996 E46.29143
G1 X106.004 Y90.848 E46.41466
G1 X106.079 Y90.912 E46.42124
G1 X106.405 Y90.635 E46.44969
G1 X108.247 Y90.783 E46.57292
G1 X110.094 Y92.953 E46.76281
G1 X109.970 Y94.500 E46.86628
G1 X110.094 Y96.047 E46.96976
G1 X108.247 Y98.217 E47.15964
G1 X106.405 Y98.365 E47.28287
G1 X105.487 Y97.583 E47.36321
G1 X83.174 Y97.583 E48.85045
G1 X83.174 Y99.635 E48.98721
G1 X83.141 Y99.903 E49.00520
G1 X82.586 Y102.156 E49.15987
G1 X82.334 Y102.636 E49.19599
G1 X80.705 Y104.475 E49.35972
G1 X80.259 Y104.783 E49.39585
G1 X78.026 Y105.629 E49.55504
G1 X77.627 Y105.703 E49.58208
G1 X57.357 Y105.703 E50.93314
G1 X54.986 Y105.423 E51.09228
G1 X54.479 Y105.231 E51.12841
G1 X52.457 Y103.835 E51.29214
G1 X52.098 Y103.430 E51.32826
G1 X50.956 Y101.255 E51.49199
G1 X50.826 Y100.728 E51.52812
G1 X50.826 Y69.272 E53.62479
G1 X50.956 Y68.746 E53.66091
G1 X52.098 Y66.570 E53.82465
G1 X52.368 Y66.265 E53.85184
G1 X53.053 Y66.838 F7800.000
G1 X54.897 Y65.566 F540.000 E54.00113
G1 X55.201 Y65.450 E54.02280
G1 X57.303 Y65.195 E54.16395
G1 X58.997 Y65.190 E54.27684
G1 X59.781 Y65.975 E54.35078
G1 X59.781 Y80.055 E55.28926
G1 X58.997 Y80.839 E55.36320
G1 X58.281 Y80.839 E55.41089
G1 X58.281 Y98.161 E56.56545
G1 X75.603 Y98.161 E57.72000
G1 X75.603 Y80.839 E58.87456
G1 X74.887 Y80.839 E58.92226
G1 X74.103 Y80.055 E58.99620
G1 X74.103 Y65.975 E59.93468
G1 X74.887 Y65.190 E60.00862
G1 X77.546 Y65.190 E60.18581
G1 X77.785 Y65.234 E60.20203
G1 X79.841 Y66.014 E60.34859
G1 X80.109 Y66.198 E60.37027
G1 X81.594 Y67.875 E60.51954
G1 X81.745 Y68.163 E60.54122
G1 X82.261 Y70.258 E60.68506
G1 X82.281 Y70.419 E60.69586
G1 X82.281 Y92.153 E62.14452
G1 X82.532 Y92.006 E62.16396
G1 X83.606 Y92.285 E62.23789
G1 X83.620 Y92.310 E62.23980
G1 X104.216 Y92.310 E63.61254
G1 X104.601 Y91.857 E63.65220
G1 X105.707 Y91.768 E63.72613
G1 X106.079 Y92.085 E63.75872
G1 X106.702 Y91.555 E63.81319
G1 X107.807 Y91.644 E63.88713
G1 X109.175 Y93.250 E64.02772
G1 X109.086 Y94.355 E64.10166
G1 X108.916 Y94.500 E64.11652
G1 X109.086 Y94.645 E64.13138
G1 X109.175 Y95.750 E64.20532
G1 X107.807 Y97.356 E64.34591
G1 X106.702 Y97.445 E64.41985
G1 X105.815 Y96.690 E64.49744
G1 X82.355 Y96.690 E66.06116
G1 X82.281 Y96.777 E66.06874
G1 X82.281 Y99.581 E66.25563
G1 X82.261 Y99.742 E66.26643
G1 X81.745 Y101.837 E66.41028
G1 X81.594 Y102.125 E66.43195
G1 X80.109 Y103.802 E66.58123
G1 X79.841 Y103.986 E66.60290
G1 X77.785 Y104.766 E66.74946
G1 X77.546 Y104.810 E66.76568
G1 X57.384 Y104.810 E68.10955
G1 X55.201 Y104.550 E68.25607
G1 X54.897 Y104.434 E68.27775
G1 X53.053 Y103.162 E68.42703
G1 X52.838 Y102.919 E68.44871
G1 X51.797 Y100.936 E68.59799
G1 X51.719 Y100.620 E68.61966
G1 X51.719 Y69.380 E70.70188
G1 X51.797 Y69.064 E70.72356
G1 X52.838 Y67.081 E70.87284
G1 X52.965 Y66.938 E70.88559
G1 X53.650 Y67.511 F7800.000
G1 X55.315 Y66.362 F540.000 E71.02042
G1 X55.416 Y66.323 E71.02765
G1 X57.384 Y66.084 E71.15977
G1 X58.627 Y66.083 E71.24263
G1 X58.888 Y66.344 E71.26727
G1 X58.888 Y79.685 E72.15646
G1 X58.627 Y79.946 E72.18111
G1 X57.388 Y79.946 E72.26366
G1 X57.388 Y99.054 E73.53722
G1 X76.496 Y99.054 E74.81078
G1 X76.496 Y79.946 E76.08434
G1 X75.257 Y79.946 E76.16689
G1 X74.996 Y79.685 E76.19153
G1 X74.996 Y66.344 E77.08072
G1 X75.257 Y66.083 E77.10537
G1 X77.465 Y66.083 E77.25251
G1 X77.544 Y66.097 E77.25792
G1 X79.423 Y66.810 E77.39185
G1 X79.512 Y66.872 E77.39907
G1 X80.854 Y68.386 E77.53390
G1 X80.904 Y68.482 E77.54112
G1 X81.382 Y70.419 E77.67415
G1 X81.388 Y92.903 E79.17273
G1 X81.740 Y93.202 E79.20352
G1 X82.258 Y93.202 E79.23804
G1 X82.666 Y92.963 E79.26955
G1 X83.023 Y93.056 E79.29420
G1 X83.109 Y93.202 E79.30552
G1 X104.628 Y93.202 E80.73980
G1 X105.041 Y92.717 E80.78230
G1 X105.410 Y92.687 E80.80695
G1 X106.015 Y93.202 E80.85991
G1 X106.144 Y93.202 E80.86850
G1 X106.999 Y92.474 E80.94334
G1 X107.367 Y92.504 E80.96798
G1 X108.255 Y93.547 E81.05928
G1 X108.226 Y93.915 E81.08393
G1 X107.539 Y94.500 E81.14403
G1 X108.226 Y95.085 E81.20413
G1 X108.255 Y95.453 E81.22878
G1 X107.367 Y96.496 E81.32008
G1 X106.999 Y96.526 E81.34472
G1 X106.144 Y95.798 E81.41957
G1 X81.942 Y95.798 E83.03267
G1 X81.388 Y96.449 E83.08964
G1 X81.388 Y99.527 E83.29483
G1 X80.904 Y101.518 E83.43142
G1 X80.854 Y101.614 E83.43865
G1 X79.512 Y103.128 E83.57348
G1 X79.423 Y103.190 E83.58070
G1 X77.544 Y103.903 E83.71463
G1 X77.465 Y103.917 E83.72004
G1 X57.411 Y103.917 E85.05670
G1 X55.416 Y103.677 E85.19061
G1 X55.315 Y103.638 E85.19784
G1 X53.650 Y102.489 E85.33267
G1 X53.578 Y102.408 E85.33990
G1 X52.638 Y100.617 E85.47473
G1 X52.612 Y100.511 E85.48195
G1 X52.612 Y69.489 E87.54972
G1 X52.638 Y69.383 E87.55695
G1 X53.566 Y67.615 E87.69008
G1 X54.292 Y68.152 F7800.000
G1 X55.686 Y67.190 F378.000 E87.80303
G1 X57.451 Y66.976 E87.92150
G1 X57.996 Y66.976 E87.95780
G1 X57.996 Y79.054 E88.76284
G1 X56.496 Y79.054 E88.86282
G1 X56.496 Y99.946 E90.25538
G1 X77.388 Y99.946 E91.64794
G1 X77.388 Y79.054 E93.04050
G1 X75.888 Y79.054 E93.14048
G1 X75.888 Y66.976 E93.94552
G1 X77.342 Y66.976 E94.04243
G1 X78.953 Y67.586 E94.15726
G1 X80.077 Y68.855 E94.27020
G1 X80.496 Y70.554 E94.38686
G1 X80.496 Y94.095 E95.95592
G1 X106.496 Y94.095 E97.68890
G1 X106.496 Y94.905 E97.74289
G1 X80.496 Y94.905 E99.47587
G1 X80.496 Y99.446 E99.77853
G1 X80.077 Y101.145 E99.89519
G1 X78.953 Y102.414 E100.00813
G1 X77.342 Y103.024 E100.12296
G1 X57.451 Y103.024 E101.44876
G1 X55.686 Y102.810 E101.56724
G1 X54.292 Y101.848 E101.68018
G1 X53.504 Y100.347 E101.79312
G1 X53.504 Y69.653 E103.83901
G1 X54.230 Y68.271 E103.94302
G1 X55.149 Y68.401 F7800.000
G1 X54.980 Y68.762
G1 X56.012 Y68.049 F540.000 E104.02664
G1 X57.103 Y67.917 E104.09984
G1 X57.103 Y78.161 E104.78263
G1 X55.603 Y78.161 E104.88261
G1 X55.603 Y100.839 E106.39417
G1 X78.281 Y100.839 E107.90573
G1 X78.281 Y78.161 E109.41730
G1 X76.781 Y78.161 E109.51728
G1 X76.781 Y67.717 E110.21337
G1 X78.431 Y68.343 E110.33097
G1 X79.263 Y69.282 E110.41458
G1 X79.603 Y70.663 E110.50936
G1 X79.603 Y99.337 E112.42061
G1 X79.263 Y100.718 E112.51539
G1 X79.155 Y100.839 E112.52617
G1 X79.268 Y100.839 E112.53365
G1 X79.353 Y101.307 E112.56536
G1 X78.431 Y101.657 E112.63113
G1 X78.281 Y101.826 E112.64619
G1 X78.281 Y101.714 E112.65367
G1 X77.179 Y102.132 E112.73225
G1 X57.505 Y102.132 E114.04356
G1 X56.012 Y101.951 E114.14377
G1 X55.597 Y101.664 E114.17739
G1 X55.249 Y101.750 E114.20132
G1 X54.980 Y101.238 E114.23985
G1 X54.770 Y101.093 E114.25686
G1 X54.820 Y100.933 E114.26804
G1 X54.397 Y100.127 E114.32868
G1 X54.397 Y69.873 E116.34523
G1 X54.918 Y68.881 E116.41992
G1 F1800.000 E115.21992
G92 E0
G1 X77.674 Y69.056 F7800.000
G1 F1800.000 E1.20000
G1 X78.269 Y68.983 F540.000 E1.24000
G1 X78.710 Y70.771 E1.36274
G1 X78.710 Y77.268 E1.79580
G1 X77.674 Y77.268 E1.86488
G1 X77.674 Y69.189 E2.40336
G1 F1800.000 E1.20336
G92 E0
G1 X96.192 Y94.500 F7800.000
G1 F1800.000 E1.20000
G1 X106.079 Y94.500 F540.000 E1.85903
G1 X106.329 Y94.287 E1.88092
G1 X106.079 Y94.500 F7800.000
G1 X106.329 Y94.713 F540.000 E1.90280
G1 X96.192 Y94.500 F7800.000
G1 X95.692 Y94.500 F540.000 E1.93613
G1 X95.692 Y94.500 F7800.000
G1 X88.692 Y94.500 F540.000 E2.40270
G1 X88.692 Y94.500 F7800.000
G1 X84.192 Y94.500 F540.000 E2.70264
G1 X84.192 Y94.500 F7800.000
G1 X83.192 Y94.500 F540.000 E2.76929
G1 X83.192 Y94.500 F7800.000
G1 X82.692 Y94.500 F540.000 E2.80262
G1 X82.692 Y94.500 F7800.000
G1 X82.192 Y94.500 F540.000 E2.83595
G1 X82.192 Y94.500 F7800.000
G1 X82.192 Y94.500 F1800.000
G1 X82.192 Y94.500 F7800.000
G1 X81.804 Y94.500 F540.000 E2.86178
G1 X81.692 Y94.632 F7800.000
G1 X81.804 Y94.500 F540.000 E2.87334
G1 X81.554 Y94.287 E2.89522
G1 X81.692 Y94.632 F7800.000
G1 X81.554 Y94.713 F540.000 E2.90586
G1 F1800.000 E1.70586
G92 E0
G1 X57.544 Y101.486 F7800.000
G1 F1800.000 E1.20000
G1 X77.060 Y101.485 F360.000 E1.82840
G1 X78.927 Y99.377 F7800.000
G1 X78.957 Y98.702 F360.000 E1.85355
G1 X78.927 Y98.673 E1.85510
G1 X78.957 Y97.997 E1.88024
G1 X78.927 Y97.968 E1.88179
G1 X78.957 Y97.293 E1.90694
G1 X78.927 Y97.263 E1.90849
G1 X78.927 Y96.559 E1.93470
G1 X78.927 Y92.436 F7800.000
G1 X78.957 Y91.859 F360.000 E1.95319
G1 X78.927 Y91.830 E1.95452
G1 X78.957 Y91.253 E1.97301
G1 X78.927 Y91.224 E1.97435
G1 X78.957 Y90.647 E1.99284
G1 X78.927 Y90.617 E1.99417
G1 X78.957 Y90.041 E2.01266
G1 X78.927 Y90.011 E2.01399
G1 X78.957 Y89.434 E2.03248
G1 X78.927 Y89.405 E2.03381
G1 X78.957 Y88.828 E2.05230
G1 X78.927 Y88.799 E2.05363
G1 X78.957 Y88.222 E2.07212
G1 X78.927 Y88.192 E2.07345
G1 X78.957 Y87.615 E2.09194
G1 X78.927 Y87.586 E2.09327
G1 X78.957 Y87.009 E2.11176
G1 X78.927 Y86.980 E2.11309
G1 X78.957 Y86.403 E2.13158
G1 X78.927 Y86.373 E2.13292
G1 X78.957 Y85.797 E2.15141
