; generated by Slic3r 0.9.9 on 2013-07-19 at 16:34:30

; layer_height = 0.25
; perimeters = 3
; top_solid_layers = 3
; bottom_solid_layers = 3
; fill_density = 0.4
; perimeter_speed = 30
; infill_speed = 60
; travel_speed = 130
; nozzle_diameter = 0.5
; filament_diameter = 2.96
; extrusion_multiplier = 1
; perimeters extrusion width = 0.50mm
; infill extrusion width = 0.50mm
; solid infill extrusion width = 0.50mm
; top infill extrusion width = 0.50mm
; first layer extrusion width = 0.60mm

G21 ; set units to millimeters
M107
M190 S115 ; wait for bed temperature to be reached
M104 S240 ; set temperature
G28 ; home all axes
G1 Z5 F5000 ; lift nozzle
M109 S240 ; wait for temperature to be reached
G90 ; use absolute coordinates
G92 E0
M82 ; use absolute distances for extrusion
G1 F1800.000 E-1.40000
G92 E0
G1 Z-2.900 F7800.000
G1 X57.861 Y60.480
G1 F1800.000 E1.40000
G1 X58.281 Y60.090 F540.000 E1.41927
G1 X58.971 Y59.560 E1.44853
G1 X59.461 Y59.250 E1.46803
G1 X59.971 Y58.980 E1.48744
G1 X60.241 Y58.860 E1.49738
G1 X60.501 Y58.750 E1.50687
G1 X61.051 Y58.560 E1.52644
G1 X61.611 Y58.410 E1.54594
G1 X62.461 Y58.260 E1.57496
G1 X63.041 Y58.220 E1.59451
G1 X96.661 Y58.210 E2.72514
G1 X97.531 Y58.260 E2.75444
G1 X98.381 Y58.410 E2.78347
G1 X99.211 Y58.650 E2.81252
G1 X99.491 Y58.750 E2.82252
G1 X100.021 Y58.980 E2.84195
G1 X100.781 Y59.400 E2.87115
G1 X101.481 Y59.900 E2.90008
G1 X102.131 Y60.480 E2.92938
G1 X102.521 Y60.900 E2.94865
G1 X102.711 Y61.130 E2.95869
G1 X103.211 Y61.830 E2.98762
G1 X103.631 Y62.590 E3.01682
G1 X103.861 Y63.120 E3.03625
G1 X104.051 Y63.670 E3.05582
G1 X104.261 Y64.510 E3.08493
G1 X104.351 Y65.080 E3.10434
G1 X104.391 Y65.660 E3.12389
G1 X104.401 Y104.050 E4.41493
G1 X104.351 Y104.920 E4.44423
G1 X104.201 Y105.770 E4.47326
G1 X103.961 Y106.600 E4.50232
G1 X103.861 Y106.880 E4.51231
G1 X103.631 Y107.410 E4.53174
G1 X103.211 Y108.170 E4.56095
G1 X102.711 Y108.870 E4.58987
G1 X102.131 Y109.520 E4.61917
G1 X101.711 Y109.910 E4.63845
G1 X101.481 Y110.100 E4.64848
G1 X100.781 Y110.600 E4.67741
G1 X100.021 Y111.020 E4.70661
G1 X99.491 Y111.250 E4.72604
G1 X98.941 Y111.440 E4.74561
G1 X98.101 Y111.650 E4.77473
G1 X97.531 Y111.740 E4.79413
G1 X96.951 Y111.780 E4.81368
G1 X63.331 Y111.790 E5.94431
G1 X62.461 Y111.740 E5.97361
G1 X61.611 Y111.590 E6.00264
G1 X60.781 Y111.350 E6.03169
G1 X60.501 Y111.250 E6.04169
G1 X59.971 Y111.020 E6.06112
G1 X59.211 Y110.600 E6.09032
G1 X58.511 Y110.100 E6.11925
G1 X57.861 Y109.520 E6.14855
G1 X57.471 Y109.100 E6.16782
G1 X57.281 Y108.870 E6.17786
G1 X56.781 Y108.170 E6.20679
G1 X56.361 Y107.410 E6.23599
G1 X56.131 Y106.880 E6.25542
G1 X55.941 Y106.330 E6.27499
G1 X55.731 Y105.490 E6.30410
G1 X55.641 Y104.920 E6.32351
G1 X55.601 Y104.340 E6.34306
G1 X55.591 Y65.950 E7.63410
G1 X55.641 Y65.080 E7.66340
G1 X55.731 Y64.510 E7.68281
G1 X55.941 Y63.670 E7.71193
G1 X56.131 Y63.120 E7.73150
G1 X56.361 Y62.590 E7.75093
G1 X56.781 Y61.830 E7.78013
G1 X57.281 Y61.130 E7.80906
G1 X57.801 Y60.543 E7.83544
G1 X58.171 Y60.990 F7800.000
G1 X58.781 Y60.430 F540.000 E7.86328
G1 X59.211 Y60.100 E7.88151
G1 X59.441 Y59.940 E7.89093
G1 X59.911 Y59.660 E7.90933
G1 X60.401 Y59.420 E7.92768
G1 X60.911 Y59.210 E7.94623
G1 X61.701 Y58.980 E7.97390
G1 X61.971 Y58.920 E7.98320
G1 X62.781 Y58.810 E8.01069
G1 X63.331 Y58.790 E8.02920
G1 X96.661 Y58.790 E9.15007
G1 X97.211 Y58.810 E9.16858
G1 X98.021 Y58.920 E9.19607
G1 X98.561 Y59.050 E9.21475
G1 X99.081 Y59.210 E9.23304
G1 X99.591 Y59.420 E9.25159
G1 X100.081 Y59.660 E9.26994
G1 X100.321 Y59.800 E9.27928
G1 X100.551 Y59.940 E9.28834
G1 X101.001 Y60.260 E9.30691
G1 X101.621 Y60.790 E9.33434
G1 X102.001 Y61.190 E9.35289
G1 X102.351 Y61.610 E9.37128
G1 X102.671 Y62.060 E9.38985
G1 X102.951 Y62.530 E9.40825
G1 X103.301 Y63.270 E9.43577
G1 X103.401 Y63.530 E9.44514
G1 X103.631 Y64.320 E9.47281
G1 X103.691 Y64.590 E9.48211
G1 X103.801 Y65.400 E9.50960
G1 X103.821 Y65.950 E9.52811
G1 X103.821 Y104.050 E10.80940
G1 X103.801 Y104.600 E10.82790
G1 X103.691 Y105.410 E10.85539
G1 X103.561 Y105.950 E10.87407
G1 X103.401 Y106.470 E10.89237
G1 X103.191 Y106.980 E10.91092
G1 X102.951 Y107.470 E10.92927
G1 X102.811 Y107.710 E10.93861
G1 X102.671 Y107.940 E10.94766
G1 X102.351 Y108.390 E10.96623
G1 X101.821 Y109.010 E10.99366
G1 X101.421 Y109.390 E11.01222
G1 X101.001 Y109.740 E11.03060
G1 X100.551 Y110.060 E11.04917
G1 X100.081 Y110.340 E11.06757
G1 X99.341 Y110.690 E11.09510
G1 X99.081 Y110.790 E11.10447
G1 X98.291 Y111.020 E11.13214
G1 X98.021 Y111.080 E11.14144
G1 X97.211 Y111.190 E11.16893
G1 X96.661 Y111.210 E11.18744
G1 X63.331 Y111.210 E12.30831
G1 X62.781 Y111.190 E12.32682
G1 X61.971 Y111.080 E12.35431
G1 X61.431 Y110.950 E12.37299
G1 X60.911 Y110.790 E12.39128
G1 X60.401 Y110.580 E12.40983
G1 X59.911 Y110.340 E12.42818
G1 X59.671 Y110.200 E12.43752
G1 X59.441 Y110.060 E12.44658
G1 X58.991 Y109.740 E12.46515
G1 X58.371 Y109.210 E12.49258
G1 X57.991 Y108.810 E12.51113
G1 X57.641 Y108.390 E12.52952
G1 X57.321 Y107.940 E12.54809
G1 X57.041 Y107.470 E12.56649
G1 X56.691 Y106.730 E12.59401
G1 X56.591 Y106.470 E12.60338
G1 X56.361 Y105.680 E12.63105
G1 X56.301 Y105.410 E12.64035
G1 X56.191 Y104.600 E12.66784
G1 X56.171 Y104.050 E12.68635
G1 X56.171 Y65.950 E13.96764
G1 X56.191 Y65.400 E13.98614
G1 X56.301 Y64.590 E14.01363
G1 X56.431 Y64.050 E14.03231
G1 X56.591 Y63.530 E14.05061
G1 X56.691 Y63.270 E14.05998
G1 X57.041 Y62.530 E14.08751
G1 X57.321 Y62.060 E14.10590
G1 X57.641 Y61.610 E14.12447
G1 X58.113 Y61.055 E14.14899
G1 X58.591 Y61.390 F7800.000
G1 X59.171 Y60.850 F540.000 E14.17564
G1 X59.381 Y60.690 E14.18451
G1 X59.811 Y60.390 E14.20215
G1 X60.271 Y60.120 E14.22008
G1 X61.001 Y59.800 E14.24689
G1 X61.501 Y59.630 E14.26465
G1 X62.011 Y59.500 E14.28235
G1 X62.801 Y59.390 E14.30917
G1 X63.331 Y59.370 E14.32701
G1 X96.661 Y59.370 E15.44788
G1 X97.191 Y59.390 E15.46571
G1 X97.451 Y59.420 E15.47452
G1 X97.981 Y59.500 E15.49254
G1 X98.231 Y59.560 E15.50119
G1 X98.991 Y59.800 E15.52799
G1 X99.721 Y60.120 E15.55479
G1 X100.181 Y60.390 E15.57273
G1 X100.821 Y60.850 E15.59924
G1 X101.221 Y61.210 E15.61734
G1 X101.761 Y61.790 E15.64399
G1 X102.221 Y62.430 E15.67049
G1 X102.491 Y62.890 E15.68843
G1 X102.711 Y63.370 E15.70619
G1 X102.901 Y63.870 E15.72417
G1 X103.111 Y64.630 E15.75069
G1 X103.221 Y65.420 E15.77751
G1 X103.241 Y65.950 E15.79535
G1 X103.241 Y104.050 E17.07663
G1 X103.221 Y104.580 E17.09447
G1 X103.191 Y104.840 E17.10327
G1 X103.111 Y105.370 E17.12130
G1 X103.051 Y105.620 E17.12994
G1 X102.811 Y106.380 E17.15674
G1 X102.491 Y107.110 E17.18355
G1 X102.221 Y107.570 E17.20149
G1 X101.761 Y108.210 E17.22799
G1 X101.401 Y108.610 E17.24609
G1 X100.821 Y109.150 E17.27274
G1 X100.401 Y109.460 E17.29029
G1 X99.951 Y109.750 E17.30830
G1 X99.721 Y109.880 E17.31718
G1 X99.241 Y110.100 E17.33494
G1 X98.741 Y110.290 E17.35293
G1 X98.231 Y110.440 E17.37080
G1 X97.981 Y110.500 E17.37945
G1 X97.191 Y110.610 E17.40627
G1 X96.661 Y110.630 E17.42411
G1 X63.331 Y110.630 E18.54498
G1 X62.801 Y110.610 E18.56282
G1 X62.541 Y110.580 E18.57162
G1 X62.011 Y110.500 E18.58964
G1 X61.761 Y110.440 E18.59829
G1 X61.001 Y110.200 E18.62509
G1 X60.271 Y109.880 E18.65190
G1 X59.811 Y109.610 E18.66983
G1 X59.171 Y109.150 E18.69634
G1 X58.771 Y108.790 E18.71444
G1 X58.231 Y108.210 E18.74109
G1 X57.771 Y107.570 E18.76759
G1 X57.501 Y107.110 E18.78553
G1 X57.281 Y106.630 E18.80329
G1 X57.091 Y106.130 E18.82128
G1 X56.881 Y105.370 E18.84779
G1 X56.771 Y104.580 E18.87462
G1 X56.751 Y104.050 E18.89245
G1 X56.751 Y65.950 E20.17373
G1 X56.771 Y65.420 E20.19157
G1 X56.881 Y64.630 E20.21839
G1 X57.011 Y64.120 E20.23609
G1 X57.181 Y63.620 E20.25385
G1 X57.501 Y62.890 E20.28066
G1 X57.771 Y62.430 E20.29860
G1 X58.231 Y61.790 E20.32510
G1 X58.533 Y61.455 E20.34028
G1 F1800.000 E18.94028
G92 E0
G1 X66.765 Y83.271 F7800.000
G1 F1800.000 E1.40000
G1 X69.422 Y83.271 F540.000 E1.48936
G1 X69.422 Y83.669 E1.50275
G1 X69.318 Y84.073 E1.51678
G1 X69.265 Y84.383 E1.52733
G1 X69.222 Y85.000 E1.54815
G1 X69.265 Y85.617 E1.56896
G1 X69.318 Y85.927 E1.57952
G1 X69.422 Y86.331 E1.59355
G1 X69.422 Y90.021 E1.71766
G1 X74.703 Y90.021 E1.89523
G1 X74.703 Y86.331 E2.01935
G1 X74.807 Y85.927 E2.03338
G1 X74.860 Y85.617 E2.04394
G1 X74.903 Y85.000 E2.06475
G1 X74.860 Y84.383 E2.08556
G1 X74.807 Y84.073 E2.09612
G1 X74.703 Y83.669 E2.11015
G1 X74.703 Y83.271 E2.12353
G1 X77.360 Y83.271 E2.21289
G1 X77.360 Y83.669 E2.22628
G1 X77.256 Y84.073 E2.24031
G1 X77.202 Y84.383 E2.25087
G1 X77.159 Y85.000 E2.27168
G1 X77.202 Y85.617 E2.29249
G1 X77.256 Y85.927 E2.30305
G1 X77.360 Y86.331 E2.31708
G1 X77.360 Y90.021 E2.44119
G1 X82.640 Y90.021 E2.61876
G1 X82.640 Y86.331 E2.74288
G1 X82.744 Y85.927 E2.75691
G1 X82.798 Y85.617 E2.76747
G1 X82.841 Y85.000 E2.78828
G1 X82.798 Y84.383 E2.80909
G1 X82.744 Y84.073 E2.81965
G1 X82.640 Y83.669 E2.83368
G1 X82.640 Y83.271 E2.84706
G1 X85.297 Y83.271 E2.93643
G1 X85.297 Y83.669 E2.94981
G1 X85.193 Y84.073 E2.96384
G1 X85.140 Y84.383 E2.97440
G1 X85.097 Y85.000 E2.99521
G1 X85.140 Y85.617 E3.01602
G1 X85.193 Y85.927 E3.02658
G1 X85.297 Y86.331 E3.04061
G1 X85.297 Y90.021 E3.16472
G1 X90.578 Y90.021 E3.34229
G1 X90.578 Y86.331 E3.46641
G1 X90.682 Y85.927 E3.48044
G1 X90.735 Y85.617 E3.49100
G1 X90.778 Y85.000 E3.51181
G1 X90.735 Y84.383 E3.53262
G1 X90.682 Y84.073 E3.54318
G1 X90.578 Y83.669 E3.55721
G1 X90.578 Y83.271 E3.57059
G1 X93.235 Y83.271 E3.65996
G1 X93.235 Y83.669 E3.67334
G1 X93.131 Y84.073 E3.68738
G1 X93.077 Y84.383 E3.69793
G1 X93.034 Y85.000 E3.71874
G1 X93.077 Y85.617 E3.73955
G1 X93.131 Y85.927 E3.75011
G1 X93.235 Y86.331 E3.76414
G1 X93.235 Y90.021 E3.88826
G1 X95.222 Y90.021 E3.95509
G1 X95.222 Y102.604 E4.37823
G1 X64.778 Y102.604 E5.40207
G1 X64.778 Y90.021 E5.82521
G1 X66.765 Y90.021 E5.89205
G1 X66.765 Y86.331 E6.01616
G1 X66.869 Y85.927 E6.03019
G1 X66.923 Y85.617 E6.04075
G1 X66.966 Y85.000 E6.06156
G1 X66.923 Y84.383 E6.08237
G1 X66.869 Y84.073 E6.09293
G1 X66.765 Y83.669 E6.10696
G1 X66.765 Y83.358 E6.11743
G1 X66.187 Y83.757 F7800.000
G1 X66.187 Y82.693 F540.000 E6.15321
G1 X70.001 Y82.693 E6.28148
G1 X70.001 Y83.757 E6.31726
G1 X69.885 Y84.191 E6.33238
G1 X69.838 Y84.462 E6.34164
G1 X69.800 Y85.000 E6.35976
G1 X69.838 Y85.538 E6.37789
G1 X69.885 Y85.809 E6.38715
G1 X70.001 Y86.243 E6.40227
G1 X70.001 Y89.443 E6.50986
G1 X74.124 Y89.443 E6.64852
G1 X74.124 Y86.243 E6.75612
G1 X74.240 Y85.809 E6.77124
G1 X74.287 Y85.538 E6.78050
G1 X74.325 Y85.000 E6.79862
G1 X74.287 Y84.462 E6.81675
G1 X74.240 Y84.191 E6.82601
G1 X74.124 Y83.757 E6.84112
G1 X74.124 Y82.693 E6.87690
G1 X77.938 Y82.693 E7.00518
G1 X77.938 Y83.757 E7.04096
G1 X77.823 Y84.191 E7.05608
G1 X77.775 Y84.462 E7.06534
G1 X77.738 Y85.000 E7.08346
G1 X77.775 Y85.538 E7.10159
G1 X77.823 Y85.809 E7.11085
G1 X77.938 Y86.243 E7.12596
G1 X77.938 Y89.443 E7.23356
G1 X82.062 Y89.443 E7.37222
G1 X82.062 Y86.243 E7.47982
G1 X82.177 Y85.809 E7.49494
G1 X82.225 Y85.538 E7.50420
G1 X82.262 Y85.000 E7.52232
G1 X82.225 Y84.462 E7.54045
G1 X82.177 Y84.191 E7.54971
G1 X82.062 Y83.757 E7.56482
G1 X82.062 Y82.693 E7.60060
G1 X85.876 Y82.693 E7.72888
G1 X85.876 Y83.757 E7.76466
G1 X85.760 Y84.191 E7.77978
G1 X85.713 Y84.462 E7.78903
G1 X85.675 Y85.000 E7.80716
G1 X85.713 Y85.538 E7.82528
G1 X85.760 Y85.809 E7.83454
G1 X85.876 Y86.243 E7.84966
G1 X85.876 Y89.443 E7.95726
G1 X89.999 Y89.443 E8.09592
G1 X89.999 Y86.243 E8.20352
G1 X90.115 Y85.809 E8.21863
G1 X90.162 Y85.538 E8.22790
G1 X90.200 Y85.000 E8.24602
G1 X90.162 Y84.462 E8.26414
G1 X90.115 Y84.191 E8.27340
G1 X89.999 Y83.757 E8.28852
G1 X89.999 Y82.693 E8.32430
G1 X93.813 Y82.693 E8.45257
G1 X93.813 Y83.757 E8.48835
G1 X93.698 Y84.191 E8.50347
G1 X93.650 Y84.462 E8.51273
G1 X93.613 Y85.000 E8.53086
G1 X93.650 Y85.538 E8.54898
G1 X93.698 Y85.809 E8.55824
G1 X93.813 Y86.243 E8.57336
G1 X93.813 Y89.443 E8.68096
G1 X95.801 Y89.443 E8.74780
G1 X95.801 Y103.182 E9.20984
G1 X64.199 Y103.182 E10.27260
G1 X64.199 Y89.443 E10.73465
G1 X66.187 Y89.443 E10.80148
G1 X66.187 Y86.243 E10.90908
G1 X66.302 Y85.809 E10.92420
G1 X66.350 Y85.538 E10.93346
G1 X66.387 Y85.000 E10.95158
G1 X66.350 Y84.462 E10.96971
G1 X66.212 Y83.840 E10.99115
G1 X65.652 Y83.987 F7800.000
G1 X65.608 Y83.844 F378.000 E10.99620
G1 X65.608 Y82.114 E11.05437
G1 X70.579 Y82.114 E11.22156
G1 X70.579 Y83.844 E11.27973
G1 X70.452 Y84.309 E11.29594
G1 X70.411 Y84.542 E11.30390
G1 X70.379 Y85.000 E11.31934
G1 X70.411 Y85.458 E11.33478
G1 X70.452 Y85.691 E11.34274
G1 X70.579 Y86.156 E11.35894
G1 X70.579 Y88.864 E11.45003
G1 X73.546 Y88.864 E11.54977
G1 X73.546 Y86.156 E11.64086
G1 X73.673 Y85.691 E11.65706
G1 X73.714 Y85.458 E11.66502
G1 X73.746 Y85.000 E11.68046
G1 X73.714 Y84.542 E11.69590
G1 X73.673 Y84.309 E11.70386
G1 X73.546 Y83.844 E11.72006
G1 X73.546 Y82.114 E11.77824
G1 X78.517 Y82.114 E11.94543
G1 X78.517 Y83.844 E12.00360
G1 X78.389 Y84.309 E12.01981
G1 X78.349 Y84.542 E12.02777
G1 X78.317 Y85.000 E12.04321
G1 X78.349 Y85.458 E12.05864
G1 X78.389 Y85.691 E12.06661
G1 X78.517 Y86.156 E12.08281
G1 X78.517 Y88.864 E12.17389
G1 X81.483 Y88.864 E12.27364
G1 X81.483 Y86.156 E12.36472
G1 X81.611 Y85.691 E12.38093
G1 X81.651 Y85.458 E12.38889
G1 X81.683 Y85.000 E12.40433
G1 X81.651 Y84.542 E12.41977
G1 X81.611 Y84.309 E12.42773
G1 X81.483 Y83.844 E12.44393
G1 X81.483 Y82.114 E12.50211
G1 X86.454 Y82.114 E12.66929
G1 X86.454 Y83.844 E12.72747
G1 X86.327 Y84.309 E12.74367
G1 X86.286 Y84.542 E12.75164
G1 X86.254 Y85.000 E12.76707
G1 X86.286 Y85.458 E12.78251
G1 X86.327 Y85.691 E12.79047
G1 X86.454 Y86.156 E12.80668
G1 X86.454 Y88.864 E12.89776
G1 X89.421 Y88.864 E12.99751
G1 X89.421 Y86.156 E13.08859
G1 X89.548 Y85.691 E13.10479
G1 X89.589 Y85.458 E13.11276
G1 X89.621 Y85.000 E13.12819
G1 X89.589 Y84.542 E13.14363
G1 X89.548 Y84.309 E13.15160
G1 X89.421 Y83.844 E13.16780
G1 X89.421 Y82.114 E13.22597
G1 X94.392 Y82.114 E13.39316
G1 X94.392 Y83.844 E13.45134
G1 X94.264 Y84.309 E13.46754
G1 X94.224 Y84.542 E13.47550
G1 X94.192 Y85.000 E13.49094
G1 X94.224 Y85.458 E13.50638
G1 X94.264 Y85.691 E13.51434
G1 X94.392 Y86.156 E13.53055
G1 X94.392 Y88.864 E13.62163
G1 X96.379 Y88.864 E13.68847
G1 X96.379 Y103.761 E14.18943
G1 X63.621 Y103.761 E15.29109
G1 X63.621 Y88.864 E15.79205
G1 X65.608 Y88.864 E15.85889
G1 X65.608 Y86.156 E15.94998
G1 X65.736 Y85.691 E15.96618
G1 X65.776 Y85.458 E15.97414
G1 X65.808 Y85.000 E15.98958
G1 X65.776 Y84.542 E16.00502
G1 X65.678 Y84.070 E16.02122
G1 X65.757 Y83.880 F7800.000
G1 F1800.000 E14.62122
G92 E0
G1 X64.778 Y79.979 F7800.000
G1 F1800.000 E1.40000
G1 X64.778 Y67.396 F540.000 E1.82314
G1 X95.222 Y67.396 E2.84698
G1 X95.222 Y79.979 E3.27011
G1 X64.864 Y79.979 E4.29104
G1 X64.199 Y80.557 F7800.000
G1 X64.199 Y66.818 F540.000 E4.75309
G1 X95.801 Y66.818 E5.81584
G1 X95.801 Y80.557 E6.27789
G1 X64.286 Y80.557 E7.33772
G1 X64.629 Y81.136 F7800.000
G1 X64.629 Y83.945 F378.000 E7.43221
G1 X64.769 Y84.426 E7.44906
G1 X64.803 Y84.622 E7.45572
G1 X64.829 Y85.000 E7.46847
G1 X64.803 Y85.378 E7.48123
G1 X64.769 Y85.573 E7.48789
G1 X64.629 Y86.055 E7.50473
G1 X64.629 Y87.886 E7.56631
G1 X63.621 Y87.886 E7.60024
G1 X63.621 Y66.239 E8.32820
G1 X96.379 Y66.239 E9.42987
G1 X96.379 Y87.886 E10.15783
G1 X95.371 Y87.886 E10.19176
G1 X95.371 Y86.055 E10.25334
G1 X95.231 Y85.574 E10.27018
G1 X95.197 Y85.378 E10.27685
G1 X95.171 Y85.000 E10.28960
G1 X95.197 Y84.622 E10.30235
G1 X95.231 Y84.427 E10.30902
G1 X95.371 Y83.945 E10.32586
G1 X95.371 Y81.136 E10.42035
G1 X88.442 Y81.136 E10.65335
G1 X88.442 Y83.945 E10.74784
G1 X88.581 Y84.426 E10.76468
G1 X88.615 Y84.622 E10.77135
G1 X88.642 Y85.000 E10.78410
G1 X88.615 Y85.378 E10.79685
G1 X88.581 Y85.573 E10.80352
G1 X88.442 Y86.055 E10.82036
G1 X88.442 Y87.886 E10.88194
G1 X87.433 Y87.886 E10.91587
G1 X87.433 Y86.055 E10.97745
G1 X87.294 Y85.574 E10.99430
G1 X87.260 Y85.378 E11.00096
G1 X87.233 Y85.000 E11.01371
G1 X87.260 Y84.622 E11.02646
G1 X87.294 Y84.427 E11.03313
G1 X87.433 Y83.945 E11.04997
G1 X87.433 Y81.136 E11.14446
G1 X80.504 Y81.136 E11.37746
G1 X80.504 Y83.945 E11.47195
G1 X80.644 Y84.426 E11.48880
G1 X80.678 Y84.622 E11.49546
