; generated by Slic3r 0.9.9 on 2013-07-19 at 18:44:30

; layer_height = 0.25
; perimeters = 2
; top_solid_layers = 3
; bottom_solid_layers = 3
; fill_density = 0.4
; perimeter_speed = 30
; infill_speed = 60
; travel_speed = 130
; nozzle_diameter = 0.5
; filament_diameter = 2.96
; extrusion_multiplier = 1
; perimeters extrusion width = 0.50mm
; infill extrusion width = 0.50mm
; solid infill extrusion width = 0.50mm
; top infill extrusion width = 0.50mm
; first layer extrusion width = 0.60mm

G21 ; set units to millimeters
M107
M190 S115 ; wait for bed temperature to be reached
M104 S240 ; set temperature
G28 ; home all axes
G1 Z5 F5000 ; lift nozzle
M109 S240 ; wait for temperature to be reached
G90 ; use absolute coordinates
G92 E0
M82 ; use absolute distances for extrusion
G1 F1800.000 E-1.40000
G92 E0
G1 Z-2.900 F7800.000
G1 X54.950 Y65.640
G1 F1800.000 E1.40000
G1 X55.180 Y65.450 F540.000 E1.41003
G1 X55.880 Y64.950 E1.43896
G1 X56.640 Y64.530 E1.46816
G1 X57.170 Y64.300 E1.48759
G1 X57.720 Y64.110 E1.50716
G1 X58.560 Y63.900 E1.53628
G1 X59.130 Y63.810 E1.55569
G1 X60.000 Y63.760 E1.58499
G1 X100.000 Y63.760 E2.93017
G1 X100.870 Y63.810 E2.95948
G1 X101.150 Y63.850 E2.96899
G1 X101.720 Y63.960 E2.98851
G1 X102.280 Y64.110 E3.00801
G1 X102.830 Y64.300 E3.02758
G1 X103.360 Y64.530 E3.04701
G1 X103.870 Y64.800 E3.06641
G1 X104.360 Y65.110 E3.08591
G1 X105.050 Y65.640 E3.11517
G1 X105.670 Y66.240 E3.14419
G1 X106.050 Y66.680 E3.16374
G1 X106.390 Y67.140 E3.18297
G1 X106.700 Y67.630 E3.20247
G1 X106.970 Y68.140 E3.22188
G1 X107.090 Y68.410 E3.23182
G1 X107.200 Y68.670 E3.24131
G1 X107.390 Y69.220 E3.26088
G1 X107.540 Y69.780 E3.28037
G1 X107.650 Y70.350 E3.29990
G1 X107.690 Y70.630 E3.30941
G1 X107.730 Y71.210 E3.32896
G1 X107.730 Y98.790 E4.25646
G1 X107.690 Y99.370 E4.27601
G1 X107.650 Y99.650 E4.28552
G1 X107.540 Y100.220 E4.30505
G1 X107.390 Y100.780 E4.32454
G1 X107.200 Y101.330 E4.34411
G1 X106.970 Y101.860 E4.36354
G1 X106.700 Y102.370 E4.38295
G1 X106.390 Y102.860 E4.40245
G1 X105.860 Y103.550 E4.43171
G1 X105.260 Y104.170 E4.46072
G1 X104.820 Y104.550 E4.48027
G1 X104.360 Y104.890 E4.49951
G1 X103.870 Y105.200 E4.51901
G1 X103.360 Y105.470 E4.53841
G1 X103.090 Y105.590 E4.54835
G1 X102.830 Y105.700 E4.55785
G1 X102.280 Y105.890 E4.57741
G1 X101.720 Y106.040 E4.59691
G1 X101.150 Y106.150 E4.61643
G1 X100.870 Y106.190 E4.62594
G1 X100.290 Y106.230 E4.64550
G1 X60.000 Y106.240 E6.00043
G1 X59.130 Y106.190 E6.02973
G1 X58.850 Y106.150 E6.03925
G1 X58.280 Y106.040 E6.05877
G1 X57.720 Y105.890 E6.07826
G1 X57.170 Y105.700 E6.09783
G1 X56.640 Y105.470 E6.11726
G1 X56.130 Y105.200 E6.13667
G1 X55.640 Y104.890 E6.15617
G1 X54.950 Y104.360 E6.18543
G1 X54.530 Y103.970 E6.20470
G1 X54.140 Y103.550 E6.22398
G1 X53.610 Y102.860 E6.25324
G1 X53.450 Y102.620 E6.26294
G1 X53.160 Y102.110 E6.28267
G1 X53.030 Y101.860 E6.29214
G1 X52.800 Y101.330 E6.31157
G1 X52.610 Y100.780 E6.33114
G1 X52.460 Y100.220 E6.35064
G1 X52.310 Y99.370 E6.37966
G1 X52.260 Y98.500 E6.40897
G1 X52.260 Y71.500 E7.31697
G1 X52.310 Y70.630 E7.34627
G1 X52.400 Y70.060 E7.36568
G1 X52.610 Y69.220 E7.39480
G1 X52.800 Y68.670 E7.41436
G1 X53.030 Y68.140 E7.43379
G1 X53.160 Y67.890 E7.44327
G1 X53.450 Y67.380 E7.46300
G1 X53.950 Y66.680 E7.49193
G1 X54.530 Y66.030 E7.52123
G1 X54.886 Y65.698 E7.53758
G1 X55.240 Y66.160 F7800.000
G1 X55.660 Y65.810 F540.000 E7.55597
G1 X56.110 Y65.490 E7.57454
G1 X56.340 Y65.350 E7.58359
G1 X56.580 Y65.210 E7.59294
G1 X57.070 Y64.970 E7.61129
G1 X57.580 Y64.760 E7.62983
G1 X58.100 Y64.600 E7.64813
G1 X58.640 Y64.470 E7.66681
G1 X59.450 Y64.360 E7.69430
G1 X60.000 Y64.340 E7.71281
G1 X100.000 Y64.340 E9.05799
G1 X100.550 Y64.360 E9.07649
G1 X101.360 Y64.470 E9.10398
G1 X101.900 Y64.600 E9.12266
G1 X102.420 Y64.760 E9.14096
G1 X102.930 Y64.970 E9.15951
G1 X103.420 Y65.210 E9.17786
G1 X103.890 Y65.490 E9.19625
G1 X104.120 Y65.650 E9.20568
G1 X104.760 Y66.160 E9.23320
G1 X104.960 Y66.340 E9.24225
G1 X105.340 Y66.740 E9.26080
G1 X105.850 Y67.380 E9.28832
G1 X106.010 Y67.610 E9.29774
G1 X106.290 Y68.080 E9.31614
G1 X106.640 Y68.820 E9.34367
G1 X106.740 Y69.080 E9.35304
G1 X106.900 Y69.600 E9.37133
G1 X107.030 Y70.140 E9.39001
G1 X107.140 Y70.950 E9.41750
G1 X107.160 Y71.500 E9.43601
G1 X107.160 Y98.500 E10.34401
G1 X107.140 Y99.050 E10.36252
G1 X107.030 Y99.860 E10.39001
G1 X106.900 Y100.400 E10.40868
G1 X106.740 Y100.920 E10.42698
G1 X106.530 Y101.430 E10.44553
G1 X106.290 Y101.920 E10.46388
G1 X106.010 Y102.390 E10.48228
G1 X105.850 Y102.620 E10.49170
G1 X105.340 Y103.260 E10.51922
G1 X105.160 Y103.460 E10.52827
G1 X104.760 Y103.840 E10.54682
G1 X104.120 Y104.350 E10.57434
G1 X103.890 Y104.510 E10.58376
G1 X103.420 Y104.790 E10.60216
G1 X102.930 Y105.030 E10.62051
G1 X102.420 Y105.240 E10.63906
G1 X101.630 Y105.470 E10.66673
G1 X101.360 Y105.530 E10.67603
G1 X100.820 Y105.610 E10.69439
G1 X100.550 Y105.640 E10.70353
G1 X100.000 Y105.660 E10.72203
G1 X60.000 Y105.660 E12.06721
G1 X59.450 Y105.640 E12.08572
G1 X58.640 Y105.530 E12.11321
G1 X58.100 Y105.400 E12.13189
G1 X57.580 Y105.240 E12.15019
G1 X57.070 Y105.030 E12.16873
G1 X56.580 Y104.790 E12.18708
G1 X56.110 Y104.510 E12.20548
G1 X55.880 Y104.350 E12.21490
G1 X55.240 Y103.840 E12.24242
G1 X55.040 Y103.660 E12.25147
G1 X54.660 Y103.260 E12.27003
G1 X54.150 Y102.620 E12.29755
G1 X53.990 Y102.390 E12.30697
G1 X53.710 Y101.920 E12.32537
G1 X53.470 Y101.430 E12.34372
G1 X53.260 Y100.920 E12.36226
G1 X53.030 Y100.130 E12.38993
G1 X52.970 Y99.860 E12.39924
G1 X52.890 Y99.320 E12.41759
G1 X52.860 Y99.050 E12.42673
G1 X52.840 Y98.500 E12.44524
G1 X52.840 Y71.500 E13.35323
G1 X52.860 Y70.950 E13.37174
G1 X52.970 Y70.140 E13.39923
G1 X53.100 Y69.600 E13.41791
G1 X53.260 Y69.080 E13.43621
G1 X53.590 Y68.320 E13.46407
G1 X53.710 Y68.080 E13.47310
G1 X53.990 Y67.610 E13.49149
G1 X54.310 Y67.160 E13.51006
G1 X54.840 Y66.540 E13.53749
G1 X55.175 Y66.218 E13.55313
G1 X55.440 Y66.760 F7800.000
G1 X55.840 Y66.400 F540.000 E13.57123
G1 X56.480 Y65.940 E13.59773
G1 X56.940 Y65.670 E13.61567
G1 X57.420 Y65.450 E13.63343
G1 X58.170 Y65.180 E13.66023
G1 X58.680 Y65.050 E13.67793
G1 X59.470 Y64.940 E13.70476
G1 X60.000 Y64.920 E13.72259
G1 X100.000 Y64.920 E15.06777
G1 X100.530 Y64.940 E15.08561
G1 X100.790 Y64.970 E15.09441
G1 X101.320 Y65.050 E15.11244
G1 X101.830 Y65.180 E15.13013
G1 X102.330 Y65.350 E15.14789
G1 X103.060 Y65.670 E15.17470
G1 X103.740 Y66.090 E15.20158
G1 X104.160 Y66.400 E15.21913
G1 X104.740 Y66.940 E15.24578
G1 X105.100 Y67.340 E15.26388
G1 X105.260 Y67.550 E15.27276
G1 X105.700 Y68.210 E15.29943
G1 X105.830 Y68.440 E15.30832
G1 X106.050 Y68.920 E15.32608
G1 X106.320 Y69.670 E15.35288
G1 X106.450 Y70.180 E15.37058
G1 X106.560 Y70.970 E15.39741
G1 X106.580 Y71.500 E15.41524
G1 X106.580 Y98.500 E16.32324
G1 X106.560 Y99.030 E16.34107
G1 X106.530 Y99.290 E16.34988
G1 X106.450 Y99.820 E16.36790
G1 X106.320 Y100.330 E16.38560
G1 X106.150 Y100.830 E16.40336
G1 X105.830 Y101.560 E16.43017
G1 X105.410 Y102.240 E16.45704
G1 X105.100 Y102.660 E16.47460
G1 X104.740 Y103.060 E16.49270
G1 X104.160 Y103.600 E16.51935
G1 X103.520 Y104.060 E16.54585
G1 X103.060 Y104.330 E16.56379
G1 X102.330 Y104.650 E16.59059
G1 X101.570 Y104.890 E16.61740
G1 X101.320 Y104.950 E16.62604
G1 X100.790 Y105.030 E16.64407
G1 X100.530 Y105.060 E16.65287
G1 X100.000 Y105.080 E16.67071
G1 X60.000 Y105.080 E18.01588
G1 X59.470 Y105.060 E18.03372
G1 X59.210 Y105.030 E18.04252
G1 X58.680 Y104.950 E18.06055
G1 X58.170 Y104.820 E18.07825
G1 X57.670 Y104.650 E18.09601
G1 X56.940 Y104.330 E18.12281
G1 X56.260 Y103.910 E18.14969
G1 X55.840 Y103.600 E18.16725
G1 X55.440 Y103.240 E18.18534
G1 X54.900 Y102.660 E18.21199
G1 X54.440 Y102.020 E18.23850
G1 X54.170 Y101.560 E18.25644
G1 X53.850 Y100.830 E18.28324
G1 X53.610 Y100.070 E18.31004
G1 X53.550 Y99.820 E18.31869
G1 X53.470 Y99.290 E18.33672
G1 X53.440 Y99.030 E18.34552
G1 X53.420 Y98.500 E18.36335
G1 X53.420 Y71.500 E19.27135
G1 X53.440 Y70.970 E19.28918
G1 X53.550 Y70.180 E19.31601
G1 X53.680 Y69.670 E19.33371
G1 X53.850 Y69.170 E19.35147
G1 X54.170 Y68.440 E19.37827
G1 X54.440 Y67.980 E19.39621
G1 X54.740 Y67.550 E19.41384
G1 X54.900 Y67.340 E19.42272
G1 X55.379 Y66.821 E19.44645
G1 F1800.000 E18.04645
G92 E0
G1 X68.497 Y92.908 F7800.000
G1 F1800.000 E1.40000
G1 X70.574 Y92.233 F540.000 E1.47344
G1 X71.858 Y94.000 E1.54687
G1 X70.574 Y95.767 E1.62031
G1 X68.497 Y95.092 E1.69375
G1 X68.497 Y92.995 E1.76426
G1 X68.377 Y92.342 F7800.000
G1 X87.919 Y92.488
G1 X90.795 Y91.553 F540.000 E1.86597
G1 X92.573 Y94.000 E1.96768
G1 X90.795 Y96.447 E2.06939
G1 X87.919 Y95.512 E2.17109
G1 X87.919 Y92.575 E2.26988
G1 X88.497 Y92.908 F7800.000
G1 X90.574 Y92.233 F540.000 E2.34332
G1 X91.858 Y94.000 E2.41675
G1 X90.574 Y95.767 E2.49019
G1 X88.497 Y95.092 E2.56363
G1 X88.497 Y92.995 E2.63414
G1 X88.377 Y92.342 F7800.000
G1 X89.168 Y91.668
G1 X89.168 Y86.507 F540.000 E2.80770
G1 X89.313 Y85.794 E2.83216
G1 X89.355 Y85.396 E2.84563
G1 X89.368 Y85.000 E2.85895
G1 X89.355 Y84.604 E2.87227
G1 X89.313 Y84.206 E2.88574
G1 X89.168 Y83.493 E2.91020
G1 X89.168 Y80.868 E2.99849
G1 X95.832 Y80.868 E3.22261
G1 X95.832 Y83.493 E3.31089
G1 X95.687 Y84.206 E3.33535
G1 X95.645 Y84.604 E3.34882
G1 X95.632 Y85.000 E3.36214
G1 X95.645 Y85.396 E3.37547
G1 X95.687 Y85.794 E3.38893
G1 X95.832 Y86.507 E3.41340
G1 X95.832 Y91.668 E3.58695
G1 X99.132 Y91.668 E3.69793
G1 X99.132 Y97.632 E3.89851
G1 X60.868 Y97.632 E5.18532
G1 X60.868 Y91.668 E5.38590
G1 X64.168 Y91.668 E5.49687
G1 X64.168 Y86.507 E5.67043
G1 X64.313 Y85.794 E5.69489
G1 X64.355 Y85.396 E5.70835
G1 X64.368 Y85.000 E5.72168
G1 X64.355 Y84.604 E5.73500
G1 X64.313 Y84.206 E5.74847
G1 X64.168 Y83.493 E5.77293
G1 X64.168 Y80.868 E5.86122
G1 X70.832 Y80.868 E6.08534
G1 X70.832 Y83.493 E6.17362
G1 X70.687 Y84.206 E6.19808
G1 X70.645 Y84.604 E6.21155
G1 X70.632 Y85.000 E6.22487
G1 X70.645 Y85.396 E6.23820
G1 X70.687 Y85.794 E6.25166
G1 X70.832 Y86.507 E6.27612
G1 X70.832 Y91.541 E6.44542
G1 X67.919 Y92.488 E6.54844
G1 X67.919 Y95.512 E6.65015
G1 X70.795 Y96.447 E6.75186
G1 X72.573 Y94.000 E6.85356
G1 X70.878 Y91.668 E6.95051
G1 X76.668 Y91.668 E7.14521
G1 X76.668 Y86.507 E7.31877
G1 X76.813 Y85.794 E7.34323
G1 X76.855 Y85.396 E7.35669
G1 X76.868 Y85.000 E7.37002
G1 X76.855 Y84.604 E7.38334
G1 X76.813 Y84.206 E7.39681
G1 X76.668 Y83.493 E7.42127
G1 X76.668 Y80.868 E7.50955
G1 X83.332 Y80.868 E7.73367
G1 X83.332 Y83.493 E7.82196
G1 X83.187 Y84.206 E7.84642
G1 X83.145 Y84.604 E7.85988
G1 X83.132 Y85.000 E7.87321
G1 X83.145 Y85.396 E7.88654
G1 X83.187 Y85.794 E7.90000
G1 X83.332 Y86.507 E7.92446
G1 X83.332 Y91.668 E8.09802
G1 X89.081 Y91.668 E8.29135
G1 X88.589 Y91.089 F7800.000
G1 X88.589 Y86.438 F378.000 E8.44777
G1 X88.740 Y85.714 E8.47262
G1 X88.789 Y85.000 E8.49670
G1 X88.740 Y84.286 E8.52079
G1 X88.589 Y83.562 E8.54564
G1 X88.589 Y80.289 E8.65570
G1 X96.411 Y80.289 E8.91873
G1 X96.411 Y83.562 E9.02879
G1 X96.260 Y84.286 E9.05364
G1 X96.211 Y85.000 E9.07773
G1 X96.260 Y85.714 E9.10181
G1 X96.411 Y86.438 E9.12667
G1 X96.411 Y91.089 E9.28309
G1 X99.711 Y91.089 E9.39406
G1 X99.711 Y98.211 E9.63355
G1 X60.289 Y98.211 E10.95928
G1 X60.289 Y91.089 E11.19877
G1 X63.589 Y91.089 E11.30974
G1 X63.589 Y86.504 E11.46395
G1 X63.573 Y86.504 E11.46449
G1 X63.676 Y86.079 E11.47918
G1 X63.740 Y85.714 E11.49163
G1 X63.789 Y85.000 E11.51571
G1 X63.740 Y84.286 E11.53980
G1 X63.589 Y83.562 E11.56465
G1 X63.589 Y80.289 E11.67471
G1 X71.411 Y80.289 E11.93774
G1 X71.411 Y83.562 E12.04780
G1 X71.260 Y84.286 E12.07266
G1 X71.211 Y85.000 E12.09674
G1 X71.260 Y85.714 E12.12083
G1 X71.411 Y86.438 E12.14568
G1 X71.411 Y91.089 E12.30210
G1 X76.089 Y91.089 E12.45943
G1 X76.089 Y86.438 E12.61585
G1 X76.240 Y85.714 E12.64071
G1 X76.289 Y85.000 E12.66479
G1 X76.240 Y84.286 E12.68887
G1 X76.089 Y83.562 E12.71373
G1 X76.089 Y80.289 E12.82379
G1 X83.911 Y80.289 E13.08682
G1 X83.911 Y83.562 E13.19688
G1 X83.760 Y84.286 E13.22173
G1 X83.711 Y85.000 E13.24582
G1 X83.760 Y85.714 E13.26990
G1 X83.911 Y86.438 E13.29475
G1 X83.911 Y91.089 E13.45117
G1 X88.502 Y91.089 E13.60559
G1 X89.168 Y91.089 F7800.000
G1 F1800.000 E12.20559
G92 E0
G1 X70.574 Y77.767 F7800.000
G1 F1800.000 E1.40000
G1 X68.497 Y77.092 F540.000 E1.47344
G1 X68.497 Y74.908 E1.54687
G1 X70.574 Y74.233 E1.62031
G1 X71.858 Y76.000 E1.69374
G1 X70.625 Y77.696 E1.76426
G1 X70.339 Y78.295 F7800.000
G1 X88.497 Y77.092
G1 X88.497 Y74.908 F540.000 E1.83770
G1 X90.574 Y74.233 E1.91113
G1 X91.858 Y76.000 E1.98457
G1 X90.574 Y77.767 E2.05801
G1 X88.580 Y77.119 E2.12853
G1 X87.922 Y77.031 F7800.000
G1 X87.919 Y77.512
G1 X89.410 Y77.997 F540.000 E2.18127
G1 X89.357 Y78.332 E2.19269
G1 X86.632 Y78.332 E2.28433
G1 X86.632 Y83.734 E2.46598
G1 X86.743 Y84.156 E2.48067
G1 X86.793 Y84.445 E2.49052
G1 X86.832 Y85.000 E2.50923
G1 X86.793 Y85.555 E2.52794
G1 X86.632 Y86.299 E2.55355
G1 X86.632 Y89.132 E2.64882
G1 X85.868 Y89.132 E2.67452
G1 X85.868 Y86.266 E2.77092
G1 X85.757 Y85.844 E2.78559
G1 X85.707 Y85.555 E2.79544
G1 X85.668 Y85.000 E2.81416
G1 X85.707 Y84.445 E2.83287
G1 X85.757 Y84.156 E2.84272
G1 X85.868 Y83.734 E2.85739
G1 X85.868 Y78.332 E3.03906
G1 X74.132 Y78.332 E3.43371
G1 X74.132 Y83.734 E3.61538
G1 X74.243 Y84.156 E3.63005
G1 X74.293 Y84.445 E3.63990
G1 X74.332 Y85.000 E3.65862
G1 X74.293 Y85.555 E3.67733
G1 X74.243 Y85.844 E3.68718
G1 X74.132 Y86.266 E3.70185
G1 X74.132 Y89.132 E3.79825
G1 X73.368 Y89.132 E3.82396
G1 X73.368 Y86.266 E3.92035
G1 X73.257 Y85.844 E3.93502
G1 X73.207 Y85.555 E3.94488
G1 X73.168 Y85.000 E3.96359
G1 X73.207 Y84.445 E3.98230
G1 X73.257 Y84.156 E3.99216
G1 X73.368 Y83.734 E4.00682
G1 X73.368 Y78.332 E4.18849
G1 X70.878 Y78.332 E4.27221
G1 X72.573 Y76.000 E4.36916
G1 X70.795 Y73.553 E4.47087
G1 X67.919 Y74.488 E4.57257
G1 X67.919 Y77.512 E4.67428
G1 X69.410 Y77.997 E4.72703
G1 X69.357 Y78.332 E4.73844
G1 X61.632 Y78.332 E4.99823
G1 X61.632 Y83.734 E5.17988
G1 X61.743 Y84.156 E5.19457
G1 X61.793 Y84.445 E5.20442
G1 X61.832 Y85.000 E5.22313
G1 X61.793 Y85.555 E5.24184
G1 X61.632 Y86.300 E5.26747
G1 X61.632 Y89.132 E5.36272
G1 X60.868 Y89.132 E5.38842
G1 X60.868 Y72.368 E5.95220
G1 X99.132 Y72.368 E7.23901
G1 X99.132 Y89.132 E7.80279
G1 X98.368 Y89.132 E7.82849
G1 X98.368 Y86.266 E7.92488
G1 X98.257 Y85.844 E7.93956
G1 X98.207 Y85.555 E7.94941
G1 X98.168 Y85.000 E7.96813
G1 X98.207 Y84.445 E7.98684
G1 X98.368 Y83.700 E8.01245
G1 X98.368 Y78.332 E8.19298
G1 X90.878 Y78.332 E8.44485
G1 X92.573 Y76.000 E8.54180
G1 X90.795 Y73.553 E8.64351
G1 X87.919 Y74.488 E8.74521
G1 X87.919 Y77.425 E8.84400
G1 X87.211 Y78.911 F7800.000
G1 X87.211 Y83.646 F378.000 E9.00326
G1 X87.309 Y84.039 E9.01686
G1 X87.366 Y84.365 E9.02801
G1 X87.410 Y85.000 E9.04941
G1 X87.366 Y85.635 E9.07081
G1 X87.211 Y86.368 E9.09603
G1 X87.211 Y89.711 E9.20843
G1 X85.289 Y89.711 E9.27305
G1 X85.289 Y86.353 E9.38596
G1 X85.191 Y85.961 E9.39954
G1 X85.134 Y85.635 E9.41069
G1 X85.090 Y85.000 E9.43209
G1 X85.134 Y84.365 E9.45349
G1 X85.191 Y84.039 E9.46464
G1 X85.289 Y83.647 E9.47823
G1 X85.289 Y78.911 E9.63750
G1 X74.711 Y78.911 E9.99324
G1 X74.711 Y83.647 E10.15251
G1 X74.809 Y84.039 E10.16610
G1 X74.866 Y84.365 E10.17725
G1 X74.910 Y85.000 E10.19865
G1 X74.866 Y85.635 E10.22004
G1 X74.809 Y85.961 E10.23120
G1 X74.711 Y86.353 E10.24478
G1 X74.711 Y89.711 E10.35769
G1 X72.789 Y89.711 E10.42232
G1 X72.789 Y86.353 E10.53523
G1 X72.691 Y85.961 E10.54881
G1 X72.634 Y85.635 E10.55996
G1 X72.590 Y85.000 E10.58136
G1 X72.634 Y84.365 E10.60276
G1 X72.691 Y84.039 E10.61391
G1 X72.789 Y83.647 E10.62750
G1 X72.789 Y78.911 E10.78677
G1 X62.211 Y78.911 E11.14252
G1 X62.211 Y83.646 E11.30177
G1 X62.309 Y84.039 E11.31537
G1 X62.366 Y84.365 E11.32652
G1 X62.410 Y85.000 E11.34792
G1 X62.366 Y85.635 E11.36932
G1 X62.211 Y86.369 E11.39455
G1 X62.211 Y89.711 E11.50694
G1 X60.289 Y89.711 E11.57156
G1 X60.289 Y71.789 E12.17425
G1 X99.711 Y71.789 E13.49997
G1 X99.711 Y89.711 E14.10266
G1 X97.789 Y89.711 E14.16728
G1 X97.789 Y86.354 E14.28017
G1 X97.691 Y85.961 E14.29377
G1 X97.634 Y85.635 E14.30492
G1 X97.590 Y85.000 E14.32632
G1 X97.634 Y84.365 E14.34772
