; generated by Slic3r 0.9.9 on 2013-07-25 at 18:56:05

; layer_height = 0.25
; perimeters = 2
; top_solid_layers = 3
; bottom_solid_layers = 3
; fill_density = 0.3
; perimeter_speed = 30
; infill_speed = 60
; travel_speed = 130
; nozzle_diameter = 0.5
; filament_diameter = 2.96
; extrusion_multiplier = 1
; perimeters extrusion width = 0.60mm
; infill extrusion width = 0.60mm
; solid infill extrusion width = 0.60mm
; top infill extrusion width = 0.60mm
; first layer extrusion width = 0.53mm

G21 ; set units to millimeters
M107
M190 S115 ; wait for bed temperature to be reached
M104 S240 ; set temperature
G28 ; home all axes
G1 Z5 F5000 ; lift nozzle
M109 S240 ; wait for temperature to be reached
G90 ; use absolute coordinates
G92 E0
M82 ; use absolute distances for extrusion
G1 F1800.000 E-1.40000
G92 E0
G1 Z-3.390 F7800.000
G1 X12.350 Y31.810
G1 F1800.000 E1.40000
G1 X12.920 Y31.590 F540.000 E1.41435
G1 X13.800 Y31.350 E1.43576
G1 X15.130 Y31.070 E1.46768
G1 X15.770 Y30.980 E1.48285
G1 X16.090 Y30.960 E1.49038
G1 X66.100 Y30.940 E2.66461
G1 X140.100 Y30.960 E4.40213
G1 X140.740 Y31.020 E4.41722
G1 X141.370 Y31.130 E4.43224
G1 X142.690 Y31.420 E4.46397
G1 X143.550 Y31.690 E4.48514
G1 X145.100 Y32.370 E4.52488
G1 X145.400 Y32.530 E4.53286
G1 X145.980 Y32.880 E4.54877
G1 X147.090 Y33.690 E4.58103
G1 X147.570 Y34.080 E4.59555
G1 X148.020 Y34.500 E4.61001
G1 X148.930 Y35.510 E4.64193
G1 X149.330 Y35.990 E4.65660
G1 X149.690 Y36.510 E4.67145
G1 X150.370 Y37.680 E4.70322
G1 X150.660 Y38.230 E4.71782
G1 X150.900 Y38.800 E4.73234
G1 X151.330 Y40.090 E4.76427
G1 X151.430 Y40.400 E4.77192
G1 X151.580 Y41.020 E4.78690
G1 X151.670 Y41.660 E4.80207
G1 X151.780 Y42.690 E4.82639
G1 X151.820 Y43.490 E4.84520
G1 X151.820 Y126.490 E6.79404
G1 X151.780 Y127.290 E6.81285
G1 X151.670 Y128.330 E6.83740
G1 X151.580 Y128.960 E6.85234
G1 X151.430 Y129.590 E6.86755
G1 X151.000 Y130.900 E6.89992
G1 X150.780 Y131.480 E6.91449
G1 X150.520 Y132.040 E6.92899
G1 X149.690 Y133.480 E6.96801
G1 X149.330 Y134.000 E6.98286
G1 X148.930 Y134.480 E6.99753
G1 X148.020 Y135.490 E7.02945
G1 X147.570 Y135.910 E7.04391
G1 X147.340 Y136.110 E7.05106
G1 X146.250 Y136.920 E7.08295
G1 X145.980 Y137.110 E7.09070
G1 X145.400 Y137.460 E7.10661
G1 X145.100 Y137.620 E7.11459
G1 X143.550 Y138.300 E7.15433
G1 X142.980 Y138.490 E7.16844
G1 X142.390 Y138.640 E7.18273
G1 X141.060 Y138.920 E7.21465
G1 X140.420 Y139.010 E7.22982
G1 X140.100 Y139.030 E7.23735
G1 X90.100 Y139.060 E8.41135
G1 X16.090 Y139.030 E10.14910
G1 X15.450 Y138.970 E10.16419
G1 X14.820 Y138.860 E10.17921
G1 X13.500 Y138.570 E10.21094
G1 X12.920 Y138.400 E10.22513
G1 X12.350 Y138.180 E10.23948
G1 X11.620 Y137.860 E10.25820
G1 X11.100 Y137.600 E10.27185
G1 X10.590 Y137.310 E10.28562
G1 X10.110 Y136.980 E10.29930
G1 X9.880 Y136.800 E10.30616
G1 X9.450 Y136.410 E10.31979
G1 X8.850 Y135.770 E10.34038
G1 X8.490 Y135.310 E10.35410
G1 X8.330 Y135.070 E10.36087
G1 X8.170 Y134.820 E10.36784
G1 X7.890 Y134.310 E10.38150
G1 X7.650 Y133.780 E10.39516
G1 X7.450 Y133.230 E10.40890
G1 X7.370 Y132.950 E10.41574
G1 X7.190 Y132.090 E10.43637
G1 X7.100 Y131.220 E10.45691
G1 X7.100 Y38.770 E12.62763
G1 X7.150 Y38.190 E12.64130
G1 X7.240 Y37.610 E12.65508
G1 X7.450 Y36.760 E12.67564
G1 X7.650 Y36.210 E12.68938
G1 X7.890 Y35.680 E12.70304
G1 X8.170 Y35.170 E12.71670
G1 X8.490 Y34.680 E12.73044
G1 X8.850 Y34.220 E12.74416
G1 X9.240 Y33.790 E12.75779
G1 X9.660 Y33.380 E12.77157
G1 X10.110 Y33.010 E12.78525
G1 X10.840 Y32.530 E12.80576
G1 X11.620 Y32.130 E12.82635
G1 X12.278 Y31.841 E12.84323
G1 X12.560 Y32.290 F7800.000
G1 X13.090 Y32.080 F540.000 E12.85661
G1 X13.630 Y31.920 E12.86984
G1 X15.220 Y31.580 E12.90801
G1 X15.510 Y31.530 E12.91492
G1 X16.110 Y31.480 E12.92906
G1 X66.100 Y31.460 E14.10282
G1 X140.080 Y31.480 E15.83987
G1 X140.680 Y31.530 E15.85401
G1 X141.260 Y31.640 E15.86787
G1 X142.560 Y31.920 E15.89909
G1 X143.100 Y32.080 E15.91232
G1 X143.360 Y32.180 E15.91886
G1 X144.870 Y32.840 E15.95755
G1 X145.420 Y33.140 E15.97226
G1 X145.940 Y33.490 E15.98698
G1 X146.780 Y34.110 E16.01149
G1 X147.230 Y34.470 E16.02502
G1 X147.650 Y34.870 E16.03864
G1 X148.730 Y36.080 E16.07672
G1 X149.250 Y36.790 E16.09739
G1 X149.920 Y37.940 E16.12864
G1 X150.190 Y38.450 E16.14219
G1 X150.510 Y39.250 E16.16242
G1 X150.930 Y40.540 E16.19427
G1 X151.000 Y40.830 E16.20128
G1 X151.150 Y41.710 E16.22224
G1 X151.260 Y42.740 E16.24656
G1 X151.300 Y43.490 E16.26420
G1 X151.300 Y126.490 E18.21303
G1 X151.260 Y127.230 E18.23043
G1 X151.120 Y128.570 E18.26207
G1 X150.930 Y129.450 E18.28321
G1 X150.510 Y130.740 E18.31506
G1 X150.190 Y131.540 E18.33529
G1 X150.060 Y131.800 E18.34212
G1 X149.250 Y133.200 E18.38009
G1 X148.910 Y133.680 E18.39391
G1 X148.540 Y134.130 E18.40758
G1 X147.650 Y135.120 E18.43884
G1 X147.230 Y135.520 E18.45246
G1 X146.780 Y135.880 E18.46599
G1 X145.940 Y136.500 E18.49051
G1 X145.420 Y136.850 E18.50522
G1 X145.150 Y137.000 E18.51248
G1 X144.580 Y137.280 E18.52739
G1 X143.100 Y137.910 E18.56515
G1 X142.560 Y138.070 E18.57838
G1 X140.970 Y138.410 E18.61656
G1 X140.680 Y138.460 E18.62346
G1 X140.080 Y138.510 E18.63760
G1 X90.100 Y138.540 E19.81113
G1 X16.110 Y138.510 E21.54841
G1 X15.510 Y138.460 E21.56255
G1 X15.220 Y138.410 E21.56946
G1 X13.630 Y138.070 E21.60764
G1 X13.090 Y137.910 E21.62086
G1 X12.560 Y137.700 E21.63425
G1 X11.580 Y137.260 E21.65947
G1 X11.080 Y137.000 E21.67270
G1 X10.380 Y136.530 E21.69250
G1 X9.950 Y136.170 E21.70567
G1 X9.360 Y135.570 E21.72543
G1 X8.840 Y134.900 E21.74534
G1 X8.410 Y134.180 E21.76503
G1 X8.170 Y133.670 E21.77826
G1 X7.970 Y133.140 E21.79157
G1 X7.890 Y132.870 E21.79818
G1 X7.710 Y132.050 E21.81789
G1 X7.620 Y131.210 E21.83773
G1 X7.620 Y38.780 E24.00798
G1 X7.670 Y38.220 E24.02118
G1 X7.760 Y37.660 E24.03450
G1 X7.970 Y36.850 E24.05415
G1 X8.170 Y36.320 E24.06745
G1 X8.410 Y35.810 E24.08068
G1 X8.840 Y35.090 E24.10037
G1 X9.010 Y34.860 E24.10709
G1 X9.360 Y34.420 E24.12029
G1 X9.550 Y34.220 E24.12677
G1 X9.950 Y33.820 E24.14005
G1 X10.380 Y33.460 E24.15322
G1 X11.080 Y32.990 E24.17301
G1 X11.830 Y32.610 E24.19275
G1 X12.488 Y32.321 E24.20963
G1 X12.770 Y32.770 F7800.000
G1 X13.260 Y32.580 F540.000 E24.22197
G1 X14.020 Y32.370 E24.24049
G1 X15.310 Y32.090 E24.27148
G1 X16.130 Y32.000 E24.29085
G1 X66.100 Y31.980 E25.46414
G1 X140.060 Y32.000 E27.20072
G1 X140.880 Y32.090 E27.22009
G1 X142.430 Y32.430 E27.25735
G1 X143.170 Y32.670 E27.27562
G1 X144.640 Y33.310 E27.31326
G1 X144.900 Y33.440 E27.32009
G1 X145.630 Y33.910 E27.34047
G1 X146.470 Y34.530 E27.36499
G1 X146.890 Y34.870 E27.37768
G1 X147.270 Y35.230 E27.38997
G1 X148.150 Y36.200 E27.42072
G1 X148.500 Y36.620 E27.43356
G1 X148.950 Y37.300 E27.45270
G1 X149.600 Y38.430 E27.48331
G1 X149.920 Y39.160 E27.50202
G1 X150.340 Y40.420 E27.53321
G1 X150.490 Y40.950 E27.54614
G1 X150.600 Y41.490 E27.55908
G1 X150.740 Y42.800 E27.59002
G1 X150.780 Y43.490 E27.60624
G1 X150.780 Y126.490 E29.55508
G1 X150.750 Y127.180 E29.57130
G1 X150.640 Y128.220 E29.59585
G1 X150.550 Y128.770 E29.60894
G1 X150.420 Y129.310 E29.62198
G1 X150.010 Y130.570 E29.65309
G1 X149.920 Y130.830 E29.65955
G1 X149.600 Y131.560 E29.67827
G1 X148.950 Y132.690 E29.70888
G1 X148.500 Y133.370 E29.72802
G1 X148.150 Y133.790 E29.74086
G1 X147.450 Y134.570 E29.76547
G1 X146.890 Y135.120 E29.78390
G1 X146.470 Y135.460 E29.79659
G1 X145.630 Y136.080 E29.82110
G1 X144.900 Y136.550 E29.84148
G1 X143.410 Y137.220 E29.87984
G1 X142.680 Y137.490 E29.89812
G1 X142.170 Y137.620 E29.91048
G1 X140.880 Y137.900 E29.94147
G1 X140.060 Y137.990 E29.96084
G1 X90.100 Y138.020 E31.13390
G1 X16.130 Y137.990 E32.87071
G1 X15.310 Y137.900 E32.89008
G1 X13.760 Y137.560 E32.92734
G1 X13.260 Y137.410 E32.93960
G1 X12.770 Y137.220 E32.95194
G1 X11.800 Y136.790 E32.97685
G1 X11.320 Y136.530 E32.98967
G1 X10.870 Y136.240 E33.00224
G1 X10.240 Y135.730 E33.02127
G1 X9.860 Y135.350 E33.03389
G1 X9.510 Y134.940 E33.04655
G1 X9.060 Y134.270 E33.06550
G1 X8.690 Y133.550 E33.08451
G1 X8.490 Y133.050 E33.09715
G1 X8.410 Y132.790 E33.10354
G1 X8.230 Y132.000 E33.12256
G1 X8.140 Y131.200 E33.14146
G1 X8.140 Y38.790 E35.31125
G1 X8.190 Y38.250 E35.32398
G1 X8.280 Y37.720 E35.33660
G1 X8.490 Y36.940 E35.35557
G1 X8.800 Y36.200 E35.37441
G1 X9.200 Y35.490 E35.39354
G1 X9.510 Y35.050 E35.40618
G1 X9.860 Y34.640 E35.41884
G1 X10.240 Y34.260 E35.43146
G1 X10.870 Y33.750 E35.45049
G1 X11.560 Y33.320 E35.46958
G1 X12.698 Y32.801 E35.49895
G1 F1800.000 E34.09895
G92 E0
G1 X38.455 Y57.342 F7800.000
G1 F1800.000 E1.40000
G1 X39.857 Y56.324 F540.000 E1.44067
G1 X41.439 Y55.619 E1.48135
G1 X43.134 Y55.259 E1.52202
G1 X44.866 Y55.259 E1.56270
G1 X46.561 Y55.619 E1.60337
G1 X48.143 Y56.324 E1.64404
G1 X49.545 Y57.342 E1.68472
G1 X50.704 Y58.630 E1.72539
G1 X51.570 Y60.130 E1.76606
G1 X52.105 Y61.777 E1.80674
G1 X52.286 Y63.500 E1.84741
G1 X52.105 Y65.223 E1.88808
G1 X51.570 Y66.870 E1.92876
G1 X50.704 Y68.370 E1.96943
G1 X49.545 Y69.658 E2.01010
G1 X48.143 Y70.676 E2.05078
G1 X46.561 Y71.381 E2.09145
G1 X44.866 Y71.741 E2.13212
G1 X43.134 Y71.741 E2.17280
G1 X41.439 Y71.381 E2.21347
G1 X39.857 Y70.676 E2.25415
G1 X38.455 Y69.658 E2.29482
G1 X37.296 Y68.370 E2.33549
G1 X36.430 Y66.870 E2.37617
G1 X35.895 Y65.223 E2.41684
G1 X35.714 Y63.500 E2.45751
G1 X35.895 Y61.777 E2.49819
G1 X36.430 Y60.130 E2.53886
G1 X37.296 Y58.630 E2.57954
G1 X38.403 Y57.400 E2.61837
G1 X38.806 Y57.732 F7800.000
G1 X40.119 Y56.778 F378.000 E2.65647
G1 X41.601 Y56.118 E2.69458
G1 X43.189 Y55.780 E2.73268
G1 X44.811 Y55.780 E2.77078
G1 X46.399 Y56.118 E2.80888
G1 X47.881 Y56.778 E2.84698
G1 X49.194 Y57.732 E2.88508
G1 X50.280 Y58.938 E2.92318
G1 X51.091 Y60.343 E2.96128
G1 X51.592 Y61.886 E2.99938
G1 X51.762 Y63.500 E3.03749
G1 X51.592 Y65.114 E3.07559
G1 X51.091 Y66.657 E3.11369
G1 X50.280 Y68.062 E3.15179
G1 X49.194 Y69.268 E3.18989
G1 X47.881 Y70.222 E3.22799
G1 X46.399 Y70.882 E3.26609
G1 X44.811 Y71.220 E3.30419
G1 X43.189 Y71.220 E3.34229
G1 X41.601 Y70.882 E3.38039
G1 X40.119 Y70.222 E3.41850
G1 X38.806 Y69.268 E3.45660
G1 X37.720 Y68.062 E3.49470
G1 X36.909 Y66.657 E3.53280
G1 X36.408 Y65.114 E3.57090
G1 X36.238 Y63.500 E3.60900
G1 X36.408 Y61.886 E3.64710
G1 X36.909 Y60.343 E3.68520
G1 X37.720 Y58.938 E3.72331
G1 X38.754 Y57.790 E3.75957
G1 X38.716 Y57.218 F7800.000
G1 F1800.000 E2.35957
G92 E0
G1 X43.134 Y98.259 F7800.000
G1 F1800.000 E1.40000
G1 X44.866 Y98.259 F540.000 E1.44068
G1 X46.561 Y98.619 E1.48135
G1 X48.143 Y99.324 E1.52202
G1 X49.545 Y100.342 E1.56270
G1 X50.704 Y101.630 E1.60337
G1 X51.570 Y103.130 E1.64404
G1 X52.105 Y104.777 E1.68472
G1 X52.260 Y106.249 E1.71945
G1 X52.286 Y106.500 E1.72539
G1 X52.105 Y108.223 E1.76606
G1 X51.570 Y109.870 E1.80674
G1 X50.704 Y111.370 E1.84741
G1 X49.545 Y112.658 E1.88808
G1 X48.143 Y113.676 E1.92876
G1 X46.561 Y114.381 E1.96943
G1 X44.866 Y114.741 E2.01010
G1 X43.134 Y114.741 E2.05078
G1 X41.439 Y114.381 E2.09145
G1 X39.857 Y113.676 E2.13213
G1 X38.455 Y112.658 E2.17280
G1 X37.296 Y111.370 E2.21347
G1 X36.430 Y109.870 E2.25415
G1 X35.895 Y108.223 E2.29482
G1 X35.714 Y106.500 E2.33549
G1 X35.895 Y104.777 E2.37617
G1 X36.430 Y103.130 E2.41684
G1 X37.296 Y101.630 E2.45752
G1 X38.455 Y100.342 E2.49819
G1 X39.857 Y99.324 E2.53886
G1 X41.439 Y98.619 E2.57954
G1 X43.057 Y98.276 E2.61837
G1 X43.189 Y98.780 F7800.000
G1 X44.811 Y98.780 F378.000 E2.65648
G1 X46.399 Y99.118 E2.69458
G1 X47.881 Y99.778 E2.73268
G1 X49.194 Y100.732 E2.77078
G1 X50.280 Y101.938 E2.80888
G1 X51.091 Y103.343 E2.84698
G1 X51.592 Y104.886 E2.88508
G1 X51.741 Y106.303 E2.91853
G1 X51.762 Y106.500 E2.92318
G1 X51.592 Y108.114 E2.96128
G1 X51.091 Y109.657 E2.99938
G1 X50.280 Y111.062 E3.03749
G1 X49.194 Y112.268 E3.07559
G1 X47.881 Y113.222 E3.11369
G1 X46.399 Y113.882 E3.15179
G1 X44.811 Y114.219 E3.18989
G1 X43.189 Y114.219 E3.22799
G1 X41.601 Y113.882 E3.26609
G1 X40.119 Y113.222 E3.30419
G1 X38.806 Y112.268 E3.34229
G1 X37.720 Y111.062 E3.38040
G1 X36.909 Y109.657 E3.41850
G1 X36.408 Y108.114 E3.45660
G1 X36.238 Y106.500 E3.49470
G1 X36.408 Y104.886 E3.53280
G1 X36.909 Y103.343 E3.57090
G1 X37.720 Y101.938 E3.60900
G1 X38.806 Y100.732 E3.64710
G1 X40.119 Y99.778 E3.68520
G1 X41.601 Y99.118 E3.72331
G1 X43.112 Y98.797 E3.75957
G1 X43.417 Y98.312 F7800.000
G1 X70.718 Y101.785
G1 X70.718 Y106.965 F540.000 E3.88120
G1 X76.676 Y106.965 E4.02110
G1 X78.100 Y107.102 E4.05468
G1 X79.524 Y106.965 E4.08826
G1 X80.565 Y106.965 E4.11271
G1 X80.565 Y114.701 E4.29436
G1 X79.524 Y114.701 E4.31881
G1 X78.100 Y114.565 E4.35239
G1 X76.676 Y114.701 E4.38597
G1 X70.718 Y114.701 E4.52587
G1 X70.718 Y119.882 E4.64750
G1 X76.676 Y119.882 E4.78740
G1 X78.100 Y120.018 E4.82098
G1 X79.524 Y119.882 E4.85457
G1 X80.565 Y119.882 E4.87901
G1 X80.565 Y127.618 E5.06066
G1 X79.524 Y127.618 E5.08511
G1 X78.100 Y127.482 E5.11869
G1 X76.676 Y127.618 E5.15228
G1 X70.718 Y127.618 E5.29217
G1 X70.718 Y130.718 E5.36496
G1 X66.882 Y130.718 E5.45504
G1 X66.882 Y130.691 E5.45568
G1 X16.498 Y130.691 E6.63869
G1 X15.636 Y130.508 E6.65937
G1 X15.448 Y130.424 E6.66421
G1 X15.448 Y39.576 E8.79731
G1 X15.636 Y39.492 E8.80215
G1 X16.498 Y39.309 E8.82283
G1 X66.882 Y39.309 E10.00584
G1 X66.882 Y39.282 E10.00649
G1 X70.718 Y39.282 E10.09656
G1 X70.718 Y42.382 E10.16935
G1 X76.676 Y42.382 E10.30925
G1 X78.100 Y42.518 E10.34283
G1 X79.524 Y42.382 E10.37641
G1 X80.565 Y42.382 E10.40086
G1 X80.565 Y50.118 E10.58251
G1 X79.524 Y50.118 E10.60696
G1 X78.100 Y49.982 E10.64054
G1 X76.676 Y50.118 E10.67413
G1 X70.718 Y50.118 E10.81402
G1 X70.718 Y55.299 E10.93565
G1 X76.676 Y55.299 E11.07555
G1 X78.100 Y55.435 E11.10913
G1 X79.524 Y55.299 E11.14272
G1 X80.565 Y55.299 E11.16716
G1 X80.565 Y63.035 E11.34881
G1 X79.524 Y63.035 E11.37326
G1 X78.100 Y62.898 E11.40684
G1 X76.676 Y63.035 E11.44043
G1 X70.718 Y63.035 E11.58032
G1 X70.718 Y68.215 E11.70195
G1 X76.676 Y68.215 E11.84185
G1 X78.100 Y68.352 E11.87543
G1 X79.524 Y68.215 E11.90902
G1 X80.565 Y68.215 E11.93346
G1 X80.565 Y75.951 E12.11511
G1 X79.524 Y75.951 E12.13956
G1 X78.100 Y75.815 E12.17314
G1 X76.676 Y75.951 E12.20673
G1 X70.718 Y75.951 E12.34662
G1 X70.718 Y81.132 E12.46826
G1 X76.676 Y81.132 E12.60815
G1 X78.100 Y81.268 E12.64173
G1 X79.524 Y81.132 E12.67532
G1 X80.565 Y81.132 E12.69976
G1 X80.565 Y88.868 E12.88141
G1 X79.524 Y88.868 E12.90586
G1 X78.100 Y88.732 E12.93945
G1 X76.676 Y88.868 E12.97303
G1 X70.718 Y88.868 E13.11292
G1 X70.718 Y94.049 E13.23456
G1 X76.676 Y94.049 E13.37445
G1 X78.100 Y94.185 E13.40803
G1 X79.524 Y94.049 E13.44162
G1 X80.565 Y94.049 E13.46607
G1 X80.565 Y101.785 E13.64772
G1 X79.524 Y101.785 E13.67216
G1 X78.100 Y101.648 E13.70575
G1 X76.676 Y101.785 E13.73933
G1 X70.796 Y101.785 E13.87739
G1 X71.239 Y102.306 F7800.000
G1 X71.239 Y106.444 F378.000 E13.97455
G1 X76.745 Y106.444 E14.10381
G1 X78.100 Y106.578 E14.13579
G1 X79.455 Y106.444 E14.16777
G1 X81.086 Y106.444 E14.20606
G1 X81.086 Y115.223 E14.41219
G1 X79.455 Y115.223 E14.45048
G1 X78.100 Y115.088 E14.48246
G1 X76.745 Y115.223 E14.51444
G1 X71.239 Y115.223 E14.64370
G1 X71.239 Y119.361 E14.74086
G1 X76.745 Y119.361 E14.87012
G1 X78.100 Y119.495 E14.90210
G1 X79.455 Y119.361 E14.93408
G1 X81.086 Y119.361 E14.97237
G1 X81.086 Y128.139 E15.17850
G1 X79.455 Y128.139 E15.21679
G1 X78.100 Y128.005 E15.24877
G1 X76.745 Y128.139 E15.28075
G1 X71.239 Y128.139 E15.41001
G1 X71.239 Y131.239 E15.48280
G1 X66.361 Y131.239 E15.59736
G1 X66.361 Y131.212 E15.59800
G1 X16.443 Y131.212 E16.77006
G1 X15.474 Y131.006 E16.79331
G1 X14.927 Y130.762 E16.80738
G1 X14.927 Y39.238 E18.95638
G1 X15.474 Y38.994 E18.97045
G1 X16.443 Y38.788 E18.99371
G1 X66.361 Y38.788 E20.16576
G1 X66.361 Y38.761 E20.16641
G1 X71.239 Y38.761 E20.28096
G1 X71.239 Y41.861 E20.35375
G1 X76.745 Y41.861 E20.48301
G1 X78.100 Y41.995 E20.51499
G1 X79.455 Y41.861 E20.54697
G1 X81.086 Y41.861 E20.58526
G1 X81.086 Y50.639 E20.79139
G1 X79.455 Y50.639 E20.82968
G1 X78.100 Y50.505 E20.86166
G1 X76.745 Y50.639 E20.89364
G1 X71.239 Y50.639 E21.02290
G1 X71.239 Y54.777 E21.12006
G1 X76.745 Y54.777 E21.24933
G1 X78.100 Y54.912 E21.28131
G1 X79.455 Y54.777 E21.31328
