; generated by Slic3r 0.9.9 on 2013-08-11 at 15:33:01

; layer_height = 0.25
; perimeters = 2
; top_solid_layers = 3
; bottom_solid_layers = 3
; fill_density = 0.3
; perimeter_speed = 30
; infill_speed = 60
; travel_speed = 130
; nozzle_diameter = 0.35
; filament_diameter = 2.96
; extrusion_multiplier = 1
; perimeters extrusion width = 0.45mm
; infill extrusion width = 0.45mm
; solid infill extrusion width = 0.45mm
; top infill extrusion width = 0.45mm
; first layer extrusion width = 0.40mm

G21 ; set units to millimeters
M107
M190 S115 ; wait for bed temperature to be reached
M104 S240 ; set temperature
G28 ; home all axes
G1 Z5 F5000 ; lift nozzle
M109 S240 ; wait for temperature to be reached
G90 ; use absolute coordinates
G92 E0
M82 ; use absolute distances for extrusion
G1 F1800.000 E-1.50000
G92 E0
G1 Z-6.300 F7800.000
G1 X12.600 Y31.737
G1 F1800.000 E1.50000
G1 X13.250 Y31.507 F540.000 E1.50780
G1 X13.580 Y31.417 E1.51167
G1 X15.240 Y31.067 E1.53086
G1 X15.850 Y30.997 E1.53781
G1 X16.460 Y30.967 E1.54472
G1 X139.730 Y30.967 E2.93937
G1 X140.340 Y30.997 E2.94628
G1 X140.950 Y31.067 E2.95323
G1 X142.600 Y31.407 E2.97229
G1 X142.920 Y31.497 E2.97605
G1 X143.560 Y31.717 E2.98370
G1 X145.090 Y32.407 E3.00269
G1 X145.350 Y32.547 E3.00603
G1 X145.860 Y32.857 E3.01279
G1 X146.960 Y33.637 E3.02804
G1 X147.720 Y34.257 E3.03914
G1 X148.170 Y34.727 E3.04650
G1 X149.080 Y35.747 E3.06197
G1 X149.460 Y36.247 E3.06907
G1 X149.630 Y36.507 E3.07259
G1 X150.470 Y37.957 E3.09154
G1 X150.740 Y38.547 E3.09889
G1 X150.970 Y39.147 E3.10616
G1 X151.360 Y40.357 E3.12054
G1 X151.450 Y40.697 E3.12452
G1 X151.580 Y41.387 E3.13246
G1 X151.620 Y41.737 E3.13645
G1 X151.720 Y42.777 E3.14827
G1 X151.760 Y43.497 E3.15643
G1 X151.760 Y126.497 E4.09547
G1 X151.720 Y127.217 E4.10363
G1 X151.580 Y128.597 E4.11932
G1 X151.460 Y129.267 E4.12702
G1 X151.270 Y129.927 E4.13479
G1 X150.840 Y131.197 E4.14996
G1 X150.610 Y131.747 E4.15671
G1 X150.330 Y132.277 E4.16349
G1 X149.810 Y133.187 E4.17535
G1 X149.460 Y133.747 E4.18282
G1 X149.260 Y134.017 E4.18662
G1 X148.840 Y134.517 E4.19401
G1 X147.930 Y135.517 E4.20930
G1 X147.710 Y135.727 E4.21275
G1 X147.250 Y136.127 E4.21964
G1 X147.000 Y136.317 E4.22319
G1 X145.890 Y137.117 E4.23867
G1 X145.340 Y137.457 E4.24599
G1 X144.760 Y137.737 E4.25328
G1 X143.520 Y138.277 E4.26858
G1 X143.230 Y138.387 E4.27209
G1 X142.640 Y138.567 E4.27907
G1 X141.010 Y138.917 E4.29793
G1 X140.370 Y138.997 E4.30523
G1 X139.730 Y139.027 E4.31247
G1 X16.460 Y139.027 E5.70712
G1 X15.820 Y138.997 E5.71437
G1 X15.180 Y138.917 E5.72167
G1 X13.550 Y138.567 E5.74053
G1 X12.960 Y138.387 E5.74751
G1 X11.900 Y137.947 E5.76049
G1 X11.370 Y137.687 E5.76717
G1 X10.870 Y137.397 E5.77371
G1 X10.390 Y137.067 E5.78030
G1 X9.940 Y136.697 E5.78689
G1 X9.520 Y136.297 E5.79346
G1 X9.130 Y135.857 E5.80011
G1 X8.770 Y135.397 E5.80672
G1 X8.610 Y135.157 E5.80998
G1 X8.310 Y134.657 E5.81658
G1 X8.050 Y134.137 E5.82316
G1 X7.830 Y133.597 E5.82975
G1 X7.580 Y132.757 E5.83967
G1 X7.430 Y131.897 E5.84954
G1 X7.380 Y131.027 E5.85940
G1 X7.380 Y38.967 E6.90095
G1 X7.400 Y38.397 E6.90740
G1 X7.520 Y37.537 E6.91723
G1 X7.650 Y36.977 E6.92373
G1 X7.820 Y36.437 E6.93014
G1 X8.150 Y35.637 E6.93993
G1 X8.580 Y34.887 E6.94971
G1 X8.900 Y34.417 E6.95614
G1 X9.270 Y33.977 E6.96265
G1 X9.660 Y33.557 E6.96913
G1 X9.870 Y33.357 E6.97241
G1 X10.540 Y32.817 E6.98215
G1 X11.270 Y32.357 E6.99191
G1 X11.780 Y32.097 E6.99838
G1 X12.546 Y31.759 E7.00786
G1 X12.740 Y32.097 F7800.000
G1 X13.050 Y31.977 F540.000 E7.01162
G1 X13.680 Y31.787 E7.01906
G1 X15.010 Y31.507 E7.03444
G1 X15.590 Y31.417 E7.04108
G1 X16.460 Y31.357 E7.05095
G1 X139.730 Y31.357 E8.44560
G1 X140.310 Y31.387 E8.45217
G1 X141.180 Y31.507 E8.46210
G1 X142.510 Y31.787 E8.47748
G1 X143.110 Y31.967 E8.48457
G1 X143.710 Y32.207 E8.49188
G1 X144.660 Y32.637 E8.50368
G1 X145.160 Y32.887 E8.51000
G1 X145.650 Y33.187 E8.51650
G1 X146.980 Y34.137 E8.53499
G1 X147.450 Y34.547 E8.54205
G1 X147.880 Y34.987 E8.54901
G1 X148.580 Y35.767 E8.56087
G1 X148.960 Y36.227 E8.56762
G1 X149.140 Y36.467 E8.57101
G1 X149.460 Y36.967 E8.57773
G1 X149.980 Y37.867 E8.58949
G1 X150.260 Y38.417 E8.59647
G1 X150.500 Y38.977 E8.60336
G1 X150.600 Y39.267 E8.60683
G1 X150.990 Y40.467 E8.62111
G1 X151.070 Y40.787 E8.62484
G1 X151.200 Y41.437 E8.63234
G1 X151.330 Y42.807 E8.64791
G1 X151.370 Y43.497 E8.65573
G1 X151.370 Y126.497 E9.59477
G1 X151.330 Y127.187 E9.60259
G1 X151.200 Y128.547 E9.61805
G1 X151.000 Y129.497 E9.62903
G1 X150.570 Y130.797 E9.64452
G1 X150.370 Y131.327 E9.65093
G1 X150.130 Y131.837 E9.65731
G1 X149.470 Y132.997 E9.67241
G1 X149.140 Y133.527 E9.67947
G1 X148.760 Y134.027 E9.68658
G1 X147.450 Y135.447 E9.70844
G1 X147.010 Y135.817 E9.71494
G1 X145.670 Y136.797 E9.73372
G1 X144.880 Y137.257 E9.74407
G1 X143.380 Y137.917 E9.76261
G1 X142.550 Y138.187 E9.77248
G1 X141.240 Y138.477 E9.78766
G1 X140.640 Y138.577 E9.79454
G1 X139.730 Y138.637 E9.80486
G1 X16.460 Y138.637 E11.19951
G1 X15.550 Y138.577 E11.20983
G1 X14.950 Y138.477 E11.21671
G1 X13.930 Y138.257 E11.22852
G1 X13.090 Y138.017 E11.23840
G1 X12.550 Y137.807 E11.24495
G1 X11.790 Y137.467 E11.25437
G1 X11.290 Y137.197 E11.26080
G1 X10.580 Y136.717 E11.27050
G1 X10.140 Y136.347 E11.27700
G1 X9.730 Y135.957 E11.28341
G1 X9.180 Y135.297 E11.29313
G1 X8.710 Y134.577 E11.30285
G1 X8.450 Y134.067 E11.30933
G1 X8.330 Y133.807 E11.31257
G1 X8.130 Y133.277 E11.31898
G1 X7.910 Y132.447 E11.32869
G1 X7.790 Y131.597 E11.33841
G1 X7.770 Y131.027 E11.34486
G1 X7.770 Y38.967 E12.38640
G1 X7.790 Y38.407 E12.39274
G1 X7.860 Y37.847 E12.39913
G1 X7.970 Y37.297 E12.40547
G1 X8.120 Y36.747 E12.41192
G1 X8.320 Y36.227 E12.41823
G1 X8.550 Y35.707 E12.42466
G1 X8.830 Y35.217 E12.43105
G1 X9.140 Y34.747 E12.43742
G1 X9.490 Y34.307 E12.44378
G1 X9.870 Y33.897 E12.45010
G1 X10.290 Y33.517 E12.45651
G1 X10.730 Y33.167 E12.46287
G1 X11.440 Y32.707 E12.47244
G1 X11.940 Y32.457 E12.47877
G1 X12.686 Y32.121 E12.48803
G1 X12.890 Y32.457 F7800.000
G1 X13.470 Y32.247 F540.000 E12.49501
G1 X13.770 Y32.167 E12.49852
G1 X15.090 Y31.887 E12.51379
G1 X15.910 Y31.767 E12.52317
G1 X16.460 Y31.747 E12.52939
G1 X139.730 Y31.747 E13.92404
G1 X140.280 Y31.767 E13.93027
G1 X140.830 Y31.837 E13.93654
G1 X142.120 Y32.097 E13.95143
G1 X142.990 Y32.337 E13.96164
G1 X143.550 Y32.557 E13.96845
G1 X144.500 Y32.987 E13.98024
G1 X144.970 Y33.227 E13.98621
G1 X145.430 Y33.507 E13.99231
G1 X146.500 Y34.267 E14.00716
G1 X146.740 Y34.447 E14.01055
G1 X147.180 Y34.827 E14.01713
G1 X147.590 Y35.247 E14.02377
G1 X148.480 Y36.247 E14.03891
G1 X148.820 Y36.687 E14.04521
G1 X149.120 Y37.167 E14.05161
G1 X149.640 Y38.067 E14.06337
G1 X149.910 Y38.577 E14.06990
G1 X150.130 Y39.117 E14.07649
G1 X150.520 Y40.277 E14.09034
G1 X150.760 Y41.187 E14.10099
G1 X150.850 Y41.807 E14.10808
G1 X150.950 Y42.847 E14.11990
G1 X150.980 Y43.497 E14.12726
G1 X150.980 Y126.497 E15.06630
G1 X150.950 Y127.147 E15.07366
G1 X150.810 Y128.487 E15.08891
G1 X150.700 Y129.087 E15.09581
G1 X150.530 Y129.677 E15.10275
G1 X150.110 Y130.927 E15.11767
G1 X149.900 Y131.417 E15.12371
G1 X149.660 Y131.887 E15.12968
G1 X149.140 Y132.797 E15.14153
G1 X148.820 Y133.297 E15.14825
G1 X148.460 Y133.777 E15.15504
G1 X148.270 Y133.997 E15.15833
G1 X147.380 Y134.967 E15.17322
G1 X146.980 Y135.337 E15.17939
G1 X146.540 Y135.687 E15.18575
G1 X145.690 Y136.307 E15.19765
G1 X145.210 Y136.627 E15.20418
G1 X144.960 Y136.767 E15.20742
G1 X144.440 Y137.027 E15.21400
G1 X143.240 Y137.557 E15.22884
G1 X142.710 Y137.737 E15.23517
G1 X142.180 Y137.877 E15.24137
G1 X140.880 Y138.147 E15.25639
G1 X140.310 Y138.217 E15.26289
G1 X139.730 Y138.247 E15.26946
G1 X16.460 Y138.247 E16.66411
G1 X15.880 Y138.217 E16.67068
G1 X15.310 Y138.147 E16.67718
G1 X14.010 Y137.877 E16.69220
G1 X13.480 Y137.737 E16.69840
G1 X12.960 Y137.557 E16.70463
G1 X11.960 Y137.117 E16.71699
G1 X11.720 Y136.997 E16.72002
G1 X11.260 Y136.717 E16.72612
G1 X10.820 Y136.407 E16.73221
G1 X10.400 Y136.067 E16.73832
G1 X10.200 Y135.877 E16.74144
G1 X9.830 Y135.487 E16.74752
G1 X9.490 Y135.067 E16.75364
G1 X9.050 Y134.387 E16.76280
G1 X8.800 Y133.907 E16.76892
G1 X8.500 Y133.157 E16.77806
G1 X8.350 Y132.637 E16.78419
G1 X8.210 Y131.837 E16.79337
G1 X8.180 Y131.567 E16.79645
G1 X8.160 Y131.027 E16.80256
G1 X8.160 Y38.967 E17.84411
G1 X8.180 Y38.417 E17.85033
G1 X8.210 Y38.137 E17.85352
G1 X8.300 Y37.597 E17.85971
G1 X8.430 Y37.057 E17.86600
G1 X8.610 Y36.537 E17.87222
G1 X8.950 Y35.787 E17.88154
G1 X9.230 Y35.307 E17.88783
G1 X9.390 Y35.077 E17.89100
G1 X9.720 Y34.647 E17.89713
G1 X10.090 Y34.227 E17.90346
G1 X10.490 Y33.857 E17.90963
G1 X10.920 Y33.507 E17.91590
G1 X11.380 Y33.197 E17.92218
G1 X11.860 Y32.927 E17.92841
G1 X12.836 Y32.480 E17.94056
G1 X13.040 Y32.817 F7800.000
G1 X13.870 Y32.547 F540.000 E17.95043
G1 X15.170 Y32.267 E17.96548
G1 X15.430 Y32.217 E17.96847
G1 X15.940 Y32.157 E17.97428
G1 X16.460 Y32.137 E17.98017
G1 X139.730 Y32.137 E19.37482
G1 X140.250 Y32.157 E19.38070
G1 X140.760 Y32.217 E19.38651
G1 X142.040 Y32.477 E19.40129
G1 X142.590 Y32.617 E19.40771
G1 X142.860 Y32.707 E19.41093
G1 X143.380 Y32.917 E19.41728
G1 X144.330 Y33.347 E19.42908
G1 X144.790 Y33.577 E19.43489
G1 X145.430 Y33.977 E19.44343
G1 X146.280 Y34.587 E19.45527
G1 X146.710 Y34.927 E19.46147
G1 X147.120 Y35.307 E19.46780
G1 X148.180 Y36.487 E19.48574
G1 X148.500 Y36.917 E19.49181
G1 X148.780 Y37.357 E19.49771
G1 X149.430 Y38.497 E19.51255
G1 X149.770 Y39.247 E19.52187
G1 X150.240 Y40.677 E19.53890
G1 X150.380 Y41.257 E19.54565
G1 X150.460 Y41.847 E19.55239
G1 X150.560 Y42.887 E19.56421
G1 X150.590 Y43.497 E19.57112
G1 X150.590 Y126.497 E20.51016
G1 X150.560 Y127.107 E20.51707
G1 X150.430 Y128.437 E20.53219
G1 X150.320 Y129.007 E20.53876
G1 X150.160 Y129.557 E20.54524
G1 X149.750 Y130.787 E20.55991
G1 X149.440 Y131.477 E20.56846
G1 X148.800 Y132.607 E20.58316
G1 X148.340 Y133.307 E20.59263
G1 X147.980 Y133.737 E20.59898
G1 X147.280 Y134.507 E20.61075
G1 X146.720 Y135.047 E20.61955
G1 X146.320 Y135.367 E20.62535
G1 X145.240 Y136.147 E20.64042
G1 X144.530 Y136.557 E20.64970
G1 X143.090 Y137.187 E20.66748
G1 X142.600 Y137.367 E20.67339
G1 X142.350 Y137.437 E20.67632
G1 X140.810 Y137.767 E20.69414
G1 X140.270 Y137.837 E20.70030
G1 X139.730 Y137.857 E20.70642
G1 X16.460 Y137.857 E22.10107
G1 X15.920 Y137.837 E22.10718
G1 X15.380 Y137.767 E22.11334
G1 X14.090 Y137.497 E22.12825
G1 X13.590 Y137.367 E22.13410
G1 X13.110 Y137.197 E22.13986
G1 X12.130 Y136.767 E22.15196
G1 X11.660 Y136.517 E22.15799
G1 X11.220 Y136.227 E22.16395
G1 X10.610 Y135.727 E22.17287
G1 X10.060 Y135.157 E22.18183
G1 X9.590 Y134.517 E22.19082
G1 X9.320 Y134.067 E22.19676
G1 X8.990 Y133.347 E22.20572
G1 X8.750 Y132.597 E22.21463
G1 X8.600 Y131.817 E22.22361
G1 X8.570 Y131.557 E22.22657
G1 X8.550 Y131.027 E22.23257
G1 X8.550 Y38.967 E23.27412
G1 X8.570 Y38.427 E23.28023
G1 X8.600 Y38.157 E23.28331
G1 X8.750 Y37.367 E23.29240
G1 X8.910 Y36.847 E23.29856
G1 X9.110 Y36.347 E23.30465
G1 X9.350 Y35.867 E23.31072
G1 X9.630 Y35.407 E23.31682
G1 X9.950 Y34.977 E23.32288
G1 X10.310 Y34.567 E23.32905
G1 X10.700 Y34.187 E23.33521
G1 X11.110 Y33.847 E23.34124
G1 X11.560 Y33.547 E23.34736
G1 X12.030 Y33.277 E23.35349
G1 X12.987 Y32.841 E23.36539
G1 F1800.000 E21.86539
G92 E0
G1 X119.840 Y66.288 F7800.000
G1 F1800.000 E1.50000
G1 X122.024 Y64.405 F540.000 E1.53263
G1 X125.005 Y63.777 E1.56710
G1 X128.050 Y64.488 E1.60247
G1 X130.068 Y66.557 E1.63517
G1 X130.749 Y69.476 E1.66908
G1 X129.879 Y72.538 E1.70510
G1 X126.823 Y74.701 E1.74745
G1 X126.238 Y72.053 E1.77813
G1 X127.994 Y70.861 E1.80214
G1 X128.397 Y69.429 E1.81898
G1 X127.931 Y67.696 E1.83928
G1 X126.700 Y66.734 E1.85694
G1 X125.007 Y66.438 E1.87639
G1 X123.017 Y66.793 E1.89926
G1 X121.839 Y67.814 E1.91690
G1 X121.451 Y69.305 E1.93433
G1 X121.979 Y70.959 E1.95397
G1 X124.081 Y72.189 E1.98153
G1 X123.566 Y74.367 E2.00685
G1 X124.824 Y74.082 E2.02144
G1 X129.168 Y75.550 E2.07333
G1 X130.768 Y79.417 E2.12067
G1 X130.004 Y82.261 E2.15399
G1 X127.897 Y84.169 E2.18615
G1 X125.865 Y84.605 E2.20966
G1 X125.857 Y84.744 E2.21123
G1 X129.168 Y85.863 E2.25077
G1 X130.768 Y89.730 E2.29812
G1 X130.004 Y92.574 E2.33143
G1 X127.622 Y94.730 E2.36779
G1 X130.385 Y94.730 E2.39905
G1 X130.385 Y97.236 E2.42739
G1 X123.645 Y102.632 E2.52508
G1 X123.676 Y102.720 E2.52613
G1 X130.385 Y102.720 E2.60204
G1 X130.385 Y105.423 E2.63263
G1 X119.116 Y105.423 E2.76013
G1 X119.116 Y102.916 E2.78849
G1 X125.863 Y97.520 E2.88623
G1 X125.832 Y97.432 E2.88729
G1 X119.116 Y97.432 E2.96327
G1 X119.116 Y94.730 E2.99383
G1 X122.175 Y94.730 E3.02844
G1 X119.800 Y92.490 E3.06537
G1 X119.096 Y89.758 E3.09729
G1 X119.871 Y86.929 E3.13048
G1 X121.994 Y85.036 E3.16266
G1 X123.549 Y84.683 E3.18070
G1 X123.549 Y84.508 E3.18268
G1 X121.876 Y84.136 E3.20206
G1 X119.800 Y82.178 E3.23435
G1 X119.096 Y79.445 E3.26627
G1 X119.871 Y76.617 E3.29946
G1 X121.994 Y74.723 E3.33164
G1 X122.943 Y74.508 E3.34265
G1 X120.069 Y72.663 E3.38129
G1 X119.096 Y69.459 E3.41917
G1 X119.827 Y66.345 E3.45536
G1 X120.190 Y66.500 F7800.000
G1 X122.202 Y64.765 F378.000 E3.48542
G1 X125.001 Y64.176 E3.51778
G1 X127.851 Y64.842 E3.55089
G1 X129.713 Y66.751 E3.58107
G1 X130.347 Y69.467 E3.61262
G1 X129.542 Y72.300 E3.64594
G1 X127.077 Y74.044 E3.68011
G1 X126.675 Y72.227 E3.70117
G1 X128.331 Y71.103 E3.72381
G1 X128.801 Y69.431 E3.74346
G1 X128.282 Y67.477 E3.76633
G1 X126.863 Y66.368 E3.78671
G1 X125.007 Y66.043 E3.80803
G1 X122.843 Y66.428 E3.83290
G1 X121.493 Y67.599 E3.85311
G1 X121.046 Y69.316 E3.87318
G1 X121.654 Y71.220 E3.89580
G1 X123.636 Y72.380 E3.92178
G1 X123.202 Y74.212 E3.94309
G1 X120.400 Y72.413 E3.98077
G1 X119.499 Y69.446 E4.01585
G1 X120.177 Y66.557 E4.04942
G1 X120.039 Y66.141 F7800.000
G1 F1800.000 E2.54942
G92 E0
G1 X119.505 Y95.120 F7800.000
G1 F1800.000 E1.50000
G1 X129.996 Y95.120 F378.000 E1.61869
G1 X129.996 Y97.049 E1.64051
G1 X122.481 Y103.065 E1.74943
G1 X122.496 Y103.109 E1.74995
G1 X129.996 Y103.109 E1.83480
G1 X129.996 Y105.034 E1.85658
G1 X119.505 Y105.034 E1.97527
G1 X119.505 Y103.103 E1.99711
G1 X127.028 Y97.087 E2.10609
G1 X127.012 Y97.043 E2.10662
G1 X119.505 Y97.043 E2.19155
G1 X119.505 Y95.178 E2.21264
G1 X119.505 Y94.730 F7800.000
G1 X121.869 Y93.907
G1 X120.149 Y92.284 F540.000 E2.23939
G1 X119.499 Y89.761 E2.26888
G1 X120.216 Y87.143 E2.29959
G1 X122.178 Y85.393 E2.32933
G1 X124.803 Y84.798 E2.35978
G1 X128.876 Y86.175 E2.40843
G1 X130.358 Y89.757 E2.45228
G1 X129.658 Y92.362 E2.48280
G1 X127.713 Y94.123 E2.51248
G1 X124.908 Y94.724 E2.54494
G1 X122.065 Y94.092 E2.57788
G1 X121.912 Y93.947 E2.58028
G1 X121.496 Y94.018 F7800.000
G1 F1800.000 E1.08028
G92 E0
G1 X124.631 Y84.350 F7800.000
G1 F1800.000 E1.50000
G1 X122.065 Y83.780 F540.000 E1.52973
G1 X120.149 Y81.972 E1.55954
G1 X119.499 Y79.448 E1.58902
G1 X120.216 Y76.831 E1.61973
G1 X122.178 Y75.081 E1.64947
G1 X124.803 Y74.486 E1.67993
G1 X128.876 Y75.863 E1.72857
G1 X130.358 Y79.444 E1.77242
G1 X129.658 Y82.050 E1.80294
G1 X127.713 Y83.811 E1.83263
G1 X124.908 Y84.412 E1.86508
G1 X124.688 Y84.363 E1.86763
G1 X124.368 Y84.637 F7800.000
G1 X85.284 Y79.249
G1 X79.278 Y79.249 F540.000 E1.93559
G1 X78.100 Y79.361 E1.94897
G1 X77.586 Y79.315 E1.95481
G1 X77.586 Y77.768 E1.97230
G1 X78.100 Y77.722 E1.97814
G1 X79.275 Y77.834 E1.99149
G1 X85.284 Y77.834 E2.05948
G1 X85.284 Y66.333 E2.18960
G1 X79.278 Y66.333 E2.25755
G1 X78.100 Y66.445 E2.27093
G1 X77.586 Y66.398 E2.27677
G1 X77.586 Y64.852 E2.29426
G1 X78.100 Y64.805 E2.30010
G1 X79.275 Y64.917 E2.31345
G1 X85.284 Y64.917 E2.38144
G1 X85.284 Y53.416 E2.51156
G1 X79.276 Y53.416 E2.57953
G1 X78.100 Y53.528 E2.59289
G1 X77.586 Y53.482 E2.59873
G1 X77.586 Y51.935 E2.61622
G1 X78.100 Y51.889 E2.62206
G1 X79.275 Y52.001 E2.63541
G1 X85.284 Y52.001 E2.70340
G1 X85.284 Y40.499 E2.83352
G1 X79.276 Y40.499 E2.90149
G1 X78.100 Y40.611 E2.91486
G1 X77.586 Y40.565 E2.92069
G1 X77.586 Y39.111 E2.93714
G1 X139.671 Y39.111 E3.63955
G1 X140.573 Y39.303 E3.64998
G1 X141.416 Y39.678 E3.66042
G1 X142.162 Y40.221 E3.67086
G1 X142.780 Y40.906 E3.68130
G1 X143.241 Y41.705 E3.69173
