; generated by Slic3r 0.9.9 on 2013-08-14 at 22:50:16

; layer_height = 0.25
; perimeters = 2
; top_solid_layers = 3
; bottom_solid_layers = 3
; fill_density = 0.3
; perimeter_speed = 30
; infill_speed = 60
; travel_speed = 130
; nozzle_diameter = 0.35
; filament_diameter = 2.96
; extrusion_multiplier = 1
; perimeters extrusion width = 0.45mm
; infill extrusion width = 0.45mm
; solid infill extrusion width = 0.45mm
; top infill extrusion width = 0.45mm
; first layer extrusion width = 0.40mm

G21 ; set units to millimeters
M107
M190 S115 ; wait for bed temperature to be reached
M104 S240 ; set temperature
G28 ; home all axes
G1 Z5 F5000 ; lift nozzle
M109 S240 ; wait for temperature to be reached
G90 ; use absolute coordinates
G92 E0
M82 ; use absolute distances for extrusion
G1 F1800.000 E-1.50000
G92 E0
G1 Z-5.400 F7800.000
G1 X11.660 Y33.770
G1 F1800.000 E1.50000
G1 X12.200 Y33.590 F540.000 E1.50644
G1 X12.750 Y33.460 E1.51283
G1 X13.600 Y33.350 E1.52253
G1 X78.850 Y31.170 E2.26117
G1 X144.510 Y31.170 E3.00403
G1 X145.370 Y31.220 E3.01378
G1 X145.660 Y31.260 E3.01709
G1 X146.500 Y31.450 E3.02683
G1 X147.320 Y31.740 E3.03667
G1 X147.580 Y31.860 E3.03991
G1 X148.090 Y32.130 E3.04644
G1 X148.580 Y32.440 E3.05300
G1 X149.040 Y32.780 E3.05947
G1 X149.470 Y33.160 E3.06596
G1 X149.710 Y33.390 E3.06972
G1 X150.300 Y34.040 E3.07966
G1 X150.700 Y34.530 E3.08681
G1 X151.180 Y35.190 E3.09605
G1 X151.520 Y35.720 E3.10317
G1 X151.950 Y36.480 E3.11305
G1 X152.220 Y37.040 E3.12008
G1 X152.590 Y37.990 E3.13162
G1 X152.780 Y38.590 E3.13874
G1 X152.990 Y39.390 E3.14810
G1 X153.110 Y40.010 E3.15524
G1 X153.220 Y40.920 E3.16561
G1 X153.280 Y42.000 E3.17785
G1 X153.280 Y127.990 E4.15072
G1 X153.220 Y129.070 E4.16296
G1 X153.110 Y129.980 E4.17333
G1 X152.990 Y130.600 E4.18047
G1 X152.780 Y131.400 E4.18983
G1 X152.590 Y132.000 E4.19695
G1 X152.220 Y132.950 E4.20849
G1 X151.950 Y133.510 E4.21552
G1 X151.520 Y134.270 E4.22540
G1 X151.180 Y134.800 E4.23252
G1 X150.700 Y135.460 E4.24176
G1 X150.300 Y135.950 E4.24891
G1 X149.710 Y136.600 E4.25884
G1 X149.470 Y136.830 E4.26260
G1 X149.040 Y137.210 E4.26910
G1 X148.580 Y137.550 E4.27557
G1 X148.090 Y137.860 E4.28213
G1 X147.320 Y138.250 E4.29189
G1 X146.500 Y138.540 E4.30173
G1 X145.660 Y138.730 E4.31148
G1 X145.370 Y138.770 E4.31479
G1 X144.800 Y138.810 E4.32125
G1 X78.850 Y138.820 E5.06740
G1 X13.600 Y136.650 E5.80603
G1 X13.050 Y136.590 E5.81229
G1 X12.780 Y136.540 E5.81540
G1 X12.240 Y136.420 E5.82165
G1 X11.710 Y136.250 E5.82795
G1 X10.940 Y135.930 E5.83739
G1 X10.460 Y135.660 E5.84362
G1 X9.990 Y135.360 E5.84993
G1 X9.340 Y134.840 E5.85934
G1 X8.940 Y134.450 E5.86566
G1 X8.570 Y134.040 E5.87191
G1 X8.080 Y133.370 E5.88130
G1 X7.800 Y132.890 E5.88759
G1 X7.560 Y132.390 E5.89386
G1 X7.450 Y132.130 E5.89706
G1 X7.190 Y131.350 E5.90636
G1 X7.000 Y130.600 E5.91511
G1 X6.880 Y129.980 E5.92226
G1 X6.770 Y129.070 E5.93263
G1 X6.710 Y127.990 E5.94487
G1 X6.710 Y41.990 E6.91785
G1 X6.770 Y40.910 E6.93009
G1 X6.880 Y40.010 E6.94035
G1 X7.000 Y39.390 E6.94749
G1 X7.210 Y38.570 E6.95707
G1 X7.490 Y37.780 E6.96655
G1 X7.720 Y37.270 E6.97288
G1 X8.000 Y36.770 E6.97936
G1 X8.310 Y36.300 E6.98573
G1 X8.660 Y35.850 E6.99218
G1 X9.050 Y35.430 E6.99867
G1 X9.470 Y35.050 E7.00508
G1 X9.910 Y34.700 E7.01144
G1 X10.380 Y34.380 E7.01787
G1 X11.140 Y33.980 E7.02759
G1 X11.606 Y33.791 E7.03327
G1 X11.730 Y34.160 F7800.000
G1 X12.250 Y33.980 F540.000 E7.03950
G1 X12.790 Y33.850 E7.04578
G1 X13.070 Y33.800 E7.04900
G1 X13.620 Y33.740 E7.05526
G1 X78.850 Y31.560 E7.79367
G1 X144.510 Y31.560 E8.53653
G1 X145.080 Y31.590 E8.54299
G1 X145.660 Y31.660 E8.54960
G1 X145.940 Y31.710 E8.55282
G1 X146.490 Y31.860 E8.55927
G1 X146.770 Y31.950 E8.56259
G1 X147.300 Y32.160 E8.56904
G1 X147.820 Y32.420 E8.57562
G1 X148.310 Y32.720 E8.58212
G1 X148.990 Y33.250 E8.59188
G1 X149.440 Y33.680 E8.59892
G1 X150.000 Y34.280 E8.60820
G1 X150.400 Y34.770 E8.61536
G1 X150.860 Y35.400 E8.62418
G1 X151.200 Y35.930 E8.63131
G1 X151.600 Y36.650 E8.64063
G1 X151.870 Y37.210 E8.64766
G1 X152.220 Y38.100 E8.65848
G1 X152.410 Y38.700 E8.66560
G1 X152.610 Y39.460 E8.67449
G1 X152.730 Y40.080 E8.68164
G1 X152.830 Y40.940 E8.69143
G1 X152.890 Y42.000 E8.70344
G1 X152.890 Y127.990 E9.67632
G1 X152.830 Y129.050 E9.68833
G1 X152.730 Y129.910 E9.69812
G1 X152.610 Y130.530 E9.70527
G1 X152.410 Y131.290 E9.71416
G1 X152.220 Y131.890 E9.72128
G1 X151.870 Y132.780 E9.73210
G1 X151.600 Y133.340 E9.73913
G1 X151.200 Y134.060 E9.74845
G1 X150.860 Y134.590 E9.75558
G1 X150.400 Y135.220 E9.76440
G1 X150.000 Y135.710 E9.77156
G1 X149.440 Y136.310 E9.78084
G1 X148.990 Y136.740 E9.78789
G1 X148.540 Y137.100 E9.79441
G1 X148.310 Y137.270 E9.79764
G1 X147.820 Y137.570 E9.80414
G1 X147.040 Y137.940 E9.81391
G1 X146.220 Y138.210 E9.82368
G1 X145.940 Y138.280 E9.82694
G1 X145.370 Y138.370 E9.83347
G1 X144.510 Y138.430 E9.84322
G1 X78.850 Y138.430 E10.58609
G1 X13.620 Y136.260 E11.32449
G1 X13.350 Y136.240 E11.32755
G1 X12.550 Y136.100 E11.33674
G1 X11.780 Y135.860 E11.34587
G1 X11.520 Y135.760 E11.34902
G1 X10.790 Y135.410 E11.35818
G1 X10.110 Y134.970 E11.36734
G1 X9.690 Y134.630 E11.37346
G1 X9.290 Y134.260 E11.37962
G1 X8.760 Y133.650 E11.38876
G1 X8.440 Y133.210 E11.39492
G1 X8.300 Y132.980 E11.39797
G1 X8.040 Y132.500 E11.40414
G1 X7.820 Y132.000 E11.41032
G1 X7.560 Y131.230 E11.41952
G1 X7.380 Y130.530 E11.42769
G1 X7.260 Y129.910 E11.43484
G1 X7.160 Y129.050 E11.44463
G1 X7.100 Y127.990 E11.45665
G1 X7.100 Y41.990 E12.42963
G1 X7.160 Y40.930 E12.44164
G1 X7.260 Y40.080 E12.45133
G1 X7.380 Y39.460 E12.45847
G1 X7.580 Y38.680 E12.46758
G1 X7.850 Y37.910 E12.47681
G1 X8.090 Y37.410 E12.48309
G1 X8.360 Y36.930 E12.48932
G1 X8.670 Y36.470 E12.49559
G1 X9.020 Y36.040 E12.50187
G1 X9.400 Y35.630 E12.50819
G1 X9.810 Y35.260 E12.51444
G1 X10.260 Y34.930 E12.52075
G1 X10.730 Y34.630 E12.52706
G1 X11.220 Y34.370 E12.53334
G1 X11.676 Y34.181 E12.53892
G1 X11.860 Y34.520 F7800.000
G1 X12.110 Y34.430 F540.000 E12.54192
G1 X12.870 Y34.230 E12.55081
G1 X13.390 Y34.150 E12.55677
G1 X13.910 Y34.110 E12.56267
G1 X78.640 Y31.950 E13.29541
G1 X144.510 Y31.950 E14.04065
G1 X145.050 Y31.970 E14.04677
G1 X145.590 Y32.040 E14.05293
G1 X145.860 Y32.090 E14.05603
G1 X146.380 Y32.230 E14.06213
G1 X146.890 Y32.410 E14.06825
G1 X147.390 Y32.630 E14.07443
G1 X147.860 Y32.900 E14.08056
G1 X148.310 Y33.200 E14.08668
G1 X148.730 Y33.540 E14.09279
G1 X149.170 Y33.960 E14.09967
G1 X149.700 Y34.530 E14.10848
G1 X150.100 Y35.020 E14.11563
G1 X150.530 Y35.610 E14.12389
G1 X150.870 Y36.140 E14.13102
G1 X151.250 Y36.820 E14.13983
G1 X151.520 Y37.380 E14.14687
G1 X151.850 Y38.220 E14.15708
G1 X152.040 Y38.820 E14.16420
G1 X152.220 Y39.540 E14.17259
G1 X152.340 Y40.160 E14.17974
G1 X152.450 Y40.970 E14.18899
G1 X152.500 Y42.000 E14.20065
G1 X152.500 Y127.990 E15.17352
G1 X152.450 Y129.020 E15.18519
G1 X152.340 Y129.830 E15.19444
G1 X152.220 Y130.450 E15.20158
G1 X152.040 Y131.170 E15.20998
G1 X151.850 Y131.770 E15.21710
G1 X151.520 Y132.610 E15.22731
G1 X151.250 Y133.170 E15.23435
G1 X150.870 Y133.850 E15.24316
G1 X150.530 Y134.380 E15.25028
G1 X150.100 Y134.970 E15.25854
G1 X149.700 Y135.460 E15.26570
G1 X149.170 Y136.030 E15.27451
G1 X148.730 Y136.450 E15.28139
G1 X148.310 Y136.790 E15.28750
G1 X147.630 Y137.230 E15.29666
G1 X147.390 Y137.360 E15.29975
G1 X146.890 Y137.580 E15.30593
G1 X146.380 Y137.760 E15.31205
G1 X145.860 Y137.900 E15.31814
G1 X145.050 Y138.020 E15.32741
G1 X144.510 Y138.040 E15.33352
G1 X78.640 Y138.040 E16.07876
G1 X13.910 Y135.890 E16.81150
G1 X13.380 Y135.850 E16.81752
G1 X13.120 Y135.810 E16.82049
G1 X12.600 Y135.710 E16.82649
G1 X12.100 Y135.560 E16.83239
G1 X11.600 Y135.370 E16.83844
G1 X10.900 Y135.020 E16.84730
G1 X10.240 Y134.580 E16.85627
G1 X9.640 Y134.060 E16.86525
G1 X9.110 Y133.470 E16.87423
G1 X8.660 Y132.820 E16.88317
G1 X8.290 Y132.120 E16.89213
G1 X8.010 Y131.380 E16.90108
G1 X7.770 Y130.450 E16.91195
G1 X7.650 Y129.830 E16.91909
G1 X7.540 Y129.020 E16.92834
G1 X7.500 Y128.390 E16.93548
G1 X7.490 Y41.990 E17.91299
G1 X7.540 Y40.960 E17.92466
G1 X7.650 Y40.160 E17.93380
G1 X7.770 Y39.540 E17.94094
G1 X7.950 Y38.800 E17.94956
G1 X8.210 Y38.060 E17.95843
G1 X8.430 Y37.590 E17.96430
G1 X8.690 Y37.130 E17.97028
G1 X8.980 Y36.700 E17.97615
G1 X9.310 Y36.290 E17.98210
G1 X9.670 Y35.910 E17.98802
G1 X10.060 Y35.560 E17.99395
G1 X10.480 Y35.250 E17.99986
G1 X10.920 Y34.970 E18.00576
G1 X11.150 Y34.840 E18.00875
G1 X11.806 Y34.542 E18.01690
G1 F1800.000 E16.51690
G92 E0
G1 X91.953 Y81.346 F7800.000
G1 F1800.000 E1.50000
G1 X92.464 Y80.542 F540.000 E1.51078
G1 X93.071 Y79.808 E1.52155
G1 X93.765 Y79.156 E1.53233
G1 X94.536 Y78.596 E1.54311
G1 X95.370 Y78.137 E1.55388
G1 X96.256 Y77.786 E1.56466
G1 X97.179 Y77.549 E1.57544
G1 X98.124 Y77.430 E1.58621
G1 X99.076 Y77.430 E1.59699
G1 X100.021 Y77.549 E1.60777
G1 X100.944 Y77.786 E1.61854
G1 X101.830 Y78.137 E1.62932
G1 X102.664 Y78.596 E1.64010
G1 X103.350 Y79.094 E1.64969
G1 X104.129 Y79.808 E1.66164
G1 X104.736 Y80.542 E1.67242
G1 X105.247 Y81.346 E1.68320
G1 X105.652 Y82.208 E1.69397
G1 X105.914 Y83.014 E1.70356
G1 X106.125 Y84.049 E1.71552
G1 X106.185 Y85.000 E1.72630
G1 X106.125 Y85.951 E1.73707
G1 X105.914 Y86.986 E1.74903
G1 X105.652 Y87.792 E1.75862
G1 X105.247 Y88.654 E1.76939
G1 X104.736 Y89.458 E1.78017
G1 X104.129 Y90.192 E1.79095
G1 X103.435 Y90.844 E1.80172
G1 X102.664 Y91.404 E1.81250
G1 X101.830 Y91.863 E1.82328
G1 X100.944 Y92.214 E1.83406
G1 X100.021 Y92.451 E1.84483
G1 X99.076 Y92.570 E1.85561
G1 X98.124 Y92.570 E1.86639
G1 X97.077 Y92.425 E1.87834
G1 X96.256 Y92.214 E1.88793
G1 X95.370 Y91.863 E1.89871
G1 X94.536 Y91.404 E1.90948
G1 X93.765 Y90.844 E1.92026
G1 X93.071 Y90.192 E1.93104
G1 X92.464 Y89.458 E1.94182
G1 X91.953 Y88.654 E1.95259
G1 X91.548 Y87.792 E1.96337
G1 X91.234 Y86.783 E1.97532
G1 X91.075 Y85.951 E1.98491
G1 X91.015 Y85.000 E1.99569
G1 X91.075 Y84.049 E2.00647
G1 X91.253 Y83.114 E2.01724
G1 X91.548 Y82.208 E2.02802
G1 X91.928 Y81.399 E2.03814
G1 X92.295 Y81.534 F7800.000
G1 X92.779 Y80.771 F378.000 E2.04836
G1 X93.355 Y80.075 E2.05858
G1 X94.014 Y79.456 E2.06881
G1 X94.745 Y78.925 E2.07903
G1 X95.466 Y78.529 E2.08834
G1 X96.377 Y78.157 E2.09947
G1 X97.252 Y77.932 E2.10969
G1 X98.148 Y77.819 E2.11991
G1 X99.052 Y77.819 E2.13013
G1 X99.948 Y77.932 E2.14036
G1 X100.823 Y78.157 E2.15058
G1 X101.664 Y78.490 E2.16080
G1 X102.455 Y78.925 E2.17103
G1 X103.121 Y79.409 E2.18034
G1 X103.845 Y80.075 E2.19146
G1 X104.421 Y80.771 E2.20169
G1 X104.905 Y81.534 E2.21191
G1 X105.290 Y82.351 E2.22213
G1 X105.544 Y83.134 E2.23144
G1 X105.738 Y84.098 E2.24257
G1 X105.795 Y85.000 E2.25279
G1 X105.738 Y85.902 E2.26302
G1 X105.544 Y86.866 E2.27414
G1 X105.290 Y87.649 E2.28346
G1 X104.905 Y88.466 E2.29368
G1 X104.421 Y89.229 E2.30390
G1 X103.845 Y89.925 E2.31412
G1 X103.186 Y90.544 E2.32435
G1 X102.455 Y91.075 E2.33457
G1 X101.664 Y91.510 E2.34479
G1 X100.823 Y91.843 E2.35501
G1 X99.948 Y92.068 E2.36524
G1 X99.052 Y92.181 E2.37546
G1 X98.148 Y92.181 E2.38568
G1 X97.174 Y92.048 E2.39681
G1 X96.377 Y91.843 E2.40612
G1 X95.536 Y91.510 E2.41634
G1 X94.745 Y91.075 E2.42657
G1 X94.014 Y90.544 E2.43679
G1 X93.355 Y89.925 E2.44701
G1 X92.779 Y89.229 E2.45723
G1 X92.295 Y88.466 E2.46746
G1 X91.910 Y87.649 E2.47768
G1 X91.616 Y86.710 E2.48881
G1 X91.462 Y85.902 E2.49812
G1 X91.405 Y85.000 E2.50834
G1 X91.462 Y84.098 E2.51856
G1 X91.631 Y83.211 E2.52879
G1 X91.910 Y82.351 E2.53901
G1 X92.270 Y81.587 E2.54857
G1 X92.100 Y81.197 F7800.000
G1 X87.184 Y79.083
G1 X81.036 Y79.083 F540.000 E2.61813
G1 X80.000 Y79.180 E2.62990
G1 X79.438 Y79.127 E2.63629
G1 X79.438 Y77.540 E2.65424
G1 X80.000 Y77.487 E2.66063
G1 X81.035 Y77.584 E2.67239
G1 X87.184 Y77.584 E2.74196
G1 X87.184 Y65.749 E2.87585
G1 X81.036 Y65.749 E2.94541
G1 X80.000 Y65.846 E2.95718
G1 X79.438 Y65.794 E2.96357
G1 X79.438 Y64.206 E2.98152
G1 X80.000 Y64.154 E2.98791
G1 X81.035 Y64.251 E2.99967
G1 X87.184 Y64.251 E3.06924
G1 X87.184 Y52.416 E3.20313
G1 X81.035 Y52.416 E3.27270
G1 X80.000 Y52.513 E3.28446
G1 X79.438 Y52.460 E3.29084
G1 X79.438 Y50.873 E3.30880
G1 X80.000 Y50.820 E3.31519
G1 X81.035 Y50.917 E3.32695
G1 X87.184 Y50.917 E3.39652
G1 X87.184 Y39.416 E3.52664
G1 X80.584 Y39.416 E3.60131
G1 X80.584 Y38.931 E3.60680
G1 X144.293 Y38.931 E4.32759
G1 X144.686 Y39.405 E4.33456
G1 X144.983 Y39.873 E4.34083
G1 X145.219 Y40.375 E4.34710
G1 X145.390 Y40.902 E4.35338
G1 X145.494 Y41.447 E4.35965
G1 X145.530 Y42.018 E4.36613
G1 X145.530 Y127.982 E5.33870
G1 X145.494 Y128.553 E5.34518
G1 X145.390 Y129.098 E5.35145
G1 X145.219 Y129.625 E5.35773
G1 X144.983 Y130.127 E5.36400
G1 X144.686 Y130.595 E5.37027
G1 X144.293 Y131.069 E5.37724
G1 X87.184 Y131.069 E6.02336
G1 X87.184 Y119.083 E6.15897
G1 X81.036 Y119.083 E6.22853
G1 X80.000 Y119.180 E6.24030
G1 X79.438 Y119.127 E6.24669
G1 X79.438 Y117.540 E6.26464
G1 X80.000 Y117.487 E6.27103
G1 X81.035 Y117.584 E6.28279
G1 X87.184 Y117.584 E6.35236
G1 X87.184 Y105.749 E6.48625
G1 X81.036 Y105.749 E6.55581
G1 X80.000 Y105.846 E6.56758
G1 X79.438 Y105.794 E6.57397
G1 X79.438 Y104.206 E6.59192
G1 X80.000 Y104.154 E6.59831
G1 X81.035 Y104.251 E6.61007
G1 X87.184 Y104.251 E6.67964
G1 X87.184 Y92.416 E6.81353
G1 X81.036 Y92.416 E6.88309
G1 X80.000 Y92.513 E6.89486
G1 X79.438 Y92.460 E6.90125
G1 X79.438 Y90.873 E6.91921
G1 X80.000 Y90.820 E6.92559
G1 X81.035 Y90.917 E6.93735
G1 X87.184 Y90.917 E7.00692
G1 X87.184 Y79.141 E7.14015
G1 X86.795 Y79.472 F7800.000
G1 X81.054 Y79.472 F378.000 E7.20510
G1 X80.000 Y79.571 E7.21707
G1 X79.049 Y79.482 E7.22788
G1 X79.049 Y77.185 E7.25387
G1 X80.000 Y77.096 E7.26468
G1 X81.053 Y77.195 E7.27664
G1 X86.795 Y77.195 E7.34160
G1 X86.795 Y66.139 E7.46669
G1 X81.054 Y66.139 E7.53164
G1 X80.000 Y66.237 E7.54361
G1 X79.049 Y66.148 E7.55442
G1 X79.049 Y63.852 E7.58040
G1 X80.000 Y63.763 E7.59121
G1 X81.053 Y63.861 E7.60318
G1 X86.795 Y63.861 E7.66814
G1 X86.795 Y52.805 E7.79322
G1 X81.053 Y52.805 E7.85818
G1 X80.000 Y52.904 E7.87015
G1 X79.049 Y52.815 E7.88096
G1 X79.049 Y50.518 E7.90694
G1 X80.000 Y50.429 E7.91775
G1 X81.053 Y50.528 E7.92971
G1 X86.795 Y50.528 E7.99467
G1 X86.795 Y39.805 E8.11599
G1 X80.195 Y39.805 E8.19066
G1 X80.195 Y39.589 E8.19311
G1 X79.049 Y39.482 E8.20613
G1 X79.049 Y38.541 E8.21677
G1 X144.436 Y38.541 E8.95655
G1 X144.616 Y38.711 E8.95935
G1 X145.001 Y39.176 E8.96617
G1 X145.324 Y39.685 E8.97300
G1 X145.581 Y40.231 E8.97983
G1 X145.768 Y40.805 E8.98665
G1 X145.881 Y41.398 E8.99348
G1 X145.919 Y42.006 E9.00038
G1 X145.919 Y127.994 E9.97322
G1 X145.881 Y128.602 E9.98012
G1 X145.768 Y129.195 E9.98694
G1 X145.581 Y129.769 E9.99377
G1 X145.324 Y130.315 E10.00060
G1 X145.001 Y130.824 E10.00743
G1 X144.616 Y131.289 E10.01425
G1 X144.436 Y131.459 E10.01705
G1 X79.049 Y131.459 E10.75683
G1 X79.049 Y130.518 E10.76747
G1 X80.000 Y130.429 E10.77828
G1 X81.054 Y130.528 E10.79025
G1 X86.795 Y130.528 E10.85520
G1 X86.795 Y119.472 E10.98029
G1 X81.054 Y119.472 E11.04524
G1 X80.000 Y119.571 E11.05721
G1 X79.049 Y119.482 E11.06802
G1 X79.049 Y117.185 E11.09400
G1 X80.000 Y117.096 E11.10481
G1 X81.053 Y117.195 E11.11678
G1 X86.795 Y117.195 E11.18174
G1 X86.795 Y106.139 E11.30682
G1 X81.054 Y106.139 E11.37177
G1 X80.000 Y106.237 E11.38375
G1 X79.049 Y106.148 E11.39456
G1 X79.049 Y103.852 E11.42054
G1 X80.000 Y103.763 E11.43135
G1 X81.053 Y103.861 E11.44331
G1 X86.795 Y103.861 E11.50828
G1 X86.795 Y92.805 E11.63336
G1 X81.054 Y92.805 E11.69831
G1 X80.000 Y92.904 E11.71028
G1 X79.049 Y92.815 E11.72109
G1 X79.049 Y90.518 E11.74708
G1 X80.000 Y90.429 E11.75789
G1 X81.053 Y90.528 E11.76985
G1 X86.795 Y90.528 E11.83481
G1 X86.795 Y79.530 E11.95923
G1 X86.795 Y79.083 F7800.000
G1 F1800.000 E10.45923
G92 E0
G1 X46.565 Y45.903 F7800.000
G1 F1800.000 E1.50000
G1 X34.235 Y52.068 F540.000 E1.65596
G1 X32.819 Y52.292 E1.67218
G1 X31.466 Y52.078 E1.68768
G1 X18.816 Y48.915 E1.83520
G1 X18.816 Y47.482 E1.85142
G1 X18.835 Y47.176 E1.85489
G1 X18.896 Y46.857 E1.85856
G1 X18.996 Y46.548 E1.86223
G1 X19.135 Y46.255 E1.86591
G1 X19.309 Y45.981 E1.86958
G1 X19.516 Y45.730 E1.87325
G1 X19.752 Y45.508 E1.87692
