; generated by Slic3r 0.9.9 on 2013-08-16 at 00:19:08

; layer_height = 0.25
; perimeters = 2
; top_solid_layers = 3
; bottom_solid_layers = 3
; fill_density = 0.3
; perimeter_speed = 30
; infill_speed = 60
; travel_speed = 130
; nozzle_diameter = 0.35
; filament_diameter = 2.96
; extrusion_multiplier = 1
; perimeters extrusion width = 0.45mm
; infill extrusion width = 0.45mm
; solid infill extrusion width = 0.45mm
; top infill extrusion width = 0.45mm
; first layer extrusion width = 0.40mm

G21 ; set units to millimeters
M107
M190 S115 ; wait for bed temperature to be reached
M104 S240 ; set temperature
G28 ; home all axes
G1 Z5 F5000 ; lift nozzle
M109 S240 ; wait for temperature to be reached
G90 ; use absolute coordinates
G92 E0
M82 ; use absolute distances for extrusion
G1 F1800.000 E-1.50000
G92 E0
G1 Z-5.400 F7800.000
G1 X11.660 Y34.025
G1 F1800.000 E1.50000
G1 X12.200 Y33.845 F540.000 E1.50644
G1 X12.750 Y33.715 E1.51283
G1 X13.600 Y33.605 E1.52253
G1 X78.850 Y31.425 E2.26117
G1 X144.510 Y31.425 E3.00403
G1 X145.370 Y31.475 E3.01378
G1 X145.660 Y31.515 E3.01709
G1 X146.500 Y31.705 E3.02683
G1 X147.320 Y31.995 E3.03667
G1 X147.580 Y32.115 E3.03991
G1 X148.090 Y32.385 E3.04644
G1 X148.580 Y32.695 E3.05300
G1 X149.040 Y33.035 E3.05947
G1 X149.470 Y33.415 E3.06596
G1 X149.710 Y33.645 E3.06972
G1 X150.300 Y34.295 E3.07966
G1 X150.700 Y34.785 E3.08681
G1 X151.180 Y35.445 E3.09605
G1 X151.520 Y35.975 E3.10317
G1 X151.950 Y36.735 E3.11305
G1 X152.220 Y37.295 E3.12008
G1 X152.590 Y38.245 E3.13162
G1 X152.780 Y38.845 E3.13874
G1 X152.990 Y39.645 E3.14810
G1 X153.110 Y40.265 E3.15524
G1 X153.220 Y41.175 E3.16561
G1 X153.280 Y42.255 E3.17785
G1 X153.280 Y128.245 E4.15072
G1 X153.220 Y129.325 E4.16296
G1 X153.110 Y130.235 E4.17333
G1 X152.990 Y130.855 E4.18047
G1 X152.780 Y131.655 E4.18983
G1 X152.590 Y132.255 E4.19695
G1 X152.220 Y133.205 E4.20849
G1 X151.950 Y133.765 E4.21552
G1 X151.520 Y134.525 E4.22540
G1 X151.180 Y135.055 E4.23252
G1 X150.700 Y135.715 E4.24176
G1 X150.300 Y136.205 E4.24891
G1 X149.710 Y136.855 E4.25884
G1 X149.470 Y137.085 E4.26260
G1 X149.040 Y137.465 E4.26910
G1 X148.580 Y137.805 E4.27557
G1 X148.090 Y138.115 E4.28213
G1 X147.320 Y138.505 E4.29189
G1 X146.500 Y138.795 E4.30173
G1 X145.660 Y138.985 E4.31148
G1 X145.370 Y139.025 E4.31479
G1 X144.800 Y139.065 E4.32125
G1 X78.850 Y139.075 E5.06740
G1 X13.600 Y136.905 E5.80603
G1 X13.050 Y136.845 E5.81229
G1 X12.780 Y136.795 E5.81540
G1 X12.240 Y136.675 E5.82165
G1 X11.710 Y136.505 E5.82795
G1 X10.940 Y136.185 E5.83739
G1 X10.460 Y135.915 E5.84362
G1 X9.990 Y135.615 E5.84993
G1 X9.340 Y135.095 E5.85934
G1 X8.940 Y134.705 E5.86566
G1 X8.570 Y134.295 E5.87191
G1 X8.080 Y133.625 E5.88130
G1 X7.800 Y133.145 E5.88759
G1 X7.560 Y132.645 E5.89386
G1 X7.450 Y132.385 E5.89706
G1 X7.190 Y131.605 E5.90636
G1 X7.000 Y130.855 E5.91511
G1 X6.880 Y130.235 E5.92226
G1 X6.770 Y129.325 E5.93263
G1 X6.710 Y128.245 E5.94487
G1 X6.710 Y42.245 E6.91785
G1 X6.770 Y41.165 E6.93009
G1 X6.880 Y40.265 E6.94035
G1 X7.000 Y39.645 E6.94749
G1 X7.210 Y38.825 E6.95707
G1 X7.490 Y38.035 E6.96655
G1 X7.720 Y37.525 E6.97288
G1 X8.000 Y37.025 E6.97936
G1 X8.310 Y36.555 E6.98573
G1 X8.660 Y36.105 E6.99218
G1 X9.050 Y35.685 E6.99867
G1 X9.470 Y35.305 E7.00508
G1 X9.910 Y34.955 E7.01144
G1 X10.380 Y34.635 E7.01787
G1 X11.140 Y34.235 E7.02759
G1 X11.606 Y34.046 E7.03327
G1 X11.730 Y34.415 F7800.000
G1 X12.250 Y34.235 F540.000 E7.03950
G1 X12.790 Y34.105 E7.04578
G1 X13.070 Y34.055 E7.04900
G1 X13.620 Y33.995 E7.05526
G1 X78.850 Y31.815 E7.79367
G1 X144.510 Y31.815 E8.53653
G1 X145.080 Y31.845 E8.54299
G1 X145.660 Y31.915 E8.54960
G1 X145.940 Y31.965 E8.55282
G1 X146.490 Y32.115 E8.55927
G1 X146.770 Y32.205 E8.56259
G1 X147.300 Y32.415 E8.56904
G1 X147.820 Y32.675 E8.57562
G1 X148.310 Y32.975 E8.58212
G1 X148.990 Y33.505 E8.59188
G1 X149.440 Y33.935 E8.59892
G1 X150.000 Y34.535 E8.60820
G1 X150.400 Y35.025 E8.61536
G1 X150.860 Y35.655 E8.62418
G1 X151.200 Y36.185 E8.63131
G1 X151.600 Y36.905 E8.64063
G1 X151.870 Y37.465 E8.64766
G1 X152.220 Y38.355 E8.65848
G1 X152.410 Y38.955 E8.66560
G1 X152.610 Y39.715 E8.67449
G1 X152.730 Y40.335 E8.68164
G1 X152.830 Y41.195 E8.69143
G1 X152.890 Y42.255 E8.70344
G1 X152.890 Y128.245 E9.67632
G1 X152.830 Y129.305 E9.68833
G1 X152.730 Y130.165 E9.69812
G1 X152.610 Y130.785 E9.70527
G1 X152.410 Y131.545 E9.71416
G1 X152.220 Y132.145 E9.72128
G1 X151.870 Y133.035 E9.73210
G1 X151.600 Y133.595 E9.73913
G1 X151.200 Y134.315 E9.74845
G1 X150.860 Y134.845 E9.75558
G1 X150.400 Y135.475 E9.76440
G1 X150.000 Y135.965 E9.77156
G1 X149.440 Y136.565 E9.78084
G1 X148.990 Y136.995 E9.78789
G1 X148.540 Y137.355 E9.79441
G1 X148.310 Y137.525 E9.79764
G1 X147.820 Y137.825 E9.80414
G1 X147.040 Y138.195 E9.81391
G1 X146.220 Y138.465 E9.82368
G1 X145.940 Y138.535 E9.82694
G1 X145.370 Y138.625 E9.83347
G1 X144.510 Y138.685 E9.84322
G1 X78.850 Y138.685 E10.58609
G1 X13.620 Y136.515 E11.32449
G1 X13.350 Y136.495 E11.32755
G1 X12.550 Y136.355 E11.33674
G1 X11.780 Y136.115 E11.34587
G1 X11.520 Y136.015 E11.34902
G1 X10.790 Y135.665 E11.35818
G1 X10.110 Y135.225 E11.36734
G1 X9.690 Y134.885 E11.37346
G1 X9.290 Y134.515 E11.37962
G1 X8.760 Y133.905 E11.38876
G1 X8.440 Y133.465 E11.39492
G1 X8.300 Y133.235 E11.39797
G1 X8.040 Y132.755 E11.40414
G1 X7.820 Y132.255 E11.41032
G1 X7.560 Y131.485 E11.41952
G1 X7.380 Y130.785 E11.42769
G1 X7.260 Y130.165 E11.43484
G1 X7.160 Y129.305 E11.44463
G1 X7.100 Y128.245 E11.45665
G1 X7.100 Y42.245 E12.42963
G1 X7.160 Y41.185 E12.44164
G1 X7.260 Y40.335 E12.45133
G1 X7.380 Y39.715 E12.45847
G1 X7.580 Y38.935 E12.46758
G1 X7.850 Y38.165 E12.47681
G1 X8.090 Y37.665 E12.48309
G1 X8.360 Y37.185 E12.48932
G1 X8.670 Y36.725 E12.49559
G1 X9.020 Y36.295 E12.50187
G1 X9.400 Y35.885 E12.50819
G1 X9.810 Y35.515 E12.51444
G1 X10.260 Y35.185 E12.52075
G1 X10.730 Y34.885 E12.52706
G1 X11.220 Y34.625 E12.53334
G1 X11.676 Y34.436 E12.53892
G1 X11.860 Y34.775 F7800.000
G1 X12.110 Y34.685 F540.000 E12.54192
G1 X12.870 Y34.485 E12.55081
G1 X13.390 Y34.405 E12.55677
G1 X13.910 Y34.365 E12.56267
G1 X78.640 Y32.205 E13.29541
G1 X144.510 Y32.205 E14.04065
G1 X145.050 Y32.225 E14.04677
G1 X145.590 Y32.295 E14.05293
G1 X145.860 Y32.345 E14.05603
G1 X146.380 Y32.485 E14.06213
G1 X146.890 Y32.665 E14.06825
G1 X147.390 Y32.885 E14.07443
G1 X147.860 Y33.155 E14.08056
G1 X148.310 Y33.455 E14.08668
G1 X148.730 Y33.795 E14.09279
G1 X149.170 Y34.215 E14.09967
G1 X149.700 Y34.785 E14.10848
G1 X150.100 Y35.275 E14.11563
G1 X150.530 Y35.865 E14.12389
G1 X150.870 Y36.395 E14.13102
G1 X151.250 Y37.075 E14.13983
G1 X151.520 Y37.635 E14.14687
G1 X151.850 Y38.475 E14.15708
G1 X152.040 Y39.075 E14.16420
G1 X152.220 Y39.795 E14.17259
G1 X152.340 Y40.415 E14.17974
G1 X152.450 Y41.225 E14.18899
G1 X152.500 Y42.255 E14.20065
G1 X152.500 Y128.245 E15.17352
G1 X152.450 Y129.275 E15.18519
G1 X152.340 Y130.085 E15.19444
G1 X152.220 Y130.705 E15.20158
G1 X152.040 Y131.425 E15.20998
G1 X151.850 Y132.025 E15.21710
G1 X151.520 Y132.865 E15.22731
G1 X151.250 Y133.425 E15.23435
G1 X150.870 Y134.105 E15.24316
G1 X150.530 Y134.635 E15.25028
G1 X150.100 Y135.225 E15.25854
G1 X149.700 Y135.715 E15.26570
G1 X149.170 Y136.285 E15.27451
G1 X148.730 Y136.705 E15.28139
G1 X148.310 Y137.045 E15.28750
G1 X147.630 Y137.485 E15.29666
G1 X147.390 Y137.615 E15.29975
G1 X146.890 Y137.835 E15.30593
G1 X146.380 Y138.015 E15.31205
G1 X145.860 Y138.155 E15.31814
G1 X145.050 Y138.275 E15.32741
G1 X144.510 Y138.295 E15.33352
G1 X78.640 Y138.295 E16.07876
G1 X13.910 Y136.145 E16.81150
G1 X13.380 Y136.105 E16.81752
G1 X13.120 Y136.065 E16.82049
G1 X12.600 Y135.965 E16.82649
G1 X12.100 Y135.815 E16.83239
G1 X11.600 Y135.625 E16.83844
G1 X10.900 Y135.275 E16.84730
G1 X10.240 Y134.835 E16.85627
G1 X9.640 Y134.315 E16.86525
G1 X9.110 Y133.725 E16.87423
G1 X8.660 Y133.075 E16.88317
G1 X8.290 Y132.375 E16.89213
G1 X8.010 Y131.635 E16.90108
G1 X7.770 Y130.705 E16.91195
G1 X7.650 Y130.085 E16.91909
G1 X7.540 Y129.275 E16.92834
G1 X7.500 Y128.645 E16.93548
G1 X7.490 Y42.245 E17.91299
G1 X7.540 Y41.215 E17.92466
G1 X7.650 Y40.415 E17.93380
G1 X7.770 Y39.795 E17.94094
G1 X7.950 Y39.055 E17.94956
G1 X8.210 Y38.315 E17.95843
G1 X8.430 Y37.845 E17.96430
G1 X8.690 Y37.385 E17.97028
G1 X8.980 Y36.955 E17.97615
G1 X9.310 Y36.545 E17.98210
G1 X9.670 Y36.165 E17.98802
G1 X10.060 Y35.815 E17.99395
G1 X10.480 Y35.505 E17.99986
G1 X10.920 Y35.225 E18.00576
G1 X11.150 Y35.095 E18.00875
G1 X11.806 Y34.797 E18.01690
G1 F1800.000 E16.51690
G92 E0
G1 X92.077 Y81.119 F7800.000
G1 F1800.000 E1.50000
G1 X92.655 Y80.209 F540.000 E1.51220
G1 X93.265 Y79.471 E1.52302
G1 X93.342 Y79.378 E1.52440
G1 X94.128 Y78.640 E1.53659
G1 X95.000 Y78.006 E1.54879
G1 X95.945 Y77.487 E1.56099
G1 X96.947 Y77.090 E1.57319
G1 X97.991 Y76.822 E1.58538
G1 X99.061 Y76.687 E1.59758
G1 X100.139 Y76.687 E1.60978
G1 X101.209 Y76.822 E1.62198
G1 X102.253 Y77.090 E1.63417
G1 X103.255 Y77.487 E1.64637
G1 X104.200 Y78.006 E1.65857
G1 X105.072 Y78.640 E1.67077
G1 X105.858 Y79.378 E1.68296
G1 X106.468 Y80.115 E1.69379
G1 X106.545 Y80.209 E1.69516
G1 X107.123 Y81.119 E1.70736
G1 X107.582 Y82.095 E1.71956
G1 X107.915 Y83.120 E1.73176
G1 X108.117 Y84.179 E1.74395
G1 X108.185 Y85.255 E1.75615
G1 X108.117 Y86.331 E1.76835
G1 X107.915 Y87.390 E1.78055
G1 X107.582 Y88.415 E1.79274
G1 X107.123 Y89.391 E1.80494
G1 X106.545 Y90.301 E1.81714
G1 X106.468 Y90.395 E1.81851
G1 X105.858 Y91.132 E1.82934
G1 X105.072 Y91.870 E1.84153
G1 X104.200 Y92.504 E1.85373
G1 X103.255 Y93.023 E1.86593
G1 X102.253 Y93.420 E1.87813
G1 X101.209 Y93.688 E1.89032
G1 X100.139 Y93.823 E1.90252
G1 X99.061 Y93.823 E1.91472
G1 X97.991 Y93.688 E1.92692
G1 X96.947 Y93.420 E1.93911
G1 X95.945 Y93.023 E1.95131
G1 X95.000 Y92.504 E1.96351
G1 X94.128 Y91.870 E1.97571
G1 X93.342 Y91.132 E1.98790
G1 X92.655 Y90.301 E2.00010
G1 X92.077 Y89.391 E2.01230
G1 X91.618 Y88.415 E2.02450
G1 X91.285 Y87.390 E2.03670
G1 X91.083 Y86.331 E2.04889
G1 X91.015 Y85.255 E2.06109
G1 X91.083 Y84.179 E2.07329
G1 X91.285 Y83.120 E2.08548
G1 X91.618 Y82.095 E2.09768
G1 X92.052 Y81.172 E2.10922
G1 X92.419 Y81.307 F7800.000
G1 X92.970 Y80.438 F378.000 E2.12086
G1 X93.564 Y79.720 E2.13141
G1 X94.376 Y78.941 E2.14414
G1 X95.209 Y78.336 E2.15579
G1 X96.111 Y77.840 E2.16743
G1 X97.068 Y77.461 E2.17907
G1 X98.064 Y77.205 E2.19072
G1 X99.085 Y77.076 E2.20236
G1 X100.115 Y77.076 E2.21400
G1 X101.136 Y77.205 E2.22565
G1 X102.132 Y77.461 E2.23729
G1 X103.089 Y77.840 E2.24893
G1 X103.991 Y78.336 E2.26058
G1 X104.824 Y78.941 E2.27222
G1 X105.574 Y79.645 E2.28386
G1 X106.168 Y80.363 E2.29441
G1 X106.781 Y81.307 E2.30714
G1 X107.220 Y82.238 E2.31879
G1 X107.538 Y83.217 E2.33043
G1 X107.730 Y84.228 E2.34207
G1 X107.795 Y85.255 E2.35372
G1 X107.730 Y86.282 E2.36536
G1 X107.538 Y87.293 E2.37700
G1 X107.220 Y88.272 E2.38865
G1 X106.781 Y89.203 E2.40029
G1 X106.168 Y90.146 E2.41302
G1 X105.574 Y90.865 E2.42357
G1 X104.824 Y91.569 E2.43521
G1 X103.991 Y92.174 E2.44686
G1 X103.089 Y92.670 E2.45850
G1 X102.132 Y93.049 E2.47014
G1 X101.136 Y93.305 E2.48179
G1 X100.115 Y93.434 E2.49343
G1 X99.085 Y93.434 E2.50507
G1 X98.064 Y93.305 E2.51672
G1 X97.068 Y93.049 E2.52836
G1 X96.111 Y92.670 E2.54000
G1 X95.209 Y92.174 E2.55165
G1 X94.376 Y91.569 E2.56329
G1 X93.626 Y90.865 E2.57493
G1 X92.970 Y90.072 E2.58658
G1 X92.419 Y89.203 E2.59822
G1 X91.980 Y88.272 E2.60986
G1 X91.662 Y87.293 E2.62151
G1 X91.470 Y86.282 E2.63315
G1 X91.405 Y85.255 E2.64479
G1 X91.470 Y84.228 E2.65644
G1 X91.662 Y83.217 E2.66808
G1 X91.980 Y82.238 E2.67973
G1 X92.394 Y81.360 E2.69071
G1 X92.224 Y80.970 F7800.000
G1 X87.184 Y80.938
G1 X81.036 Y80.938 F540.000 E2.76027
G1 X80.000 Y81.034 E2.77204
G1 X79.438 Y80.982 E2.77842
G1 X79.438 Y76.195 E2.83259
G1 X80.000 Y76.142 E2.83897
G1 X81.036 Y76.239 E2.85074
G1 X87.184 Y76.239 E2.92030
G1 X87.184 Y67.604 E3.01799
G1 X81.036 Y67.604 E3.08755
G1 X80.000 Y67.701 E3.09932
G1 X79.438 Y67.649 E3.10570
G1 X79.438 Y62.861 E3.15987
G1 X80.000 Y62.809 E3.16625
G1 X81.036 Y62.906 E3.17802
G1 X87.184 Y62.906 E3.24758
G1 X87.184 Y54.271 E3.34527
G1 X81.036 Y54.271 E3.41483
G1 X80.000 Y54.368 E3.42660
G1 X79.438 Y54.315 E3.43299
G1 X79.438 Y49.528 E3.48715
G1 X80.000 Y49.475 E3.49354
G1 X81.036 Y49.572 E3.50531
G1 X87.184 Y49.572 E3.57486
G1 X87.184 Y40.938 E3.67255
G1 X81.036 Y40.938 E3.74211
G1 X80.000 Y41.034 E3.75388
G1 X79.438 Y40.982 E3.76027
G1 X79.438 Y39.186 E3.78059
G1 X144.293 Y39.186 E4.51435
G1 X144.686 Y39.660 E4.52131
G1 X144.983 Y40.128 E4.52759
G1 X145.219 Y40.630 E4.53386
G1 X145.390 Y41.157 E4.54013
G1 X145.494 Y41.702 E4.54640
G1 X145.530 Y42.273 E4.55288
G1 X145.530 Y128.237 E5.52545
G1 X145.494 Y128.808 E5.53193
G1 X145.390 Y129.353 E5.53821
G1 X145.219 Y129.880 E5.54448
G1 X144.983 Y130.382 E5.55075
G1 X144.686 Y130.850 E5.55703
G1 X144.293 Y131.324 E5.56399
G1 X79.438 Y131.324 E6.29775
G1 X79.438 Y129.528 E6.31807
G1 X80.000 Y129.475 E6.32446
G1 X81.036 Y129.572 E6.33623
G1 X87.184 Y129.572 E6.40579
G1 X87.184 Y120.938 E6.50347
G1 X81.036 Y120.938 E6.57303
G1 X80.000 Y121.034 E6.58480
G1 X79.438 Y120.982 E6.59119
G1 X79.438 Y116.195 E6.64535
G1 X80.000 Y116.142 E6.65174
G1 X81.036 Y116.239 E6.66351
G1 X87.184 Y116.239 E6.73307
G1 X87.184 Y107.604 E6.83076
G1 X81.036 Y107.604 E6.90031
G1 X80.000 Y107.701 E6.91209
G1 X79.438 Y107.649 E6.91847
G1 X79.438 Y102.861 E6.97263
G1 X80.000 Y102.809 E6.97902
G1 X81.036 Y102.906 E6.99079
G1 X87.184 Y102.906 E7.06035
G1 X87.184 Y94.271 E7.15804
G1 X81.036 Y94.271 E7.22760
G1 X80.000 Y94.368 E7.23936
G1 X79.438 Y94.315 E7.24575
G1 X79.438 Y89.528 E7.29992
G1 X80.000 Y89.475 E7.30630
G1 X81.036 Y89.572 E7.31807
G1 X87.184 Y89.572 E7.38763
G1 X87.184 Y80.996 E7.48466
G1 X86.795 Y81.327 F7800.000
G1 X81.054 Y81.327 F378.000 E7.54961
G1 X80.000 Y81.425 E7.56158
G1 X79.049 Y81.337 E7.57239
G1 X79.049 Y75.840 E7.63458
G1 X80.000 Y75.751 E7.64539
G1 X81.054 Y75.850 E7.65736
G1 X86.795 Y75.850 E7.72231
G1 X86.795 Y67.994 E7.81119
G1 X81.054 Y67.994 E7.87614
G1 X80.000 Y68.092 E7.88812
G1 X79.049 Y68.003 E7.89893
G1 X79.049 Y62.507 E7.96112
G1 X80.000 Y62.418 E7.97193
G1 X81.054 Y62.516 E7.98390
G1 X86.795 Y62.516 E8.04885
G1 X86.795 Y54.660 E8.13773
G1 X81.054 Y54.660 E8.20268
G1 X80.000 Y54.759 E8.21466
G1 X79.049 Y54.670 E8.22547
G1 X79.049 Y49.173 E8.28765
G1 X80.000 Y49.084 E8.29846
G1 X81.054 Y49.183 E8.31044
G1 X86.795 Y49.183 E8.37539
G1 X86.795 Y41.327 E8.46427
G1 X81.054 Y41.327 E8.52922
G1 X80.000 Y41.425 E8.54119
G1 X79.049 Y41.337 E8.55200
G1 X79.049 Y38.796 E8.58074
G1 X144.436 Y38.796 E9.32052
G1 X144.616 Y38.966 E9.32332
G1 X145.001 Y39.431 E9.33015
G1 X145.324 Y39.940 E9.33697
G1 X145.581 Y40.486 E9.34380
G1 X145.768 Y41.060 E9.35063
G1 X145.881 Y41.653 E9.35746
G1 X145.919 Y42.261 E9.36435
G1 X145.919 Y128.249 E10.33720
G1 X145.881 Y128.857 E10.34409
G1 X145.768 Y129.450 E10.35092
G1 X145.581 Y130.024 E10.35775
G1 X145.324 Y130.570 E10.36457
G1 X145.001 Y131.079 E10.37140
G1 X144.616 Y131.544 E10.37823
G1 X144.436 Y131.714 E10.38103
G1 X79.049 Y131.714 E11.12081
G1 X79.049 Y129.173 E11.14955
G1 X80.000 Y129.084 E11.16036
G1 X81.054 Y129.183 E11.17233
G1 X86.795 Y129.183 E11.23728
G1 X86.795 Y121.327 E11.32616
G1 X81.054 Y121.327 E11.39111
G1 X80.000 Y121.425 E11.40309
G1 X79.049 Y121.337 E11.41390
G1 X79.049 Y115.840 E11.47608
G1 X80.000 Y115.751 E11.48689
G1 X81.054 Y115.850 E11.49887
G1 X86.795 Y115.850 E11.56382
G1 X86.795 Y107.994 E11.65270
G1 X81.054 Y107.994 E11.71765
G1 X80.000 Y108.092 E11.72962
G1 X79.049 Y108.003 E11.74043
G1 X79.049 Y102.507 E11.80262
G1 X80.000 Y102.418 E11.81343
G1 X81.054 Y102.516 E11.82540
G1 X86.795 Y102.516 E11.89035
G1 X86.795 Y94.660 E11.97924
G1 X81.054 Y94.660 E12.04418
G1 X80.000 Y94.759 E12.05616
G1 X79.049 Y94.670 E12.06697
G1 X79.049 Y89.173 E12.12916
G1 X80.000 Y89.084 E12.13997
G1 X81.054 Y89.183 E12.15194
G1 X86.795 Y89.183 E12.21689
G1 X86.795 Y81.385 E12.30511
G1 X86.795 Y80.938 F7800.000
G1 F1800.000 E10.80511
G92 E0
G1 X35.923 Y108.119 F7800.000
G1 F1800.000 E1.50000
G1 X36.382 Y109.095 F540.000 E1.51220
G1 X36.715 Y110.120 E1.52439
