; generated by Slic3r 0.9.9 on 2013-07-10 at 21:21:07

; layer_height = 0.31
; perimeters = 3
; top_solid_layers = 3
; bottom_solid_layers = 3
; fill_density = 0.4
; perimeter_speed = 60
; infill_speed = 120
; travel_speed = 260
; nozzle_diameter = 0.5
; filament_diameter = 2.92
; extrusion_multiplier = 1
; perimeters extrusion width = 0.50mm
; infill extrusion width = 0.50mm
; solid infill extrusion width = 0.50mm
; top infill extrusion width = 0.50mm
; first layer extrusion width = 1.00mm

G21 ; set units to millimeters
M190 S115 ; wait for bed temperature to be reached
M104 S230 ; set temperature
G28 ; home all axes
G1 Z5 F5000 ; lift nozzle
M109 S230 ; wait for temperature to be reached
G90 ; use absolute coordinates
G92 E0
M82 ; use absolute distances for extrusion
G1 F1800.000 E-1.40000
G92 E0
G1 Z-0.900 F15600.000
G1 X47.320 Y49.940
G1 F1800.000 E1.40000
G1 X47.950 Y49.420 F1080.000 E1.45445
G1 X48.400 Y49.120 E1.49050
G1 X48.870 Y48.860 E1.52630
G1 X49.360 Y48.630 E1.56238
G1 X49.870 Y48.440 E1.59865
G1 X50.660 Y48.240 E1.65297
G1 X50.920 Y48.190 E1.67062
G1 X51.730 Y48.110 E1.72487
G1 X108.270 Y48.110 E5.49343
G1 X109.080 Y48.190 E5.54768
G1 X109.610 Y48.300 E5.58376
G1 X110.130 Y48.440 E5.61965
G1 X110.890 Y48.740 E5.67411
G1 X111.600 Y49.120 E5.72779
G1 X112.050 Y49.420 E5.76383
G1 X112.480 Y49.760 E5.80037
G1 X113.060 Y50.320 E5.85411
G1 X113.580 Y50.950 E5.90856
G1 X113.880 Y51.400 E5.94460
G1 X114.140 Y51.870 E5.98041
G1 X114.370 Y52.360 E6.01648
G1 X114.560 Y52.870 E6.05276
G1 X114.760 Y53.660 E6.10708
G1 X114.810 Y53.920 E6.12472
G1 X114.890 Y54.730 E6.17898
G1 X114.890 Y115.270 E10.21415
G1 X114.810 Y116.080 E10.26840
G1 X114.700 Y116.610 E10.30448
G1 X114.560 Y117.130 E10.34037
G1 X114.260 Y117.890 E10.39483
G1 X113.880 Y118.600 E10.44851
G1 X113.580 Y119.050 E10.48455
G1 X113.240 Y119.480 E10.52109
G1 X112.680 Y120.060 E10.57483
G1 X112.050 Y120.580 E10.62928
G1 X111.600 Y120.880 E10.66532
G1 X111.130 Y121.140 E10.70113
G1 X110.640 Y121.370 E10.73720
G1 X110.130 Y121.560 E10.77348
G1 X109.340 Y121.760 E10.82780
G1 X109.080 Y121.810 E10.84544
G1 X108.270 Y121.890 E10.89970
G1 X51.730 Y121.890 E14.66825
G1 X50.920 Y121.810 E14.72251
G1 X50.390 Y121.700 E14.75859
G1 X49.870 Y121.560 E14.79448
G1 X49.110 Y121.260 E14.84894
G1 X48.400 Y120.880 E14.90261
G1 X47.950 Y120.580 E14.93866
G1 X47.520 Y120.240 E14.97520
G1 X46.940 Y119.680 E15.02894
G1 X46.420 Y119.050 E15.08338
G1 X46.120 Y118.600 E15.11943
G1 X45.860 Y118.130 E15.15523
G1 X45.630 Y117.640 E15.19131
G1 X45.440 Y117.130 E15.22759
G1 X45.240 Y116.340 E15.28191
G1 X45.190 Y116.080 E15.29955
G1 X45.110 Y115.270 E15.35380
G1 X45.110 Y54.730 E19.38897
G1 X45.190 Y53.920 E19.44323
G1 X45.300 Y53.390 E19.47931
G1 X45.440 Y52.870 E19.51520
G1 X45.740 Y52.110 E19.56966
G1 X46.120 Y51.400 E19.62333
G1 X46.420 Y50.950 E19.65938
G1 X46.760 Y50.520 E19.69592
G1 X47.225 Y50.035 E19.74073
G1 F1800.000 E18.34073
G92 E0
G1 X55.768 Y58.768 F15600.000
G1 F1800.000 E1.40000
G1 X80.232 Y58.768 F1080.000 E3.03056
G1 X80.232 Y62.768 E3.29718
G1 X83.232 Y62.768 E3.49714
G1 X83.232 Y67.768 E3.83040
G1 X86.232 Y67.768 E4.03036
G1 X86.232 Y72.768 E4.36362
G1 X89.232 Y72.768 E4.56358
G1 X89.232 Y77.768 E4.89685
G1 X92.232 Y77.768 E5.09681
G1 X92.232 Y82.768 E5.43007
G1 X95.232 Y82.768 E5.63003
G1 X95.232 Y87.768 E5.96330
G1 X98.232 Y87.768 E6.16325
G1 X98.232 Y92.768 E6.49652
G1 X101.232 Y92.768 E6.69648
G1 X101.232 Y111.232 E7.92712
G1 X55.768 Y111.232 E10.95740
G1 X55.768 Y58.902 E14.44532
G1 X56.661 Y59.661 F15600.000
G1 X79.339 Y59.661 F1080.000 E15.95689
G1 X79.339 Y63.661 E16.22350
G1 X82.339 Y63.661 E16.42346
G1 X82.339 Y68.661 E16.75672
G1 X85.339 Y68.661 E16.95668
G1 X85.339 Y73.661 E17.28995
G1 X88.339 Y73.661 E17.48991
G1 X88.339 Y78.661 E17.82317
G1 X91.339 Y78.661 E18.02313
G1 X91.339 Y83.661 E18.35639
G1 X94.339 Y83.661 E18.55635
G1 X94.339 Y88.661 E18.88962
G1 X97.339 Y88.661 E19.08958
G1 X97.339 Y93.661 E19.42284
G1 X100.339 Y93.661 E19.62280
G1 X100.339 Y110.339 E20.73445
G1 X56.661 Y110.339 E23.64572
G1 X56.661 Y59.795 E27.01464
G1 X57.554 Y60.554 F15600.000
G1 X78.446 Y60.554 F756.000 E28.40720
G1 X78.446 Y64.554 E28.67381
G1 X81.446 Y64.554 E28.87377
G1 X81.446 Y69.554 E29.20704
G1 X84.446 Y69.554 E29.40700
G1 X84.446 Y74.554 E29.74026
G1 X87.446 Y74.554 E29.94022
G1 X87.446 Y79.554 E30.27348
G1 X90.446 Y79.554 E30.47344
G1 X90.446 Y84.554 E30.80671
G1 X93.446 Y84.554 E31.00667
G1 X93.446 Y89.554 E31.33993
G1 X96.446 Y89.554 E31.53989
G1 X96.446 Y94.554 E31.87316
G1 X99.446 Y94.554 E32.07311
G1 X99.446 Y109.446 E33.06576
G1 X57.554 Y109.446 E35.85803
G1 X57.554 Y60.688 E39.10795
G1 X57.554 Y59.661 F15600.000
G1 X82.017 Y59.017
G1 X103.983 Y59.017 F1080.000 E40.57203
G1 X103.983 Y110.983 E44.03570
G1 X103.017 Y110.983 E44.10006
G1 X103.017 Y90.983 E45.43312
G1 X100.017 Y90.983 E45.63308
G1 X100.017 Y85.983 E45.96635
G1 X97.017 Y85.983 E46.16631
G1 X97.017 Y80.983 E46.49957
G1 X94.017 Y80.983 E46.69953
G1 X94.017 Y75.983 E47.03279
G1 X91.017 Y75.983 E47.23275
G1 X91.017 Y70.983 E47.56602
G1 X88.017 Y70.983 E47.76598
G1 X88.017 Y65.983 E48.09924
G1 X85.017 Y65.983 E48.29920
G1 X85.017 Y60.983 E48.63247
G1 X82.017 Y60.983 E48.83242
G1 X82.017 Y59.151 E48.95452
G1 X81.124 Y58.124 F15600.000
G1 X104.876 Y58.124 F1080.000 E50.53760
G1 X104.876 Y111.876 E54.12027
G1 X102.124 Y111.876 E54.30364
G1 X102.124 Y91.876 E55.63670
G1 X99.124 Y91.876 E55.83666
G1 X99.124 Y86.876 E56.16992
G1 X96.124 Y86.876 E56.36988
G1 X96.124 Y81.876 E56.70315
G1 X93.124 Y81.876 E56.90311
G1 X93.124 Y76.876 E57.23637
G1 X90.124 Y76.876 E57.43633
G1 X90.124 Y71.876 E57.76960
G1 X87.124 Y71.876 E57.96955
G1 X87.124 Y66.876 E58.30282
G1 X84.124 Y66.876 E58.50278
G1 X84.124 Y61.876 E58.83604
G1 X81.124 Y61.876 E59.03600
G1 X81.124 Y58.258 E59.27710
G1 X105.768 Y57.232 F15600.000
G1 X105.768 Y112.768 F1080.000 E62.97877
G1 X54.232 Y112.768 E66.41383
G1 X54.232 Y57.232 E70.11551
G1 X105.634 Y57.232 E73.54164
G1 X106.661 Y56.339 F15600.000
G1 X106.661 Y113.661 F1080.000 E77.36232
G1 X53.339 Y113.661 E80.91638
G1 X53.339 Y56.339 E84.73705
G1 X106.527 Y56.339 E88.28219
G1 X107.554 Y55.446 F15600.000
G1 X107.554 Y114.554 F756.000 E92.22187
G1 X52.446 Y114.554 E95.89493
G1 X52.446 Y55.446 E99.83461
G1 X107.420 Y55.446 E103.49875
G1 X107.107 Y56.219 F15600.000
G1 X103.336 Y59.664
G1 X103.336 Y60.947 F2160.000 E103.58559
G1 X102.053 Y59.664 E103.70840
G1 X100.771 Y59.664 E103.79523
G1 X103.336 Y62.229 E104.04083
G1 X103.336 Y63.512 E104.12766
G1 X99.488 Y59.664 E104.49605
G1 X98.206 Y59.664 E104.58288
G1 X103.336 Y64.794 E105.07406
G1 X103.336 Y66.076 E105.16089
G1 X96.924 Y59.664 E105.77487
G1 X95.641 Y59.664 E105.86169
G1 X103.336 Y67.359 E106.59846
G1 X103.336 Y68.641 E106.68529
G1 X94.359 Y59.664 E107.54485
G1 X93.076 Y59.664 E107.63167
G1 X103.336 Y69.924 E108.61402
G1 X103.336 Y71.206 E108.70085
G1 X91.794 Y59.664 E109.80599
G1 X90.511 Y59.664 E109.89282
G1 X103.336 Y72.489 E111.12075
G1 X103.336 Y73.771 E111.20758
G1 X89.229 Y59.664 E112.55831
G1 X87.947 Y59.664 E112.64513
G1 X103.336 Y75.053 E114.11865
G1 X103.336 Y76.336 E114.20548
G1 X86.664 Y59.664 E115.80179
G1 X85.664 Y59.947 E115.87214
G1 X103.336 Y77.618 E117.56420
G1 X103.336 Y78.901 E117.65103
G1 X85.664 Y61.229 E119.34308
G1 X85.664 Y65.076 F15600.000
G1 X85.924 Y65.336 F2160.000 E119.36793
G1 X87.206 Y65.336 E119.45476
G1 X85.664 Y63.794 E119.60239
G1 X85.664 Y62.511 E119.68922
G1 X88.489 Y65.336 E119.95965
G1 X88.664 Y65.511 F15600.000
G1 X103.336 Y80.183 F2160.000 E121.36446
G1 X103.336 Y81.465 E121.45128
G1 X88.664 Y66.794 E122.85609
G1 X89.641 Y70.336 F15600.000
G1 X88.664 Y69.359 F2160.000 E122.94965
G1 X88.664 Y68.076 E123.03647
G1 X90.924 Y70.336 E123.25282
G1 X91.664 Y71.076 F15600.000
G1 X103.336 Y82.748 F2160.000 E124.37037
G1 X103.336 Y84.030 E124.45720
G1 X94.664 Y75.359 E125.28751
G1 X92.076 Y75.336 F15600.000
G1 X91.664 Y74.924 F2160.000 E125.32698
G1 X91.664 Y73.641 E125.41381
G1 X93.359 Y75.336 E125.57607
G1 X94.641 Y75.336 E125.66290
G1 X91.664 Y72.359 E125.94795
G1 X94.664 Y79.206 F15600.000
G1 X95.794 Y80.336 F2160.000 E126.05614
G1 X97.076 Y80.336 E126.14296
G1 X94.664 Y77.924 E126.37394
G1 X94.664 Y76.641 E126.46076
G1 X103.336 Y85.313 E127.29107
G1 X103.336 Y86.595 E127.37789
G1 X97.664 Y80.924 E127.92095
G1 X97.664 Y84.771 F15600.000
G1 X98.229 Y85.336 F2160.000 E127.97505
G1 X99.512 Y85.336 E128.06187
G1 X97.664 Y83.488 E128.23877
G1 X97.664 Y82.206 E128.32559
G1 X103.336 Y87.877 E128.86865
G1 X103.336 Y89.160 E128.95547
G1 X100.664 Y86.488 E129.21127
G1 X100.664 Y87.771 E129.29810
G1 X103.229 Y90.336 E129.54370
G1 X101.947 Y90.336 E129.63053
G1 X100.664 Y89.053 E129.75334
G1 X100.664 Y90.336 E129.84018
G1 F1800.000 E128.44018
G92 E0
G1 X80.448 Y111.878 F15600.000
G1 F1800.000 E1.40000
G1 X80.692 Y112.122 F720.000 E1.41094
G1 X81.049 Y111.878 E1.42463
G1 X81.293 Y112.122 E1.43556
G1 X81.649 Y111.878 E1.44925
G1 X81.893 Y112.122 E1.46019
G1 X82.249 Y111.878 E1.47388
G1 X82.493 Y112.122 E1.48481
G1 X82.850 Y111.878 E1.49850
G1 X83.094 Y112.122 E1.50944
G1 X83.450 Y111.878 E1.52313
G1 X83.694 Y112.122 E1.53406
G1 X84.050 Y111.878 E1.54775
G1 X84.294 Y112.122 E1.55869
G1 X84.651 Y111.878 E1.57238
G1 X84.895 Y112.122 E1.58331
G1 X85.251 Y111.878 E1.59700
G1 X85.495 Y112.122 E1.60794
G1 X85.851 Y111.878 E1.62163
G1 X86.095 Y112.122 E1.63256
G1 X86.452 Y111.878 E1.64625
G1 X86.696 Y112.122 E1.65719
G1 X87.052 Y111.878 E1.67088
G1 X87.296 Y112.122 E1.68181
G1 X87.652 Y111.878 E1.69550
G1 X87.896 Y112.122 E1.70644
G1 X88.253 Y111.878 E1.72013
G1 X88.497 Y112.122 E1.73106
G1 X88.853 Y111.878 E1.74475
G1 X89.097 Y112.122 E1.75569
G1 X89.453 Y111.878 E1.76938
G1 X89.697 Y112.122 E1.78031
G1 X90.054 Y111.878 E1.79400
G1 X90.298 Y112.122 E1.80494
G1 X90.654 Y111.878 E1.81863
G1 X90.898 Y112.122 E1.82956
G1 X91.254 Y111.878 E1.84325
G1 X91.498 Y112.122 E1.85419
G1 X91.855 Y111.878 E1.86788
G1 X92.099 Y112.122 E1.87881
G1 X92.455 Y111.878 E1.89250
G1 X92.699 Y112.122 E1.90344
G1 X93.055 Y111.878 E1.91713
G1 X93.299 Y112.122 E1.92806
G1 X93.656 Y111.878 E1.94175
G1 X93.900 Y112.122 E1.95269
G1 X94.256 Y111.878 E1.96638
G1 X94.500 Y112.122 E1.97731
G1 X94.856 Y111.878 E1.99100
G1 X95.100 Y112.122 E2.00194
G1 X95.457 Y111.878 E2.01563
G1 X95.701 Y112.122 E2.02656
G1 X96.057 Y111.878 E2.04025
G1 X96.301 Y112.122 E2.05119
G1 X96.657 Y111.878 E2.06488
G1 X96.901 Y112.122 E2.07581
G1 X97.258 Y111.878 E2.08950
G1 X97.502 Y112.122 E2.10044
G1 X97.858 Y111.878 E2.11413
G1 X98.102 Y112.122 E2.12506
G1 X98.458 Y111.878 E2.13875
G1 X98.702 Y112.122 E2.14969
G1 X99.059 Y111.878 E2.16338
G1 X99.303 Y112.122 E2.17431
G1 X99.659 Y111.878 E2.18800
G1 X99.903 Y112.122 E2.19894
G1 X100.259 Y111.878 E2.21263
G1 X100.503 Y112.122 E2.22356
G1 X100.860 Y111.878 E2.23725
G1 X101.104 Y112.122 E2.24819
G1 X101.460 Y111.878 E2.26188
G1 X101.478 Y111.896 E2.26270
G1 X80.092 Y112.122 F15600.000
G1 X79.848 Y111.878 F720.000 E2.27363
G1 X79.492 Y112.122 E2.28732
G1 X79.248 Y111.878 E2.29826
G1 X78.891 Y112.122 E2.31195
G1 X78.647 Y111.878 E2.32288
G1 X78.291 Y112.122 E2.33657
G1 X78.047 Y111.878 E2.34751
G1 X77.691 Y112.122 E2.36120
G1 X77.447 Y111.878 E2.37213
G1 X77.090 Y112.122 E2.38582
G1 X76.846 Y111.878 E2.39676
G1 X76.490 Y112.122 E2.41045
G1 X76.246 Y111.878 E2.42138
G1 X75.890 Y112.122 E2.43507
G1 X75.646 Y111.878 E2.44601
G1 X75.289 Y112.122 E2.45970
G1 X75.045 Y111.878 E2.47063
G1 X74.689 Y112.122 E2.48432
G1 X74.445 Y111.878 E2.49526
G1 X74.089 Y112.122 E2.50895
G1 X73.845 Y111.878 E2.51988
G1 X73.488 Y112.122 E2.53357
G1 X73.244 Y111.878 E2.54451
G1 X72.888 Y112.122 E2.55820
G1 X72.644 Y111.878 E2.56913
G1 X72.288 Y112.122 E2.58282
G1 X72.044 Y111.878 E2.59376
G1 X71.687 Y112.122 E2.60745
G1 X71.443 Y111.878 E2.61838
G1 X71.087 Y112.122 E2.63207
G1 X70.843 Y111.878 E2.64301
G1 X70.487 Y112.122 E2.65670
G1 X70.243 Y111.878 E2.66763
G1 X69.886 Y112.122 E2.68132
G1 X69.642 Y111.878 E2.69226
G1 X69.286 Y112.122 E2.70595
G1 X69.042 Y111.878 E2.71688
G1 X68.686 Y112.122 E2.73057
G1 X68.442 Y111.878 E2.74151
G1 X68.085 Y112.122 E2.75520
G1 X67.841 Y111.878 E2.76613
G1 X67.485 Y112.122 E2.77982
G1 X67.241 Y111.878 E2.79076
G1 X66.885 Y112.122 E2.80445
G1 X66.641 Y111.878 E2.81538
G1 X66.284 Y112.122 E2.82907
G1 X66.040 Y111.878 E2.84001
G1 X65.684 Y112.122 E2.85370
G1 X65.440 Y111.878 E2.86463
G1 X65.084 Y112.122 E2.87832
G1 X64.840 Y111.878 E2.88926
G1 X64.483 Y112.122 E2.90295
G1 X64.239 Y111.878 E2.91388
G1 X63.883 Y112.122 E2.92757
G1 X63.639 Y111.878 E2.93851
G1 X63.283 Y112.122 E2.95220
G1 X63.039 Y111.878 E2.96313
G1 X62.682 Y112.122 E2.97682
G1 X62.438 Y111.878 E2.98776
G1 X62.082 Y112.122 E3.00145
G1 X61.838 Y111.878 E3.01239
G1 X61.482 Y112.122 E3.02607
G1 X61.238 Y111.878 E3.03701
G1 X60.881 Y112.122 E3.05070
G1 X60.637 Y111.878 E3.06164
G1 X60.281 Y112.122 E3.07532
G1 X60.037 Y111.878 E3.08626
G1 X59.681 Y112.122 E3.09995
G1 X59.437 Y111.878 E3.11089
G1 X59.081 Y112.122 E3.12457
G1 X58.836 Y111.878 E3.13551
G1 X58.480 Y112.122 E3.14920
G1 X58.236 Y111.878 E3.16014
G1 X57.880 Y112.122 E3.17382
G1 X57.636 Y111.878 E3.18476
G1 X57.280 Y112.122 E3.19845
G1 X57.036 Y111.878 E3.20939
G1 X56.679 Y112.122 E3.22307
G1 X56.435 Y111.878 E3.23401
G1 X56.079 Y112.122 E3.24770
G1 X55.835 Y111.878 E3.25864
G1 X55.479 Y112.122 E3.27232
G1 X55.235 Y111.878 E3.28326
G1 X54.878 Y112.122 F15600.000
G1 X55.122 Y111.765 F720.000 E3.29695
G1 X54.878 Y111.521 E3.30789
G1 X55.122 Y111.165 E3.32158
G1 X54.878 Y110.921 E3.33251
G1 X55.122 Y110.565 E3.34620
G1 X54.878 Y110.321 E3.35714
G1 X55.122 Y109.964 E3.37083
G1 X54.878 Y109.720 E3.38176
G1 X55.122 Y109.364 E3.39545
G1 X54.878 Y109.120 E3.40639
G1 X55.122 Y108.764 E3.42008
G1 X54.878 Y108.520 E3.43101
G1 X55.122 Y108.164 E3.44470
G1 X54.878 Y107.919 E3.45564
G1 X55.122 Y107.563 E3.46933
G1 X54.878 Y107.319 E3.48026
G1 X55.122 Y106.963 E3.49395
G1 X54.878 Y106.719 E3.50489
G1 X55.122 Y106.363 E3.51858
G1 X54.878 Y106.119 E3.52951
G1 X55.122 Y105.762 E3.54320
G1 X54.878 Y105.518 E3.55414
G1 X55.122 Y105.162 E3.56783
G1 X54.878 Y104.918 E3.57876
G1 X55.122 Y104.562 E3.59245
G1 X54.878 Y104.318 E3.60339
G1 X55.122 Y103.961 E3.61708
G1 X54.878 Y103.717 E3.62801
G1 X55.122 Y103.361 E3.64170
G1 X54.878 Y103.117 E3.65264
G1 X55.122 Y102.761 E3.66633
G1 X54.878 Y102.517 E3.67726
G1 X55.122 Y102.160 E3.69095
G1 X54.878 Y101.916 E3.70189
G1 X55.122 Y101.560 E3.71558
G1 X54.878 Y101.316 E3.72651
G1 X55.122 Y100.960 E3.74020
G1 X54.878 Y100.716 E3.75114
G1 X55.122 Y100.359 E3.76483
G1 X54.878 Y100.115 E3.77576
G1 X55.122 Y99.759 E3.78945
G1 X54.878 Y99.515 E3.80039
G1 X55.122 Y99.159 E3.81408
G1 X54.878 Y98.915 E3.82501
G1 X55.122 Y98.558 E3.83870
G1 X54.878 Y98.314 E3.84964
G1 X55.122 Y97.958 E3.86333
G1 X54.878 Y97.714 E3.87426
G1 X55.122 Y97.358 E3.88795
G1 X54.878 Y97.114 E3.89889
G1 X55.122 Y96.757 E3.91258
G1 X54.878 Y96.513 E3.92351
G1 X55.122 Y96.157 E3.93720
G1 X54.878 Y95.913 E3.94814
G1 X55.122 Y95.557 E3.96183
G1 X54.878 Y95.313 E3.97276
G1 X55.122 Y94.956 E3.98645
G1 X54.878 Y94.712 E3.99739
G1 X55.122 Y94.356 E4.01108
G1 X54.878 Y94.112 E4.02201
G1 X55.122 Y93.756 E4.03570
G1 X54.878 Y93.512 E4.04664
G1 X55.122 Y93.155 E4.06033
G1 X54.878 Y92.911 E4.07126
G1 X55.122 Y92.555 E4.08495
G1 X54.878 Y92.311 E4.09589
G1 X55.122 Y91.955 E4.10958
G1 X54.878 Y91.711 E4.12051
G1 X55.122 Y91.354 E4.13420
G1 X54.878 Y91.110 E4.14514
G1 X55.122 Y90.754 E4.15883
G1 X54.878 Y90.510 E4.16976
G1 X55.122 Y90.154 E4.18345
G1 X54.878 Y89.910 E4.19439
G1 X55.122 Y89.553 E4.20808
G1 X54.878 Y89.309 E4.21901
G1 X55.122 Y88.953 E4.23270
G1 X54.878 Y88.709 E4.24364
G1 X55.122 Y88.353 E4.25733
G1 X54.878 Y88.109 E4.26826
G1 X55.122 Y87.752 E4.28195
G1 X54.878 Y87.508 E4.29289
G1 X55.122 Y87.152 E4.30658
G1 X54.878 Y86.908 E4.31751
G1 X55.122 Y86.552 E4.33120
G1 X54.878 Y86.308 E4.34214
G1 X55.122 Y85.951 E4.35583
G1 X54.878 Y85.707 E4.36676
G1 X55.122 Y85.351 E4.38045
G1 X54.878 Y85.107 E4.39139
G1 X55.122 Y84.751 E4.40508
G1 X54.878 Y84.507 E4.41601
G1 X55.122 Y84.150 E4.42970
G1 X54.878 Y83.906 E4.44064
