; generated by Slic3r 0.9.9 on 2013-07-06 at 20:57:15

; layer_height = 0.31
; perimeters = 3
; top_solid_layers = 3
; bottom_solid_layers = 3
; fill_density = 0.4
; perimeter_speed = 30
; infill_speed = 60
; travel_speed = 130
; nozzle_diameter = 0.5
; filament_diameter = 2.93
; extrusion_multiplier = 1
; perimeters extrusion width = 0.67mm
; infill extrusion width = 0.67mm
; solid infill extrusion width = 0.67mm
; top infill extrusion width = 0.67mm
; first layer extrusion width = 1.00mm

G21 ; set units to millimeters
M107
M190 S120 ; wait for bed temperature to be reached
M104 S240 ; set temperature
G28 ; home all axes
G1 Z5 F5000 ; lift nozzle
M109 S240 ; wait for temperature to be reached
G90 ; use absolute coordinates
G92 E0
M82 ; use absolute distances for extrusion
G1 F1800.000 E-1.00000
G92 E0
G1 Z-0.900 F7800.000
G1 X71.910 Y52.243
G1 F1800.000 E1.00000
G1 X72.460 Y51.563 F540.000 E1.05790
G1 X73.080 Y50.953 E1.11547
G1 X73.540 Y50.593 E1.15414
G1 X75.280 Y49.343 E1.29597
G1 X76.020 Y48.923 E1.35230
G1 X76.550 Y48.683 E1.39081
G1 X77.370 Y48.423 E1.44776
G1 X77.930 Y48.303 E1.48567
G1 X78.210 Y48.263 E1.50440
G1 X78.780 Y48.213 E1.54227
G1 X101.210 Y48.213 E3.02711
G1 X101.490 Y48.233 E3.04570
G1 X102.060 Y48.303 E3.08371
G1 X102.620 Y48.423 E3.12162
G1 X102.900 Y48.503 E3.14090
G1 X103.440 Y48.683 E3.17858
G1 X104.220 Y49.053 E3.23573
G1 X104.710 Y49.343 E3.27343
G1 X106.450 Y50.593 E3.41525
G1 X106.900 Y50.943 E3.45299
G1 X107.330 Y51.343 E3.49187
G1 X107.720 Y51.773 E3.53030
G1 X108.070 Y52.233 E3.56856
G1 X108.380 Y52.723 E3.60695
G1 X108.650 Y53.233 E3.64515
G1 X108.770 Y53.493 E3.66410
G1 X108.970 Y54.033 E3.70222
G1 X109.640 Y56.103 E3.84626
G1 X109.780 Y56.713 E3.88769
G1 X109.830 Y57.023 E3.90847
G1 X109.890 Y57.643 E3.94971
G1 X109.890 Y86.953 E5.88999
G1 X109.800 Y88.073 E5.96438
G1 X104.510 Y120.243 E8.12259
G1 X104.380 Y120.773 E8.15872
G1 X104.210 Y121.283 E8.19430
G1 X103.530 Y123.093 E8.32230
G1 X103.260 Y123.723 E8.36767
G1 X103.100 Y124.033 E8.39077
G1 X102.740 Y124.613 E8.43596
G1 X101.640 Y126.193 E8.56340
G1 X101.020 Y126.953 E8.62833
G1 X100.560 Y127.403 E8.67093
G1 X99.120 Y128.683 E8.79847
G1 X98.860 Y128.903 E8.82102
G1 X98.330 Y129.293 E8.86458
G1 X97.750 Y129.633 E8.90909
G1 X95.740 Y130.683 E9.05921
G1 X94.800 Y131.043 E9.12584
G1 X92.610 Y131.583 E9.27516
G1 X91.950 Y131.713 E9.31969
G1 X91.620 Y131.753 E9.34170
G1 X90.960 Y131.783 E9.38543
G1 X89.030 Y131.783 E9.51320
G1 X88.370 Y131.753 E9.55693
G1 X88.040 Y131.713 E9.57894
G1 X87.380 Y131.583 E9.62347
G1 X85.190 Y131.043 E9.77279
G1 X84.870 Y130.933 E9.79519
G1 X84.250 Y130.683 E9.83944
G1 X82.240 Y129.633 E9.98956
G1 X81.660 Y129.293 E10.03407
G1 X81.130 Y128.903 E10.07763
G1 X80.870 Y128.683 E10.10018
G1 X79.190 Y127.183 E10.24927
G1 X78.750 Y126.703 E10.29237
G1 X78.350 Y126.193 E10.33528
G1 X77.250 Y124.613 E10.46273
G1 X76.890 Y124.033 E10.50792
G1 X76.730 Y123.723 E10.53101
G1 X76.460 Y123.093 E10.57638
G1 X75.780 Y121.283 E10.70438
G1 X75.610 Y120.773 E10.73997
G1 X75.430 Y119.973 E10.79425
G1 X70.200 Y88.063 E12.93484
G1 X70.110 Y86.953 E13.00856
G1 X70.110 Y57.643 E14.94885
G1 X70.170 Y57.033 E14.98942
G1 X70.350 Y56.133 E15.05018
G1 X71.100 Y53.793 E15.21285
G1 X71.460 Y52.993 E15.27092
G1 X71.838 Y52.355 E15.31996
G1 F1800.000 E14.31996
G92 E0
G1 X90.000 Y112.040 F7800.000
G1 F1800.000 E1.00000
G1 X93.476 Y113.480 F540.000 E1.24906
G1 X94.916 Y116.956 E1.49812
G1 X93.476 Y120.432 E1.74717
G1 X90.000 Y121.871 E1.99623
G1 X86.524 Y120.432 E2.24529
G1 X85.084 Y116.956 E2.49435
G1 X86.524 Y113.480 E2.74340
G1 X89.876 Y112.091 E2.98360
G1 X90.000 Y113.006 F7800.000
G1 X92.793 Y114.163 F540.000 E3.18370
G1 X93.949 Y116.956 E3.38380
G1 X92.793 Y119.748 E3.58390
G1 X90.000 Y120.905 E3.78400
G1 X87.207 Y119.748 E3.98410
G1 X86.051 Y116.956 E4.18421
G1 X87.207 Y114.163 E4.38431
G1 X89.876 Y113.058 E4.57554
G1 X90.000 Y113.973 F7800.000
G1 X92.109 Y114.846 F540.000 E4.72669
G1 X92.983 Y116.956 E4.87784
G1 X92.109 Y119.065 E5.02898
G1 X90.000 Y119.939 E5.18013
G1 X87.891 Y119.065 E5.33127
G1 X87.017 Y116.956 E5.48242
G1 X87.891 Y114.846 E5.63356
G1 X89.876 Y114.024 E5.77584
G1 X90.543 Y113.264 F7800.000
G1 X95.768 Y116.159
G1 X95.846 Y116.179 F540.000 E5.78117
G1 X95.768 Y116.821 E5.82395
G1 X95.768 Y117.869 E5.89336
G1 X95.638 Y117.895 E5.90216
G1 X95.585 Y118.332 E5.93131
G1 X95.093 Y119.629 E6.02310
G1 X94.551 Y120.414 E6.08627
G1 X94.607 Y120.503 E6.09322
G1 X93.267 Y121.689 E6.21165
G1 X92.040 Y122.334 E6.30345
G1 X90.777 Y122.645 E6.38954
G1 X90.773 Y122.666 E6.39093
G1 X89.227 Y122.666 E6.49324
G1 X89.223 Y122.645 E6.49463
G1 X87.960 Y122.334 E6.58073
G1 X86.733 Y121.689 E6.67252
G1 X85.393 Y120.503 E6.79096
G1 X85.449 Y120.414 E6.79791
G1 X84.907 Y119.629 E6.86107
G1 X84.415 Y118.332 E6.95287
G1 X84.362 Y117.895 E6.98202
G1 X84.232 Y117.869 E6.99082
G1 X84.232 Y116.821 E7.06023
G1 X84.154 Y116.179 E7.10300
G1 X84.232 Y116.159 E7.10833
G1 X84.232 Y89.187 E8.89380
G1 X95.768 Y89.187 E9.65750
G1 X95.768 Y116.025 E11.43411
G1 X96.661 Y116.875 F7800.000
G1 X96.458 Y118.547 F540.000 E11.54565
G1 X95.889 Y120.047 E11.65180
G1 X94.978 Y121.366 E11.75794
G1 X93.778 Y122.430 E11.86409
G1 X92.358 Y123.175 E11.97023
G1 X90.802 Y123.558 E12.07637
G1 X89.198 Y123.558 E12.18252
G1 X87.641 Y123.175 E12.28866
G1 X86.222 Y122.430 E12.39480
G1 X85.022 Y121.366 E12.50095
G1 X84.111 Y120.047 E12.60709
G1 X83.542 Y118.547 E12.71324
G1 X83.339 Y116.875 E12.82478
G1 X83.339 Y88.295 E14.71674
G1 X96.661 Y88.295 E15.59863
G1 X96.661 Y116.741 E17.48172
G1 X97.268 Y118.745 F7800.000
G1 X97.504 Y89.309
G1 X100.500 Y87.456
G1 X100.500 Y66.456
G1 X99.839 Y65.617
G1 X99.839 Y56.442 F540.000 E18.08910
G1 X100.492 Y56.442 E18.13233
G1 X101.288 Y57.020 E18.19746
G1 X101.661 Y58.168 E18.27736
G1 X101.661 Y65.617 E18.77047
G1 X99.973 Y65.617 E18.88221
G1 X100.500 Y66.456 F7800.000
G1 X100.500 Y87.456
G1 X79.500 Y87.456
G1 X79.500 Y66.456
G1 X80.161 Y65.617
G1 X78.339 Y65.617 F540.000 E19.00282
G1 X78.339 Y58.168 E19.49593
G1 X78.712 Y57.020 E19.57583
G1 X79.508 Y56.442 E19.64096
G1 X80.161 Y56.442 E19.68418
G1 X80.161 Y65.483 E20.28270
G1 X79.554 Y66.509 F7800.000
G1 X79.554 Y87.402 F378.000 E21.66577
G1 X100.446 Y87.402 E23.04884
G1 X100.446 Y66.509 E24.43191
G1 X98.946 Y66.509 E24.53121
G1 X98.946 Y55.549 E25.25678
G1 X100.782 Y55.549 E25.37831
G1 X102.047 Y56.468 E25.48184
G1 X102.554 Y58.026 E25.59030
G1 X102.554 Y86.885 E27.50071
G1 X102.047 Y88.443 E27.60917
G1 X100.782 Y89.363 E27.71271
G1 X97.554 Y89.363 E27.92642
G1 X97.554 Y116.929 E29.75127
G1 X97.331 Y118.763 E29.87356
G1 X96.685 Y120.465 E29.99406
G1 X95.652 Y121.963 E30.11455
G1 X94.289 Y123.170 E30.23505
G1 X92.677 Y124.015 E30.35554
G1 X90.910 Y124.451 E30.47604
G1 X89.049 Y124.441 E30.59925
G1 X87.323 Y124.015 E30.71695
G1 X85.711 Y123.170 E30.83744
G1 X84.348 Y121.963 E30.95794
G1 X83.314 Y120.465 E31.07843
G1 X82.669 Y118.763 E31.19893
G1 X82.446 Y116.929 E31.32122
G1 X82.446 Y89.363 E33.14607
G1 X79.218 Y89.363 E33.35978
G1 X77.953 Y88.443 E33.46332
G1 X77.446 Y86.885 E33.57178
G1 X77.446 Y58.026 E35.48218
G1 X77.953 Y56.468 E35.59065
G1 X79.218 Y55.549 E35.69418
G1 X81.054 Y55.549 E35.81570
G1 X81.054 Y66.509 E36.54127
G1 X79.688 Y66.509 E36.63171
G1 X78.661 Y66.509 F7800.000
G1 X79.500 Y66.456
G1 X79.500 Y87.456
G1 X97.504 Y89.309
G1 X95.121 Y89.835
G1 X93.818 Y89.835 F1080.000 E36.72070
G1 X95.121 Y91.137 E36.84654
G1 X95.121 Y92.440 E36.93552
G1 X92.516 Y89.835 E37.18720
G1 X91.213 Y89.835 E37.27617
G1 X95.121 Y93.743 E37.65368
G1 X95.121 Y95.045 E37.74265
G1 X89.910 Y89.835 E38.24599
G1 X88.608 Y89.835 E38.33497
G1 X95.121 Y96.348 E38.96413
G1 X95.121 Y97.651 E39.05311
G1 X87.305 Y89.835 E39.80810
G1 X86.003 Y89.835 E39.89708
G1 X95.121 Y98.953 E40.77790
G1 X95.121 Y100.256 E40.86688
G1 X84.879 Y90.013 E41.85626
G1 X84.879 Y91.316 E41.94523
G1 X95.121 Y101.558 E42.93461
G1 X95.121 Y102.861 E43.02358
G1 X84.879 Y92.619 E44.01296
G1 X84.879 Y93.921 E44.10194
G1 X95.121 Y104.164 E45.09132
G1 X95.121 Y105.466 E45.18029
G1 X84.879 Y95.224 E46.16967
G1 X84.879 Y96.527 E46.25864
G1 X95.121 Y106.769 E47.24802
G1 X95.121 Y108.072 E47.33700
G1 X84.879 Y97.829 E48.32638
G1 X84.879 Y99.132 E48.41535
G1 X95.121 Y109.374 E49.40473
G1 X95.121 Y110.677 E49.49370
G1 X84.879 Y100.434 E50.48308
G1 X84.879 Y101.737 E50.57206
G1 X95.121 Y111.979 E51.56143
G1 X95.121 Y113.282 E51.65041
G1 X84.879 Y103.040 E52.63979
G1 X84.879 Y104.342 E52.72876
G1 X93.203 Y112.666 E53.53284
G1 X90.979 Y111.745 E53.69723
G1 X84.879 Y105.645 E54.28651
G1 X84.879 Y106.948 E54.37548
G1 X89.485 Y111.553 E54.82038
G1 X88.563 Y111.935 E54.88848
G1 X84.879 Y108.250 E55.24440
G1 X84.879 Y109.553 E55.33338
G1 X87.642 Y112.316 E55.60032
G1 X86.721 Y112.698 E55.66842
G1 X84.879 Y110.855 E55.84639
G1 X84.879 Y112.158 E55.93536
G1 X85.800 Y113.079 E56.02436
G1 X84.879 Y113.461 E56.09246
G1 X85.178 Y114.257 F7800.000
G1 X85.178 Y114.256 F360.000 E56.09247
G1 X84.878 Y115.765 F7800.000
G1 X84.878 Y115.765 F360.000 E56.09247
G1 X86.959 Y116.956 F7800.000
G1 X87.850 Y119.106
G1 X90.841 Y124.397
G1 X95.618 Y121.890
G1 X92.150 Y114.805
G1 X94.822 Y114.256
G1 X94.822 Y114.256 F360.000 E56.09249
G1 X95.122 Y115.765 F7800.000
G1 X95.122 Y115.765 F360.000 E56.09250
G1 X97.607 Y88.416 F7800.000
G1 X99.054 Y88.348 F360.000 E56.20745
G1 X99.122 Y88.416 E56.21509
G1 X100.568 Y88.348 E56.33005
G1 X101.393 Y87.396 F7800.000
G1 X101.607 Y86.295 F360.000 E56.40741
G1 X101.393 Y86.080 E56.42836
G1 X101.607 Y84.980 E56.50571
G1 X101.393 Y84.765 E56.52666
G1 X101.607 Y83.664 E56.60402
G1 X101.393 Y83.449 E56.62497
G1 X101.607 Y82.349 E56.70232
G1 X101.393 Y82.134 E56.72328
G1 X101.607 Y81.033 E56.80063
G1 X101.393 Y80.818 E56.82158
G1 X101.607 Y79.718 E56.89894
G1 X101.393 Y79.503 E56.91989
G1 X101.607 Y78.402 E56.99724
G1 X101.393 Y78.187 E57.01820
G1 X101.607 Y77.087 E57.09555
G1 X101.393 Y76.872 E57.11650
G1 X101.607 Y75.771 E57.19385
G1 X101.393 Y75.557 E57.21481
G1 X101.607 Y74.456 E57.29216
G1 X101.393 Y74.241 E57.31311
G1 X101.607 Y73.140 E57.39047
G1 X101.393 Y72.926 E57.41142
G1 X101.607 Y71.825 E57.48877
G1 X101.393 Y71.610 E57.50973
G1 X101.607 Y70.510 E57.58708
G1 X101.393 Y70.295 E57.60803
G1 X101.607 Y69.194 E57.68538
G1 X101.393 Y68.979 E57.70634
G1 X101.607 Y67.879 E57.78369
G1 X101.393 Y67.664 E57.80464
G1 X101.607 Y66.563 E57.88201
G1 X100.500 Y66.456 F7800.000
G1 X100.500 Y87.456
G1 X79.500 Y87.456
G1 X79.433 Y88.349
G1 X80.912 Y88.348 F360.000 E57.99686
G1 X80.980 Y88.416 E58.00433
G1 X82.393 Y88.349 E58.11409
G1 X78.607 Y87.396 F7800.000
G1 X78.607 Y86.094 F360.000 E58.20298
G1 X78.393 Y85.879 E58.22372
G1 X78.607 Y84.792 E58.29938
G1 X78.393 Y84.577 E58.32012
G1 X78.607 Y83.490 E58.39579
G1 X78.393 Y83.275 E58.41653
G1 X78.607 Y82.188 E58.49219
G1 X78.393 Y81.973 E58.51293
G1 X78.607 Y80.886 E58.58860
G1 X78.393 Y80.671 E58.60934
G1 X78.607 Y79.584 E58.68500
G1 X78.393 Y79.369 E58.70574
G1 X78.607 Y78.281 E58.78141
G1 X78.393 Y78.067 E58.80215
G1 X78.607 Y76.979 E58.87781
G1 X78.393 Y76.765 E58.89855
G1 X78.607 Y75.677 E58.97422
G1 X78.393 Y75.463 E58.99496
G1 X78.607 Y74.375 E59.07062
G1 X78.393 Y74.161 E59.09136
G1 X78.607 Y73.073 E59.16702
G1 X78.393 Y72.859 E59.18776
G1 X78.607 Y71.771 E59.26343
G1 X78.393 Y71.556 E59.28417
G1 X78.607 Y70.469 E59.35983
G1 X78.393 Y70.254 E59.38057
G1 X78.607 Y69.167 E59.45624
G1 X78.393 Y68.952 E59.47698
G1 X78.607 Y67.865 E59.55264
G1 X78.393 Y67.650 E59.57338
G1 X78.607 Y66.563 E59.64906
G1 X78.985 Y64.970 F7800.000
G1 X79.515 Y64.864 F360.000 E59.66705
G1 X78.985 Y64.335 E59.69201
G1 X79.515 Y64.228 E59.71000
G1 X78.985 Y63.699 E59.73496
G1 X79.515 Y63.593 E59.75296
G1 X78.985 Y63.063 E59.77792
G1 X79.515 Y62.957 E59.79591
G1 X78.985 Y62.428 E59.82087
G1 X79.515 Y62.321 E59.83887
G1 X78.985 Y61.792 E59.86382
G1 X79.515 Y61.686 E59.88182
G1 X78.985 Y61.156 E59.90678
G1 X79.515 Y61.050 E59.92478
G1 X78.985 Y60.521 E59.94973
G1 X79.515 Y60.414 E59.96773
G1 X78.985 Y59.885 E59.99269
G1 X79.515 Y59.779 E60.01068
G1 X78.985 Y59.249 E60.03564
G1 X79.515 Y59.143 E60.05364
G1 X78.985 Y58.613 E60.07859
G1 X79.515 Y58.507 E60.09659
G1 X79.057 Y58.049 E60.11817
G1 X79.515 Y57.872 E60.13454
G1 X79.213 Y57.570 E60.14877
G1 X79.515 Y57.236 E60.16377
G1 X79.235 Y55.603 F7800.000
G1 X79.500 Y87.456
G1 X100.500 Y87.456
G1 X100.500 Y66.456
G1 X100.485 Y64.970
G1 X101.015 Y64.899 F360.000 E60.18058
G1 X100.485 Y64.370 E60.20414
G1 X101.015 Y64.299 E60.22095
G1 X100.485 Y63.770 E60.24452
G1 X101.015 Y63.699 E60.26133
G1 X100.485 Y63.169 E60.28490
G1 X101.015 Y63.098 E60.30171
G1 X100.485 Y62.569 E60.32528
G1 X101.015 Y62.498 E60.34209
G1 X100.485 Y61.969 E60.36566
G1 X101.015 Y61.898 E60.38247
G1 X100.485 Y61.369 E60.40604
G1 X101.015 Y61.298 E60.42285
G1 X100.485 Y60.768 E60.44642
G1 X101.015 Y60.697 E60.46323
G1 X100.485 Y60.168 E60.48680
G1 X101.015 Y60.097 E60.50361
G1 X100.485 Y59.568 E60.52717
G1 X101.015 Y59.497 E60.54399
G1 X100.485 Y58.967 E60.56755
G1 X101.015 Y58.896 E60.58437
G1 X100.485 Y58.367 E60.60793
G1 X101.015 Y58.296 E60.62475
G1 X100.485 Y57.767 E60.64831
G1 X100.738 Y57.419 E60.66184
M106 S201
M104 S225 ; set temperature
M140 S100 ; set bed temperature
G1 F1800.000 E59.66184
G92 E0
G1 Z-0.590 F7800.000
G1 X102.002 Y56.501
G1 X100.500 Y87.456
G1 X97.504 Y89.309
G1 X90.000 Y113.915
G1 X90.000 Y112.742
G1 F1800.000 E1.00000
G1 X92.980 Y113.976 F1800.000 E1.09392
G1 X94.214 Y116.956 E1.18784
G1 X92.980 Y119.935 E1.28176
G1 X90.000 Y121.170 E1.37569
G1 X87.020 Y119.935 E1.46961
G1 X85.786 Y116.956 E1.56353
G1 X87.020 Y113.976 E1.65745
G1 X89.912 Y112.778 E1.74860
G1 X90.000 Y113.427 F7800.000
G1 X92.495 Y114.461 F1800.000 E1.82724
G1 X93.528 Y116.956 E1.90588
G1 X92.495 Y119.451 E1.98453
G1 X90.000 Y120.484 E2.06317
G1 X87.505 Y119.451 E2.14181
G1 X86.472 Y116.956 E2.22045
G1 X87.505 Y114.461 E2.29909
G1 X89.912 Y113.464 E2.37496
G1 X90.000 Y114.113 F7800.000
G1 X92.010 Y114.946 F1800.000 E2.43833
G1 X92.843 Y116.956 E2.50169
G1 X92.010 Y118.966 E2.56505
G1 X90.000 Y119.799 E2.62841
G1 X87.990 Y118.966 E2.69177
G1 X87.157 Y116.956 E2.75513
G1 X87.990 Y114.946 E2.81849
G1 X89.912 Y114.149 E2.87908
G1 X90.386 Y113.610 F7800.000
G1 X96.417 Y116.860
G1 X96.219 Y118.489 F1800.000 E2.92686
G1 X95.671 Y119.932 E2.97182
G1 X94.794 Y121.203 E3.01679
G1 X93.638 Y122.227 E3.06175
G1 X92.271 Y122.944 E3.10672
G1 X90.772 Y123.314 E3.15168
G1 X89.228 Y123.314 E3.19664
G1 X87.729 Y122.944 E3.24161
G1 X86.362 Y122.227 E3.28657
G1 X85.206 Y121.203 E3.33154
G1 X84.329 Y119.932 E3.37650
G1 X83.781 Y118.489 E3.42147
G1 X83.583 Y116.860 E3.46924
G1 X83.583 Y88.539 E4.29396
G1 X96.417 Y88.539 E4.66768
G1 X96.417 Y116.765 E5.48963
G1 X97.268 Y118.745 F7800.000
G1 X82.496 Y89.309
G1 X79.500 Y87.456
G1 X79.500 Y66.456
G1 X79.917 Y65.372
G1 X78.583 Y65.372 F1800.000 E5.52845
G1 X78.583 Y58.207 E5.73713
G1 X78.920 Y57.171 E5.76883
G1 X79.917 Y56.447 E5.80471
G1 X79.917 Y65.277 E6.06186
G1 X79.500 Y66.456 F7800.000
G1 X79.500 Y87.456
G1 X100.500 Y87.456
G1 X100.500 Y66.456
G1 X100.083 Y65.372
G1 X100.083 Y56.447 F1800.000 E6.32177
G1 X101.080 Y57.171 E6.35765
G1 X101.417 Y58.207 E6.38935
G1 X101.417 Y65.372 E6.59803
G1 X100.178 Y65.372 E6.63408
G1 X99.450 Y66.006 F7800.000
G1 X99.450 Y56.053 F1800.000 E6.92392
G1 X100.618 Y56.053 E6.95795
G1 X101.619 Y56.780 E6.99396
G1 X102.050 Y58.106 E7.03458
G1 X102.050 Y86.805 E7.87032
G1 X101.669 Y87.978 E7.90622
G1 X101.700 Y88.073 E7.90914
G1 X100.618 Y88.859 E7.94807
G1 X97.050 Y88.859 E8.05199
G1 X97.050 Y116.898 E8.86852
G1 X96.838 Y118.641 E8.91965
G1 X96.236 Y120.229 E8.96910
G1 X95.272 Y121.626 E9.01854
G1 X94.001 Y122.752 E9.06798
G1 X92.497 Y123.541 E9.11743
G1 X90.849 Y123.947 E9.16687
G1 X89.151 Y123.947 E9.21631
G1 X87.503 Y123.541 E9.26576
G1 X85.999 Y122.752 E9.31520
G1 X85.896 Y122.661 E9.31920
G1 X84.728 Y121.626 E9.36464
G1 X83.764 Y120.229 E9.41409
G1 X83.162 Y118.641 E9.46353
G1 X82.950 Y116.898 E9.51466
G1 X82.950 Y88.859 E10.33119
G1 X79.382 Y88.859 E10.43511
G1 X78.300 Y88.073 E10.47404
G1 X78.331 Y87.978 E10.47697
