; generated by Slic3r 0.9.9 on 2013-07-06 at 21:34:58

; layer_height = 0.31
; perimeters = 3
; top_solid_layers = 3
; bottom_solid_layers = 3
; fill_density = 0.4
; perimeter_speed = 30
; infill_speed = 60
; travel_speed = 120  
; nozzle_diameter = 0.5
; filament_diameter = 2.93
; extrusion_multiplier = 1
; perimeters extrusion width = 0.67mm
; infill extrusion width = 0.67mm
; solid infill extrusion width = 0.67mm
; top infill extrusion width = 0.67mm
; first layer extrusion width = 1.00mm

G21 ; set units to millimeters
M107
M190 S120 ; wait for bed temperature to be reached
M104 S240 ; set temperature
G28 ; home all axes
G1 Z5 F5000 ; lift nozzle
M109 S240 ; wait for temperature to be reached
G90 ; use absolute coordinates
G92 E0
M82 ; use absolute distances for extrusion
G1 F1800.000 E-1.00000
G92 E0
G1 Z-0.900 F7200.000
G1 X53.110 Y73.570
G1 F1800.000 E1.00000
G1 X53.860 Y73.120 F540.000 E1.05790
G1 X54.390 Y72.860 E1.09698
G1 X55.210 Y72.560 E1.15478
G1 X55.770 Y72.410 E1.19316
G1 X56.340 Y72.300 E1.23159
G1 X56.630 Y72.260 E1.25097
G1 X57.500 Y72.210 E1.30866
G1 X117.490 Y72.210 E5.27992
G1 X118.100 Y72.240 E5.32035
G1 X119.000 Y72.360 E5.38046
G1 X120.920 Y72.740 E5.51002
G1 X121.580 Y72.900 E5.55498
G1 X121.910 Y73.010 E5.57801
G1 X122.220 Y73.120 E5.59978
G1 X122.850 Y73.390 E5.64516
G1 X123.730 Y73.900 E5.71249
G1 X125.350 Y74.980 E5.84138
G1 X125.850 Y75.340 E5.88216
G1 X126.540 Y75.950 E5.94313
G1 X127.150 Y76.640 E6.00410
G1 X127.510 Y77.140 E6.04489
G1 X128.770 Y79.040 E6.19581
G1 X129.090 Y79.630 E6.24024
G1 X129.230 Y79.930 E6.26215
G1 X129.360 Y80.240 E6.28441
G1 X129.580 Y80.870 E6.32858
G1 X129.740 Y81.520 E6.37290
G1 X130.130 Y83.430 E6.50195
G1 X130.230 Y84.050 E6.54352
G1 X130.280 Y84.680 E6.58536
G1 X130.290 Y94.990 E7.26786
G1 X130.260 Y95.610 E7.30896
G1 X130.190 Y96.230 E7.35026
G1 X129.670 Y98.790 E7.52319
G1 X129.480 Y99.430 E7.56738
G1 X129.230 Y100.050 E7.61164
G1 X128.940 Y100.660 E7.65635
G1 X128.590 Y101.230 E7.70063
G1 X127.510 Y102.850 E7.82952
G1 X127.150 Y103.350 E7.87031
G1 X126.540 Y104.040 E7.93127
G1 X125.850 Y104.650 E7.99224
G1 X125.350 Y105.010 E8.03303
G1 X123.730 Y106.090 E8.16192
G1 X123.150 Y106.440 E8.20676
G1 X122.540 Y106.740 E8.25176
G1 X122.220 Y106.870 E8.27463
G1 X121.580 Y107.090 E8.31943
G1 X120.920 Y107.250 E8.36438
G1 X119.000 Y107.630 E8.49395
G1 X118.400 Y107.720 E8.53411
G1 X117.490 Y107.780 E8.59449
G1 X67.500 Y107.780 E11.90376
G1 X66.890 Y107.750 E11.94419
G1 X65.990 Y107.630 E12.00430
G1 X64.070 Y107.250 E12.13387
G1 X63.390 Y107.080 E12.18027
G1 X63.060 Y106.970 E12.20329
G1 X62.400 Y106.720 E12.25001
G1 X54.320 Y103.110 E12.83586
G1 X54.060 Y102.990 E12.85481
G1 X53.310 Y102.560 E12.91204
G1 X52.830 Y102.230 E12.95061
G1 X52.380 Y101.870 E12.98875
G1 X51.960 Y101.470 E13.02715
G1 X51.570 Y101.050 E13.06509
G1 X51.210 Y100.590 E13.10376
G1 X50.740 Y99.870 E13.16068
G1 X50.350 Y99.090 E13.21841
G1 X50.140 Y98.550 E13.25676
G1 X49.910 Y97.720 E13.31378
G1 X49.800 Y97.150 E13.35221
G1 X49.760 Y96.870 E13.37093
G1 X49.710 Y96.000 E13.42862
G1 X49.710 Y80.000 E14.48780
G1 X49.760 Y79.130 E14.54549
G1 X49.910 Y78.270 E14.60328
G1 X50.150 Y77.430 E14.66111
G1 X50.360 Y76.890 E14.69947
G1 X50.760 Y76.110 E14.75750
G1 X51.070 Y75.610 E14.79644
G1 X51.410 Y75.150 E14.83431
G1 X51.790 Y74.700 E14.87330
G1 X52.200 Y74.290 E14.91168
G1 X52.650 Y73.910 E14.95067
G1 X53.002 Y73.650 E14.97967
G1 X53.450 Y74.420 F7200.000
G1 X53.900 Y74.120 F540.000 E15.01548
G1 X54.370 Y73.860 E15.05103
G1 X55.110 Y73.530 E15.10467
G1 X55.370 Y73.440 E15.12288
G1 X56.160 Y73.240 E15.17683
G1 X56.420 Y73.190 E15.19436
G1 X57.230 Y73.110 E15.24824
G1 X117.760 Y73.110 E19.25525
G1 X118.300 Y73.150 E19.29110
G1 X118.830 Y73.240 E19.32668
G1 X121.040 Y73.680 E19.47586
G1 X121.620 Y73.850 E19.51587
G1 X122.180 Y74.070 E19.55570
G1 X122.720 Y74.330 E19.59537
G1 X123.230 Y74.640 E19.63488
G1 X125.100 Y75.900 E19.78415
G1 X125.340 Y76.080 E19.80401
G1 X125.800 Y76.480 E19.84436
G1 X126.010 Y76.690 E19.86402
G1 X126.410 Y77.150 E19.90438
G1 X126.770 Y77.640 E19.94463
G1 X127.850 Y79.260 E20.07352
G1 X128.150 Y79.760 E20.11212
G1 X128.530 Y80.570 E20.17135
G1 X128.630 Y80.840 E20.19041
G1 X128.800 Y81.410 E20.22978
G1 X129.300 Y83.880 E20.39661
G1 X129.390 Y84.710 E20.45188
G1 X129.390 Y95.270 E21.15094
G1 X129.340 Y95.820 E21.18750
G1 X129.250 Y96.360 E21.22374
G1 X128.800 Y98.570 E21.37304
G1 X128.630 Y99.140 E21.41241
G1 X128.420 Y99.690 E21.45139
G1 X128.150 Y100.230 E21.49135
G1 X127.850 Y100.730 E21.52995
G1 X126.770 Y102.350 E21.65884
G1 X126.410 Y102.840 E21.69909
G1 X126.010 Y103.300 E21.73945
G1 X125.800 Y103.510 E21.75911
G1 X125.340 Y103.910 E21.79946
G1 X125.100 Y104.090 E21.81932
G1 X122.980 Y105.510 E21.98823
G1 X122.720 Y105.660 E22.00811
G1 X121.900 Y106.040 E22.06793
G1 X121.040 Y106.310 E22.12760
G1 X118.300 Y106.840 E22.31235
G1 X117.760 Y106.880 E22.34820
G1 X67.230 Y106.880 E25.69322
G1 X66.690 Y106.840 E25.72907
G1 X66.160 Y106.750 E25.76465
G1 X64.240 Y106.370 E25.89422
G1 X63.340 Y106.130 E25.95588
G1 X62.770 Y105.900 E25.99657
G1 X54.440 Y102.180 E26.60050
G1 X53.730 Y101.770 E26.65477
G1 X53.500 Y101.620 E26.67295
G1 X52.860 Y101.100 E26.72754
G1 X52.470 Y100.720 E26.76358
G1 X51.950 Y100.090 E26.81766
G1 X51.640 Y99.630 E26.85438
G1 X51.370 Y99.160 E26.89026
G1 X51.140 Y98.660 E26.92670
G1 X50.950 Y98.150 E26.96272
G1 X50.800 Y97.630 E26.99855
G1 X50.690 Y97.090 E27.03503
G1 X50.610 Y96.270 E27.08957
G1 X50.610 Y79.730 E28.18450
G1 X50.630 Y79.460 E28.20242
G1 X50.690 Y78.920 E28.23839
G1 X50.740 Y78.660 E28.25592
G1 X50.940 Y77.870 E28.30987
G1 X51.240 Y77.110 E28.36395
G1 X51.490 Y76.630 E28.39978
G1 X51.620 Y76.400 E28.41727
G1 X51.920 Y75.950 E28.45307
G1 X52.260 Y75.520 E28.48936
G1 X52.820 Y74.940 E28.54273
G1 X53.344 Y74.502 E28.58795
G1 F1800.000 E27.58795
G92 E0
G1 X114.767 Y95.000 F7200.000
G1 F1800.000 E1.00000
G1 X115.567 Y93.067 F540.000 E1.13848
G1 X117.500 Y92.267 E1.27696
G1 X119.433 Y93.067 E1.41543
G1 X120.233 Y95.000 E1.55391
G1 X119.433 Y96.933 E1.69239
G1 X117.500 Y97.733 E1.83087
G1 X115.567 Y96.933 E1.96934
G1 X114.818 Y95.124 E2.09896
G1 X114.059 Y94.457 F7200.000
G1 X114.709 Y95.000
G1 X113.000 Y89.500
G1 X72.027 Y89.500
G1 X70.291 Y95.000
G1 X70.233 Y95.000
G1 X69.433 Y96.933 F540.000 E2.23744
G1 X67.500 Y97.733 E2.37591
G1 X65.567 Y96.933 E2.51439
G1 X64.767 Y95.000 E2.65287
G1 X65.567 Y93.067 E2.79135
G1 X67.500 Y92.267 E2.92982
G1 X69.433 Y93.067 E3.06830
G1 X70.182 Y94.876 E3.19791
G1 X70.941 Y95.543 F7200.000
G1 X70.268 Y91.481
G1 X67.500 Y90.334 F540.000 E3.39627
G1 X64.201 Y91.701 E3.63266
G1 X63.496 Y93.403 E3.75460
G1 X59.732 Y93.774 E4.00499
G1 X59.732 Y82.232 E4.76904
G1 X117.280 Y82.232 E8.57868
G1 X118.543 Y82.483 E8.66389
G1 X119.427 Y83.073 E8.73426
G1 X120.017 Y83.957 E8.80464
G1 X120.268 Y85.220 E8.88985
G1 X120.268 Y91.481 E9.30433
G1 X117.500 Y90.334 E9.50268
G1 X114.732 Y91.481 E9.70104
G1 X114.732 Y87.768 E9.94682
G1 X70.268 Y87.768 E12.89025
G1 X70.268 Y91.347 E13.12716
G1 X70.116 Y92.384 F7200.000
G1 X67.500 Y91.301 F540.000 E13.31459
G1 X64.884 Y92.384 E13.50203
G1 X64.116 Y94.239 E13.63492
G1 X61.161 Y94.530 E13.83148
G1 X61.161 Y94.661 E13.84016
G1 X58.839 Y94.661 E13.99387
G1 X58.839 Y81.339 E14.87577
G1 X117.368 Y81.339 E18.75032
G1 X118.891 Y81.642 E18.85310
G1 X120.070 Y82.430 E18.94698
G1 X120.858 Y83.609 E19.04087
G1 X121.161 Y85.132 E19.14365
G1 X121.161 Y93.762 E19.71497
G1 X120.723 Y93.849 E19.74454
G1 X120.116 Y92.384 E19.84953
G1 X117.500 Y91.301 E20.03696
G1 X114.884 Y92.384 E20.22440
G1 X114.277 Y93.849 E20.32939
G1 X113.839 Y93.762 E20.35896
G1 X113.839 Y88.661 E20.69665
G1 X71.161 Y88.661 E23.52189
G1 X71.161 Y93.762 E23.85959
G1 X70.723 Y93.849 E23.88917
G1 X70.167 Y92.508 E23.98529
G1 X72.054 Y94.956 F7200.000
G1 X71.699 Y96.739 F378.000 E24.10565
G1 X70.714 Y98.214 E24.22304
G1 X69.239 Y99.199 E24.34043
G1 X67.500 Y99.545 E24.45783
G1 X65.761 Y99.199 E24.57522
G1 X64.286 Y98.214 E24.69261
G1 X63.301 Y96.739 E24.81000
G1 X63.004 Y95.245 E24.91084
G1 X62.054 Y95.339 E24.97405
G1 X62.054 Y95.554 E24.98827
G1 X57.946 Y95.554 E25.26017
G1 X57.946 Y80.446 E26.26025
G1 X117.456 Y80.446 E30.19972
G1 X119.239 Y80.801 E30.32008
G1 X120.714 Y81.786 E30.43747
G1 X121.699 Y83.261 E30.55486
G1 X122.054 Y85.044 E30.67522
G1 X122.054 Y94.956 E31.33139
G1 X121.699 Y96.739 E31.45175
G1 X120.714 Y98.214 E31.56914
G1 X119.239 Y99.199 E31.68654
G1 X117.500 Y99.545 E31.80393
G1 X115.761 Y99.199 E31.92132
G1 X114.286 Y98.214 E32.03871
G1 X113.301 Y96.739 E32.15611
G1 X112.946 Y94.956 E32.27646
G1 X112.946 Y89.554 E32.63409
G1 X72.054 Y89.554 E35.34114
G1 X72.054 Y94.822 E35.68991
G1 X71.229 Y95.298 F7200.000
G1 X70.291 Y95.000
G1 X69.075 Y99.177
G1 X65.526 Y96.974
G1 X62.954 Y95.212
G1 X60.379 Y93.060
G1 X61.549 Y92.944 F1080.000 E35.76910
G1 X60.379 Y91.774 E35.88057
G1 X60.379 Y90.490 E35.96714
G1 X62.718 Y92.829 E36.19007
G1 X63.317 Y92.143 E36.25143
G1 X60.379 Y89.205 E36.53142
G1 X60.379 Y87.920 E36.61799
G1 X63.694 Y91.235 E36.93384
G1 X64.585 Y90.841 E36.99950
G1 X60.379 Y86.635 E37.40031
G1 X60.379 Y85.350 E37.48688
G1 X65.494 Y90.465 E37.97426
G1 X66.402 Y90.089 E38.04052
G1 X60.379 Y84.065 E38.61448
G1 X60.478 Y82.879 E38.69467
G1 X67.311 Y89.712 E39.34578
G1 X69.237 Y90.354 E39.48257
G1 X61.763 Y82.879 E40.19479
G1 X63.047 Y82.879 E40.28136
G1 X69.621 Y89.453 E40.90773
G1 X69.621 Y88.168 E40.99430
G1 X64.332 Y82.879 E41.49824
G1 X65.617 Y82.879 E41.58481
G1 X69.860 Y87.121 E41.98903
G1 X71.145 Y87.121 E42.07560
G1 X66.902 Y82.879 E42.47983
G1 X68.187 Y82.879 E42.56640
G1 X72.429 Y87.121 E42.97062
G1 X73.714 Y87.121 E43.05720
G1 X69.472 Y82.879 E43.46142
G1 X70.757 Y82.879 E43.54799
G1 X74.999 Y87.121 E43.95222
G1 X76.284 Y87.121 E44.03879
G1 X72.042 Y82.879 E44.44301
G1 X73.327 Y82.879 E44.52959
G1 X77.569 Y87.121 E44.93381
G1 X78.854 Y87.121 E45.02038
G1 X74.612 Y82.879 E45.42461
G1 X75.897 Y82.879 E45.51118
G1 X80.139 Y87.121 E45.91540
G1 X81.424 Y87.121 E46.00198
G1 X77.181 Y82.879 E46.40620
G1 X78.466 Y82.879 E46.49277
G1 X82.709 Y87.121 E46.89700
G1 X83.994 Y87.121 E46.98357
G1 X79.751 Y82.879 E47.38779
G1 X81.036 Y82.879 E47.47437
G1 X85.279 Y87.121 E47.87859
G1 X86.563 Y87.121 E47.96516
G1 X82.321 Y82.879 E48.36939
G1 X83.606 Y82.879 E48.45596
G1 X87.848 Y87.121 E48.86018
G1 X89.133 Y87.121 E48.94676
G1 X84.891 Y82.879 E49.35098
G1 X86.176 Y82.879 E49.43755
G1 X90.418 Y87.121 E49.84178
G1 X91.703 Y87.121 E49.92835
G1 X87.461 Y82.879 E50.33257
G1 X88.746 Y82.879 E50.41915
G1 X92.988 Y87.121 E50.82337
G1 X94.273 Y87.121 E50.90994
G1 X90.031 Y82.879 E51.31417
G1 X91.316 Y82.879 E51.40074
G1 X95.558 Y87.121 E51.80496
G1 X96.843 Y87.121 E51.89153
G1 X92.600 Y82.879 E52.29576
G1 X93.885 Y82.879 E52.38233
G1 X98.128 Y87.121 E52.78656
G1 X99.413 Y87.121 E52.87313
G1 X95.170 Y82.879 E53.27735
G1 X96.455 Y82.879 E53.36392
G1 X100.698 Y87.121 E53.76815
G1 X101.982 Y87.121 E53.85472
G1 X97.740 Y82.879 E54.25895
G1 X99.025 Y82.879 E54.34552
G1 X103.267 Y87.121 E54.74974
G1 X104.552 Y87.121 E54.83631
G1 X100.310 Y82.879 E55.24054
G1 X101.595 Y82.879 E55.32711
G1 X105.837 Y87.121 E55.73134
G1 X107.122 Y87.121 E55.81791
G1 X102.880 Y82.879 E56.22213
G1 X104.165 Y82.879 E56.30870
G1 X108.407 Y87.121 E56.71293
G1 X109.692 Y87.121 E56.79950
G1 X105.450 Y82.879 E57.20373
G1 X106.734 Y82.879 E57.29030
G1 X110.977 Y87.121 E57.69452
G1 X112.262 Y87.121 E57.78109
G1 X108.019 Y82.879 E58.18532
G1 X109.304 Y82.879 E58.27189
G1 X113.547 Y87.121 E58.67612
G1 X114.832 Y87.121 E58.76269
G1 X110.589 Y82.879 E59.16691
G1 X111.874 Y82.879 E59.25348
G1 X119.428 Y90.432 E59.97322
G1 X119.621 Y89.341 E60.04791
G1 X113.159 Y82.879 E60.66364
G1 X114.444 Y82.879 E60.75022
G1 X119.621 Y88.056 E61.24352
G1 X119.621 Y86.771 E61.33009
G1 X115.729 Y82.879 E61.70096
G1 X117.014 Y82.879 E61.78754
G1 X119.621 Y85.486 E62.03598
G1 X118.960 Y83.540 E62.17449
G1 X115.379 Y87.668 F7200.000
G1 X117.390 Y89.680 F1080.000 E62.36612
G1 X116.481 Y90.056 E62.43238
G1 X115.379 Y88.953 E62.53743
G1 X115.379 Y90.238 E62.62400
G1 X115.573 Y90.432 E62.64248
G1 X115.526 Y93.026 F7200.000
G1 X113.000 Y89.500
G1 X72.027 Y89.500
G1 X65.526 Y93.026
G1 X64.709 Y95.000
G1 X65.526 Y96.974
G1 X64.502 Y96.833
G1 X64.501 Y96.832 F360.000 E62.64252
G1 X65.668 Y97.999 F7200.000
G1 X65.667 Y97.998 F360.000 E62.64255
G1 X68.324 Y98.416 F7200.000
G1 X69.333 Y97.998 F360.000 E62.72421
G1 X70.498 Y96.833 F7200.000
G1 X70.916 Y95.824 F360.000 E62.80587
G1 X70.291 Y95.000 F7200.000
G1 X72.027 Y89.500
G1 X113.000 Y89.500
G1 X114.709 Y95.000
G1 X115.526 Y96.974
G1 X114.502 Y96.833
G1 X114.501 Y96.832 F360.000 E62.80590
G1 X115.668 Y97.999 F7200.000
G1 X115.667 Y97.998 F360.000 E62.80593
G1 X118.324 Y98.416 F7200.000
G1 X119.333 Y97.998 F360.000 E62.88758
G1 X120.498 Y96.833 F7200.000
G1 X120.916 Y95.824 F360.000 E62.96922
M106 S229
M104 S225 ; set temperature
M140 S100 ; set bed temperature
G1 F1800.000 E61.96922
G92 E0
G1 Z-0.590 F7200.000
G1 X120.291 Y95.000
G1 X121.998 Y94.959
G1 X119.474 Y93.026
G1 X113.000 Y89.500
G1 X72.027 Y89.500
G1 X70.291 Y95.000
G1 X70.778 Y95.000
G1 F1800.000 E1.00000
G1 X69.818 Y97.318 F1800.000 E1.07307
G1 X67.500 Y98.278 E1.14614
G1 X65.182 Y97.318 E1.21921
G1 X64.222 Y95.000 E1.29227
G1 X65.182 Y92.682 E1.36534
G1 X67.500 Y91.722 E1.43841
G1 X69.818 Y92.682 E1.51148
G1 X70.742 Y94.912 E1.58178
G1 X70.093 Y95.000 F7200.000
G1 X69.333 Y96.833 F1800.000 E1.63957
G1 X67.500 Y97.593 E1.69736
G1 X65.667 Y96.833 E1.75515
G1 X64.907 Y95.000 E1.81294
G1 X65.667 Y93.167 E1.87072
G1 X67.500 Y92.407 E1.92851
G1 X69.333 Y93.167 E1.98630
G1 X70.056 Y94.912 E2.04132
G1 X70.595 Y95.386 F7200.000
G1 X70.291 Y95.000
G1 X72.027 Y89.500
G1 X113.000 Y89.500
G1 X114.709 Y95.000
G1 X114.222 Y95.000
G1 X115.182 Y92.682 F1800.000 E2.11439
G1 X117.500 Y91.722 E2.18746
G1 X119.818 Y92.682 E2.26053
G1 X120.778 Y95.000 E2.33360
G1 X119.818 Y97.318 E2.40667
G1 X117.500 Y98.278 E2.47974
G1 X115.182 Y97.318 E2.55280
G1 X114.258 Y95.088 E2.62311
G1 X114.907 Y95.000 F7200.000
G1 X115.667 Y93.167 F1800.000 E2.68089
G1 X117.500 Y92.407 E2.73868
G1 X119.333 Y93.167 E2.79647
G1 X120.093 Y95.000 E2.85426
G1 X119.333 Y96.833 E2.91205
G1 X117.500 Y97.593 E2.96984
G1 X115.667 Y96.833 E3.02763
G1 X114.944 Y95.088 E3.08265
G1 X114.405 Y94.614 F7200.000
G1 X114.394 Y92.928
G1 X114.083 Y92.866 F1800.000 E3.09188
G1 X114.083 Y88.417 E3.22145
G1 X70.917 Y88.417 E4.47851
G1 X70.917 Y92.866 E4.60809
G1 X70.606 Y92.928 E4.61732
G1 X70.303 Y92.197 E4.64035
G1 X67.500 Y91.036 E4.72870
G1 X64.697 Y92.197 E4.81705
G1 X63.946 Y94.010 E4.87419
G1 X60.917 Y94.308 E4.96284
G1 X60.917 Y94.417 E4.96600
G1 X59.083 Y94.417 E5.01938
G1 X59.083 Y81.583 E5.39309
G1 X117.344 Y81.583 E7.08969
G1 X118.796 Y81.872 E7.13279
G1 X119.894 Y82.606 E7.17125
G1 X120.628 Y83.704 E7.20972
G1 X120.917 Y85.156 E7.25282
G1 X120.917 Y92.866 E7.47734
G1 X120.606 Y92.928 E7.48658
G1 X120.303 Y92.197 E7.50961
G1 X117.500 Y91.036 E7.59796
G1 X114.697 Y92.197 E7.68631
G1 X114.431 Y92.840 E7.70658
G1 X113.450 Y94.906 F7200.000
G1 X113.450 Y89.050 F1800.000 E7.87712
G1 X71.550 Y89.050 E9.09729
G1 X71.550 Y94.906 E9.26784
G1 X71.224 Y96.543 E9.31642
G1 X70.351 Y97.851 E9.36223
G1 X69.043 Y98.724 E9.40803
G1 X67.500 Y99.031 E9.45384
G1 X65.957 Y98.724 E9.49964
G1 X64.649 Y97.851 E9.54545
G1 X63.776 Y96.543 E9.59126
G1 X63.409 Y94.699 E9.64599
G1 X61.550 Y94.882 E9.70039
G1 X61.550 Y95.050 E9.70527
G1 X58.450 Y95.050 E9.79554
G1 X58.450 Y80.950 E10.20614
G1 X117.406 Y80.950 E11.92300
G1 X119.043 Y81.276 E11.97158
G1 X120.351 Y82.149 E12.01739
G1 X121.224 Y83.457 E12.06319
G1 X121.550 Y85.094 E12.11178
G1 X121.550 Y94.906 E12.39754
G1 X121.224 Y96.543 E12.44612
G1 X120.351 Y97.851 E12.49193
G1 X119.043 Y98.724 E12.53773
G1 X117.500 Y99.031 E12.58354
G1 X115.957 Y98.724 E12.62934
G1 X114.649 Y97.851 E12.67515
G1 X113.776 Y96.543 E12.72095
G1 X113.469 Y95.000 E12.76677
G1 X112.817 Y94.969 F7200.000
G1 X112.817 Y89.683 F1260.000 E12.92069
G1 X72.183 Y89.683 E14.10397
G1 X72.183 Y94.969 E14.25789
