; generated by Slic3r 0.9.9 on 2013-07-06 at 22:20:00

; layer_height = 0.31
; perimeters = 3
; top_solid_layers = 3
; bottom_solid_layers = 3
; fill_density = 0.4
; perimeter_speed = 30
; infill_speed = 60
; travel_speed = 120  
; nozzle_diameter = 0.5
; filament_diameter = 2.93
; extrusion_multiplier = 1
; perimeters extrusion width = 0.67mm
; infill extrusion width = 0.67mm
; solid infill extrusion width = 0.67mm
; top infill extrusion width = 0.67mm
; first layer extrusion width = 1.00mm

G21 ; set units to millimeters
M107
M190 S120 ; wait for bed temperature to be reached
M104 S240 ; set temperature
G28 ; home all axes
G1 Z5 F5000 ; lift nozzle
M109 S240 ; wait for temperature to be reached
G90 ; use absolute coordinates
G92 E0
M82 ; use absolute distances for extrusion
G1 F1800.000 E-1.00000
G92 E0
G1 Z-0.900 F7200.000
G1 X72.990 Y76.490
G1 F1800.000 E1.00000
G1 X73.650 Y75.910 F540.000 E1.05816
G1 X74.110 Y75.570 E1.09603
G1 X74.860 Y75.120 E1.15393
G1 X75.390 Y74.860 E1.19301
G1 X75.930 Y74.650 E1.23137
G1 X76.480 Y74.480 E1.26948
G1 X77.050 Y74.350 E1.30818
G1 X77.630 Y74.260 E1.34703
G1 X78.500 Y74.210 E1.40472
G1 X94.490 Y74.210 E2.46324
G1 X94.840 Y74.220 E2.48642
G1 X95.540 Y74.290 E2.53299
G1 X96.230 Y74.410 E2.57935
G1 X98.730 Y75.100 E2.75104
G1 X99.660 Y75.470 E2.81729
G1 X102.000 Y76.700 E2.99230
G1 X102.320 Y76.900 E3.01728
G1 X102.920 Y77.350 E3.06693
G1 X104.650 Y78.870 E3.21937
G1 X104.920 Y79.120 E3.24373
G1 X105.430 Y79.670 E3.29339
G1 X105.880 Y80.260 E3.34251
G1 X107.190 Y82.170 E3.49583
G1 X107.560 Y82.830 E3.54592
G1 X107.860 Y83.530 E3.59633
G1 X108.540 Y85.330 E3.72371
G1 X108.670 Y85.680 E3.74843
G1 X108.770 Y86.040 E3.77316
G1 X108.940 Y86.780 E3.82342
G1 X109.260 Y89.430 E4.00012
G1 X109.260 Y90.550 E4.07427
G1 X108.990 Y92.840 E4.22691
G1 X108.940 Y93.210 E4.25163
G1 X108.860 Y93.580 E4.27669
G1 X108.670 Y94.310 E4.32662
G1 X107.720 Y96.810 E4.50367
G1 X107.560 Y97.160 E4.52914
G1 X107.190 Y97.820 E4.57923
G1 X105.880 Y99.730 E4.73255
G1 X105.430 Y100.320 E4.78167
G1 X105.180 Y100.600 E4.80652
G1 X104.650 Y101.120 E4.85567
G1 X103.210 Y102.400 E4.98322
G1 X102.630 Y102.870 E5.03263
G1 X102.000 Y103.290 E5.08276
G1 X99.960 Y104.370 E5.23556
G1 X99.370 Y104.650 E5.27879
G1 X98.760 Y104.880 E5.32195
G1 X96.260 Y105.580 E5.49381
G1 X95.560 Y105.710 E5.54094
G1 X94.850 Y105.780 E5.58817
G1 X94.490 Y105.790 E5.61201
G1 X78.210 Y105.780 E6.68973
G1 X77.630 Y105.740 E6.72822
G1 X77.340 Y105.700 E6.74760
G1 X76.770 Y105.590 E6.78603
G1 X76.210 Y105.440 E6.82440
G1 X75.390 Y105.140 E6.88221
G1 X74.860 Y104.880 E6.92128
G1 X74.360 Y104.590 E6.95955
G1 X74.110 Y104.430 E6.97920
G1 X73.650 Y104.090 E7.01706
G1 X72.990 Y103.510 E7.07523
G1 X72.410 Y102.850 E7.13339
G1 X72.070 Y102.390 E7.17126
G1 X71.760 Y101.890 E7.21020
G1 X71.360 Y101.110 E7.26823
G1 X71.150 Y100.570 E7.30659
G1 X70.980 Y100.020 E7.34470
G1 X70.800 Y99.160 E7.40286
G1 X70.760 Y98.870 E7.42224
G1 X70.720 Y98.290 E7.46073
G1 X70.710 Y82.000 E8.53911
G1 X70.760 Y81.130 E8.59679
G1 X70.850 Y80.550 E8.63565
G1 X70.980 Y79.980 E8.67435
G1 X71.150 Y79.430 E8.71246
G1 X71.360 Y78.890 E8.75082
G1 X71.620 Y78.360 E8.78990
G1 X72.070 Y77.610 E8.84780
G1 X72.410 Y77.150 E8.88566
G1 X72.898 Y76.587 E8.93497
G1 X73.440 Y77.320 F7200.000
G1 X74.020 Y76.760 F540.000 E8.98834
G1 X74.450 Y76.420 E9.02463
G1 X74.900 Y76.120 E9.06043
G1 X75.610 Y75.740 E9.11374
G1 X76.370 Y75.440 E9.16783
G1 X76.890 Y75.300 E9.20348
G1 X77.420 Y75.190 E9.23931
G1 X77.960 Y75.130 E9.27528
G1 X78.230 Y75.110 E9.29320
G1 X94.800 Y75.110 E10.39012
G1 X95.420 Y75.170 E10.43135
G1 X96.030 Y75.280 E10.47239
G1 X98.450 Y75.950 E10.63861
G1 X99.280 Y76.280 E10.69774
G1 X101.540 Y77.470 E10.86682
G1 X101.830 Y77.650 E10.88942
G1 X102.360 Y78.040 E10.93298
G1 X104.060 Y79.540 E11.08306
G1 X104.530 Y80.000 E11.12660
G1 X104.750 Y80.250 E11.14864
G1 X105.150 Y80.770 E11.19207
G1 X106.250 Y82.360 E11.32006
G1 X106.430 Y82.640 E11.34210
G1 X106.760 Y83.230 E11.38685
G1 X107.030 Y83.840 E11.43101
G1 X107.710 Y85.640 E11.55839
G1 X107.820 Y85.960 E11.58079
G1 X107.990 Y86.600 E11.62462
G1 X108.060 Y86.930 E11.64695
G1 X108.100 Y87.260 E11.66896
G1 X108.330 Y89.170 E11.79631
G1 X108.380 Y89.820 E11.83947
G1 X108.370 Y90.480 E11.88317
G1 X108.060 Y93.060 E12.05519
G1 X107.820 Y94.030 E12.12134
G1 X107.030 Y96.150 E12.27110
G1 X106.760 Y96.760 E12.31526
G1 X106.430 Y97.350 E12.36002
G1 X105.150 Y99.220 E12.51003
G1 X104.750 Y99.740 E12.55346
G1 X104.530 Y99.990 E12.57551
G1 X104.060 Y100.450 E12.61904
G1 X102.620 Y101.730 E12.74658
G1 X102.360 Y101.950 E12.76913
G1 X101.830 Y102.340 E12.81269
G1 X101.250 Y102.680 E12.85720
G1 X99.540 Y103.580 E12.98512
G1 X99.020 Y103.830 E13.02331
G1 X98.480 Y104.030 E13.06143
G1 X96.360 Y104.630 E13.20729
G1 X95.750 Y104.780 E13.24887
G1 X95.440 Y104.830 E13.26966
G1 X94.810 Y104.890 E13.31155
G1 X78.230 Y104.890 E14.40913
G1 X77.420 Y104.810 E14.46301
G1 X76.890 Y104.700 E14.49884
G1 X76.370 Y104.560 E14.53449
G1 X75.610 Y104.260 E14.58858
G1 X74.900 Y103.880 E14.64189
G1 X74.450 Y103.580 E14.67769
G1 X73.820 Y103.060 E14.73177
G1 X73.260 Y102.480 E14.78514
G1 X72.920 Y102.050 E14.82143
G1 X72.620 Y101.600 E14.85723
G1 X72.240 Y100.890 E14.91054
G1 X71.940 Y100.130 E14.96463
G1 X71.800 Y99.610 E15.00028
G1 X71.690 Y99.080 E15.03611
G1 X71.610 Y98.270 E15.08999
G1 X71.610 Y81.730 E16.18492
G1 X71.630 Y81.460 E16.20284
G1 X71.690 Y80.920 E16.23881
G1 X71.800 Y80.390 E16.27465
G1 X71.940 Y79.870 E16.31029
G1 X72.130 Y79.360 E16.34632
G1 X72.360 Y78.870 E16.38216
G1 X72.620 Y78.400 E16.41771
G1 X72.920 Y77.950 E16.45351
G1 X73.350 Y77.420 E16.49874
G1 F1800.000 E15.49874
G92 E0
G1 X89.577 Y88.572 F7200.000
G1 F1800.000 E1.00000
G1 X91.413 Y86.384 F540.000 E1.18906
G1 X94.225 Y85.888 E1.37811
G1 X96.698 Y87.316 E1.56716
G1 X97.675 Y90.000 E1.75622
G1 X96.698 Y92.684 E1.94527
G1 X94.225 Y94.112 E2.13433
G1 X91.413 Y93.616 E2.32338
G1 X89.577 Y91.428 E2.51243
G1 X89.577 Y88.706 E2.69263
G1 X90.469 Y88.897 F7200.000
G1 X91.888 Y87.207 F540.000 E2.83866
G1 X94.060 Y86.824 E2.98470
G1 X95.970 Y87.927 E3.13074
G1 X96.725 Y90.000 E3.27677
G1 X95.970 Y92.073 E3.42281
G1 X94.060 Y93.176 E3.56885
G1 X91.888 Y92.793 E3.71488
G1 X90.469 Y91.103 E3.86092
G1 X90.469 Y89.031 E3.99809
G1 X89.979 Y88.151 F7200.000
G1 X88.684 Y88.247
G1 X88.684 Y91.753 F540.000 E4.23017
G1 X90.938 Y94.438 E4.46224
G1 X94.664 Y95.095 E4.71272
G1 X94.605 Y95.768 E4.75743
G1 X80.732 Y95.768 E5.67582
G1 X80.732 Y84.232 E6.43952
G1 X94.605 Y84.232 E7.35790
G1 X94.664 Y84.905 E7.40261
G1 X90.938 Y85.562 E7.65309
G1 X88.770 Y88.145 E7.87630
G1 X94.314 Y83.339 F7200.000
G1 X95.838 Y83.770 F540.000 E7.98114
G1 X97.278 Y84.526 E8.08882
G1 X98.478 Y85.589 E8.19496
G1 X99.389 Y86.909 E8.30110
G1 X99.958 Y88.408 E8.40725
G1 X100.151 Y90.000 E8.51339
G1 X99.958 Y91.592 E8.61953
G1 X99.389 Y93.091 E8.72568
G1 X98.478 Y94.411 E8.83182
G1 X97.278 Y95.474 E8.93796
G1 X95.838 Y96.230 E9.04564
G1 X94.314 Y96.661 E9.15048
G1 X79.839 Y96.661 E10.10871
G1 X79.839 Y83.339 E10.99061
G1 X94.180 Y83.339 E11.93998
G1 X94.438 Y82.446 F7200.000
G1 X96.171 Y82.937 F378.000 E12.05917
G1 X97.789 Y83.786 E12.18018
G1 X99.152 Y84.993 E12.30067
G1 X100.185 Y86.491 E12.42117
G1 X100.831 Y88.193 E12.54166
G1 X101.050 Y90.000 E12.66215
G1 X100.831 Y91.807 E12.78265
G1 X100.185 Y93.509 E12.90314
G1 X99.152 Y95.007 E13.02364
G1 X97.789 Y96.214 E13.14413
G1 X96.171 Y97.063 E13.26514
G1 X94.438 Y97.554 E13.38433
G1 X78.946 Y97.554 E14.40986
G1 X78.946 Y82.446 E15.40995
G1 X94.304 Y82.446 E16.42662
G1 X94.736 Y83.288 F7200.000
G1 X90.666 Y84.879
G1 X89.364 Y84.879 F1080.000 E16.51551
G1 X90.072 Y85.587 E16.58387
G1 X89.478 Y86.295 E16.64695
G1 X88.062 Y84.879 E16.78366
G1 X86.760 Y84.879 E16.87253
G1 X88.884 Y87.003 E17.07758
G1 X88.290 Y87.711 E17.14067
G1 X85.458 Y84.879 E17.41406
G1 X84.156 Y84.879 E17.50294
G1 X88.037 Y88.760 E17.87764
G1 X88.037 Y90.062 E17.96651
G1 X82.854 Y84.879 E18.46691
G1 X81.552 Y84.879 E18.55578
G1 X88.037 Y91.364 E19.18187
G1 X90.492 Y95.121 E19.48829
G1 X81.379 Y86.008 E20.36816
G1 X81.379 Y87.309 E20.45704
G1 X89.191 Y95.121 E21.21122
G1 X87.889 Y95.121 E21.30010
G1 X81.379 Y88.611 E21.92858
G1 X81.379 Y89.913 E22.01746
G1 X86.587 Y95.121 E22.52025
G1 X85.285 Y95.121 E22.60913
G1 X81.379 Y91.215 E22.98623
G1 X81.379 Y92.517 E23.07511
G1 X83.983 Y95.121 E23.32651
G1 X82.681 Y95.121 E23.41539
G1 X81.379 Y93.819 E23.54110
G1 X81.379 Y95.121 E23.63000
M106 S255
M104 S225 ; set temperature
M140 S100 ; set bed temperature
G1 F1800.000 E22.63000
G92 E0
G1 Z-0.590 F7200.000
G1 X89.332 Y91.517
G1 F1800.000 E1.00000
G1 X89.332 Y88.483 F833.866 E1.08835
G1 X91.282 Y86.159 E1.17669
G1 X94.270 Y85.632 E1.26504
G1 X96.897 Y87.149 E1.35339
G1 X97.935 Y90.000 E1.44173
G1 X96.897 Y92.851 E1.53008
G1 X94.270 Y94.368 E1.61843
G1 X91.282 Y93.841 E1.70677
G1 X89.393 Y91.590 E1.79235
G1 X89.966 Y91.286 F7200.000
G1 X89.966 Y88.714 F833.866 E1.86727
G1 X91.619 Y86.743 E1.94219
G1 X94.153 Y86.296 E2.01711
G1 X96.381 Y87.582 E2.09203
G1 X97.261 Y90.000 E2.16695
G1 X96.381 Y92.418 E2.24187
G1 X94.153 Y93.704 E2.31679
G1 X91.619 Y93.257 E2.39171
G1 X90.027 Y91.359 E2.46386
G1 X90.599 Y91.056 F7200.000
G1 X90.599 Y88.944 F833.866 E2.52536
G1 X91.956 Y87.327 E2.58685
G1 X94.036 Y86.960 E2.64834
G1 X95.865 Y88.016 E2.70983
G1 X96.587 Y90.000 E2.77133
G1 X95.865 Y91.984 E2.83282
G1 X94.036 Y93.040 E2.89431
G1 X91.956 Y92.673 E2.95581
G1 X90.660 Y91.129 E3.01453
G1 X89.992 Y90.874 F7200.000
G1 X94.280 Y96.417
G1 X80.083 Y96.417 F833.866 E3.42796
G1 X80.083 Y83.583 E3.80167
G1 X94.280 Y83.583 E4.21509
G1 X95.747 Y83.999 E4.25948
G1 X97.138 Y84.729 E4.30524
G1 X98.294 Y85.753 E4.35020
G1 X99.171 Y87.023 E4.39517
G1 X99.719 Y88.467 E4.44013
G1 X99.905 Y90.000 E4.48510
G1 X99.719 Y91.533 E4.53006
G1 X99.171 Y92.977 E4.57503
G1 X98.294 Y94.247 E4.61999
G1 X97.138 Y95.271 E4.66495
G1 X95.747 Y96.001 E4.71072
G1 X94.372 Y96.391 E4.75234
G1 X94.368 Y97.050 F7200.000
G1 X79.450 Y97.050 F833.866 E5.18677
G1 X79.450 Y82.950 E5.59737
G1 X94.368 Y82.950 E6.03179
G1 X95.983 Y83.407 E6.08066
G1 X97.501 Y84.204 E6.13059
G1 X98.772 Y85.330 E6.18003
G1 X99.736 Y86.727 E6.22947
G1 X100.338 Y88.315 E6.27892
G1 X100.543 Y90.000 E6.32836
G1 X100.338 Y91.685 E6.37780
G1 X99.736 Y93.273 E6.42725
G1 X98.772 Y94.670 E6.47669
G1 X97.501 Y95.796 E6.52613
G1 X95.983 Y96.593 E6.57605
G1 X94.460 Y97.024 E6.62216
G1 X94.456 Y97.683 F7200.000
G1 X78.817 Y97.683 F600.000 E7.07759
G1 X78.817 Y82.317 E7.52508
G1 X94.456 Y82.317 E7.98051
G1 X96.219 Y82.816 E8.03386
G1 X97.863 Y83.679 E8.08794
G1 X99.249 Y84.907 E8.14187
G1 X100.301 Y86.430 E8.19579
G1 X100.958 Y88.162 E8.24971
G1 X101.181 Y90.000 E8.30363
G1 X100.958 Y91.838 E8.35756
G1 X100.301 Y93.570 E8.41148
G1 X99.249 Y95.093 E8.46540
G1 X97.863 Y96.321 E8.51932
G1 X96.219 Y97.184 E8.57341
G1 X94.547 Y97.657 E8.62399
G1 X94.090 Y97.166 F7200.000
G1 X97.217 Y95.000
G1 X95.886 Y95.410 F1667.731 E8.66570
G1 X98.901 Y92.395 E8.79338
G1 X97.834 Y91.619 F7200.000
G1 X99.441 Y90.013 F1667.731 E8.86142
G1 X99.344 Y89.189 E8.88627
G1 X98.361 Y90.171 E8.92788
G1 X98.207 Y89.405 E8.95130
G1 X99.205 Y88.407 E8.99355
G1 X98.952 Y87.739 E9.01494
G1 X97.961 Y88.729 E9.05688
G1 X97.715 Y88.054 E9.07840
G1 X98.668 Y87.102 E9.11872
G1 X98.291 Y86.557 E9.13854
G1 X97.470 Y87.379 E9.17335
G1 X97.158 Y86.769 E9.19384
G1 X97.915 Y86.012 E9.22591
G1 X97.539 Y85.467 E9.24574
G1 X96.574 Y86.432 E9.28661
G1 X95.990 Y86.095 E9.30680
G1 X96.947 Y85.139 E9.34731
G1 X96.337 Y84.827 E9.36781
G1 X95.406 Y85.758 E9.40724
G1 X94.822 Y85.421 E9.42743
G1 X95.733 Y84.510 E9.46601
G1 X95.045 Y84.277 E9.48776
G1 X94.132 Y85.191 E9.52645
G1 X94.327 Y84.074 E9.56040
G1 X93.013 Y85.388 E9.61603
G1 X91.895 Y85.585 E9.65003
G1 X93.437 Y84.043 E9.71535
G1 X92.516 Y84.043 E9.74293
G1 X80.601 Y95.957 E10.24749
G1 X80.543 Y95.095 E10.27336
G1 X91.595 Y84.043 E10.74141
G1 X90.674 Y84.043 E10.76899
G1 X80.543 Y94.174 E11.19804
G1 X80.543 Y93.253 E11.22562
G1 X89.753 Y84.043 E11.61566
G1 X88.832 Y84.043 E11.64324
G1 X80.543 Y92.332 E11.99428
G1 X80.543 Y91.411 E12.02186
G1 X87.911 Y84.043 E12.33389
G1 X86.990 Y84.043 E12.36147
G1 X80.543 Y90.490 E12.63450
G1 X80.543 Y89.569 E12.66208
G1 X86.069 Y84.043 E12.89611
G1 X85.148 Y84.043 E12.92369
G1 X80.543 Y88.648 E13.11872
G1 X80.543 Y87.727 E13.14630
G1 X84.227 Y84.043 E13.30232
G1 X83.306 Y84.043 E13.32990
G1 X80.543 Y86.806 E13.44692
G1 X80.543 Y85.885 E13.47450
G1 X82.385 Y84.043 E13.55251
G1 X81.464 Y84.043 E13.58009
G1 X80.543 Y84.964 E13.61910
G1 X80.543 Y84.043 E13.64669
G1 X88.873 Y88.607 F7200.000
G1 X81.523 Y95.957 F1667.731 E13.95797
G1 X82.444 Y95.957 E13.98554
G1 X88.873 Y89.528 E14.25782
G1 X88.873 Y90.449 E14.28540
G1 X83.365 Y95.957 E14.51867
G1 X84.286 Y95.957 E14.54625
G1 X88.873 Y91.370 E14.74052
G1 X89.150 Y92.014 E14.76152
G1 X85.207 Y95.957 E14.92851
G1 X86.128 Y95.957 E14.95609
G1 X89.570 Y92.515 E15.10187
G1 X89.991 Y93.016 E15.12145
G1 X87.049 Y95.957 E15.24602
G1 X87.970 Y95.957 E15.27360
G1 X90.411 Y93.516 E15.37697
G1 X90.831 Y94.017 E15.39655
G1 X88.891 Y95.957 E15.47871
G1 X89.812 Y95.957 E15.50629
G1 X91.435 Y94.334 E15.57504
G1 X92.218 Y94.472 E15.59884
G1 X90.733 Y95.957 E15.66174
G1 X91.654 Y95.957 E15.68932
G1 X93.001 Y94.610 E15.74638
G1 X93.784 Y94.748 E15.77019
G1 X92.575 Y95.957 E15.82139
G1 X93.496 Y95.957 E15.84897
G1 X94.946 Y94.508 E15.91037
G1 X94.496 Y95.878 E15.95357
G1 X97.125 Y93.249 E16.06489
G1 X97.307 Y93.068 F7200.000
G1 X99.314 Y91.061 F1667.731 E16.14986
G1 F1800.000 E15.14986
G92 E0
G1 Z-0.280 F7200.000
G1 X97.690 Y90.674
G1 F1800.000 E1.00000
G1 X96.897 Y92.851 F830.949 E1.06745
G1 X94.270 Y94.368 E1.15579
G1 X91.282 Y93.841 E1.24414
G1 X89.332 Y91.517 E1.33249
G1 X89.332 Y88.483 E1.42083
G1 X91.282 Y86.159 E1.50918
G1 X94.270 Y85.632 E1.59753
G1 X96.897 Y87.149 E1.68587
G1 X97.935 Y90.000 E1.77422
G1 X97.722 Y90.585 E1.79235
G1 X97.019 Y90.666 F7200.000
G1 X96.381 Y92.418 F830.949 E1.84663
G1 X94.153 Y93.704 E1.92155
G1 X91.619 Y93.257 E1.99647
G1 X89.966 Y91.286 E2.07139
G1 X89.966 Y88.714 E2.14631
G1 X91.619 Y86.743 E2.22123
G1 X94.153 Y86.296 E2.29615
G1 X96.381 Y87.582 E2.37107
G1 X97.261 Y90.000 E2.44599
G1 X97.051 Y90.577 E2.46386
G1 X96.423 Y90.449 F7200.000
G1 X95.865 Y91.984 F830.949 E2.51143
G1 X94.036 Y93.040 E2.57292
G1 X91.956 Y92.673 E2.63441
G1 X90.599 Y91.056 E2.69591
G1 X90.599 Y88.944 E2.75740
G1 X91.956 Y87.327 E2.81889
G1 X94.036 Y86.960 E2.88038
G1 X95.865 Y88.016 E2.94188
G1 X96.587 Y90.000 E3.00337
G1 X96.456 Y90.360 E3.01453
G1 X96.831 Y90.935 F7200.000
G1 X99.655 Y91.701
G1 X99.171 Y92.977 F830.949 E3.05426
G1 X98.294 Y94.247 E3.09922
G1 X97.138 Y95.271 E3.14419
G1 X95.747 Y96.001 E3.18995
G1 X94.280 Y96.417 E3.23434
G1 X80.083 Y96.417 E3.64776
G1 X80.083 Y83.583 E4.02147
G1 X94.280 Y83.583 E4.43489
G1 X95.747 Y83.999 E4.47928
G1 X97.138 Y84.729 E4.52504
G1 X98.294 Y85.753 E4.57001
G1 X99.171 Y87.023 E4.61497
G1 X99.719 Y88.467 E4.65994
G1 X99.905 Y90.000 E4.70490
G1 X99.719 Y91.533 E4.74986
G1 X99.689 Y91.612 E4.75234
G1 X100.247 Y91.926 F7200.000
G1 X99.736 Y93.273 F830.949 E4.79430
G1 X98.772 Y94.670 E4.84374
G1 X97.501 Y95.796 E4.89319
G1 X95.983 Y96.593 E4.94311
G1 X94.368 Y97.050 E4.99198
G1 X79.450 Y97.050 E5.42641
G1 X79.450 Y82.950 E5.83701
G1 X94.368 Y82.950 E6.27144
G1 X95.983 Y83.407 E6.32031
G1 X97.501 Y84.204 E6.37023
G1 X98.772 Y85.330 E6.41967
G1 X99.736 Y86.727 E6.46911
G1 X100.338 Y88.315 E6.51856
G1 X100.543 Y90.000 E6.56800
G1 X100.338 Y91.685 E6.61744
G1 X100.281 Y91.837 E6.62216
G1 X100.839 Y92.150 F7200.000
G1 X100.301 Y93.570 F600.000 E6.66636
G1 X99.249 Y95.093 E6.72028
G1 X97.863 Y96.321 E6.77421
G1 X96.219 Y97.184 E6.82829
G1 X94.456 Y97.683 E6.88164
G1 X78.817 Y97.683 E7.33707
G1 X78.817 Y82.317 E7.78456
G1 X94.456 Y82.317 E8.23999
G1 X96.219 Y82.816 E8.29334
G1 X97.863 Y83.679 E8.34742
G1 X99.249 Y84.907 E8.40135
G1 X100.301 Y86.430 E8.45527
G1 X100.958 Y88.162 E8.50919
G1 X101.181 Y90.000 E8.56311
G1 X100.958 Y91.838 E8.61704
G1 X100.873 Y92.061 E8.62399
