; generated by Slic3r 0.9.9 on 2013-07-11 at 00:14:38

; layer_height = 0.31
; perimeters = 3
; top_solid_layers = 3
; bottom_solid_layers = 3
; fill_density = 0.4
; perimeter_speed = 60
; infill_speed = 120
; travel_speed = 260
; nozzle_diameter = 0.5
; filament_diameter = 2.92
; extrusion_multiplier = 1
; perimeters extrusion width = 0.55mm
; infill extrusion width = 0.55mm
; solid infill extrusion width = 0.55mm
; top infill extrusion width = 0.55mm
; first layer extrusion width = 1.00mm

G21 ; set units to millimeters
M107
M190 S115 ; wait for bed temperature to be reached
M104 S230 ; set temperature
G28 ; home all axes
G1 Z5 F5000 ; lift nozzle
M109 S230 ; wait for temperature to be reached
G90 ; use absolute coordinates
G92 E0
M82 ; use absolute distances for extrusion
G1 F1800.000 E-1.40000
G92 E0
G1 Z-0.900 F15600.000
G1 X43.678 Y34.230
G1 F1800.000 E1.40000
G1 X44.028 Y33.820 F1080.000 E1.43593
G1 X44.608 Y33.260 E1.48967
G1 X45.038 Y32.920 E1.52621
G1 X45.258 Y32.770 E1.54395
G1 X45.488 Y32.620 E1.56226
G1 X45.958 Y32.360 E1.59806
G1 X46.448 Y32.130 E1.63414
G1 X46.958 Y31.940 E1.67041
G1 X47.748 Y31.740 E1.72473
G1 X48.008 Y31.690 E1.74238
G1 X48.548 Y31.630 E1.77859
G1 X48.818 Y31.610 E1.79664
G1 X74.638 Y31.610 E3.51761
G1 X74.908 Y31.630 E3.53566
G1 X75.448 Y31.690 E3.57187
G1 X75.978 Y31.800 E3.60795
G1 X76.498 Y31.940 E3.64385
G1 X77.008 Y32.130 E3.68012
G1 X77.498 Y32.360 E3.71620
G1 X77.968 Y32.620 E3.75200
G1 X78.418 Y32.920 E3.78805
G1 X79.048 Y33.440 E3.84250
G1 X79.608 Y34.020 E3.89624
G1 X79.948 Y34.450 E3.93277
G1 X80.248 Y34.900 E3.96882
G1 X80.628 Y35.610 E4.02250
G1 X80.928 Y36.370 E4.07696
G1 X81.068 Y36.890 E4.11285
G1 X81.178 Y37.420 E4.14893
G1 X81.238 Y37.960 E4.18514
G1 X81.258 Y38.230 E4.20319
G1 X81.258 Y42.620 E4.49580
G1 X81.198 Y43.250 E4.53798
G1 X81.148 Y43.560 E4.55891
G1 X60.928 Y130.100 E10.48241
G1 X60.738 Y130.700 E10.52436
G1 X60.618 Y130.990 E10.54528
G1 X60.338 Y131.550 E10.58701
G1 X58.538 Y134.820 E10.83580
G1 X58.258 Y135.290 E10.87227
G1 X58.098 Y135.520 E10.89094
G1 X57.768 Y135.950 E10.92707
G1 X57.398 Y136.350 E10.96339
G1 X56.998 Y136.720 E10.99971
G1 X56.578 Y137.060 E11.03572
G1 X55.888 Y137.500 E11.09027
G1 X55.398 Y137.750 E11.12693
G1 X54.898 Y137.960 E11.16308
G1 X54.118 Y138.200 E11.21748
G1 X53.588 Y138.310 E11.25355
G1 X53.038 Y138.370 E11.29043
G1 X52.768 Y138.390 E11.30848
G1 X48.818 Y138.390 E11.57176
G1 X48.008 Y138.310 E11.62601
G1 X47.478 Y138.200 E11.66209
G1 X46.958 Y138.060 E11.69798
G1 X46.698 Y137.970 E11.71632
G1 X46.198 Y137.760 E11.75247
G1 X45.488 Y137.380 E11.80614
G1 X45.038 Y137.080 E11.84219
G1 X44.408 Y136.560 E11.89664
G1 X43.848 Y135.980 E11.95037
G1 X43.508 Y135.550 E11.98691
G1 X43.208 Y135.100 E12.02296
G1 X42.828 Y134.390 E12.07664
G1 X42.528 Y133.630 E12.13110
G1 X42.328 Y132.840 E12.18541
G1 X42.278 Y132.580 E12.20306
G1 X42.218 Y132.040 E12.23927
G1 X42.198 Y131.770 E12.25732
G1 X42.198 Y38.230 E18.49204
G1 X42.278 Y37.420 E18.54629
G1 X42.328 Y37.160 E18.56394
G1 X42.528 Y36.370 E18.61825
G1 X42.618 Y36.110 E18.63659
G1 X42.828 Y35.610 E18.67274
G1 X43.078 Y35.130 E18.70881
G1 X43.358 Y34.670 E18.74471
G1 X43.596 Y34.336 E18.77205
G1 F1800.000 E17.37205
G92 E0
G1 X50.430 Y39.839 F15600.000
G1 F1800.000 E1.40000
G1 X73.030 Y39.839 F1080.000 E2.90634
G1 X73.030 Y40.966 E2.98145
G1 X53.015 Y40.966 E4.31553
G1 X53.015 Y54.015 E5.18530
G1 X52.966 Y55.478 E5.28284
G1 X52.966 Y126.893 E10.04291
G1 X50.430 Y126.893 E10.21192
G1 X50.430 Y39.973 E16.00544
G1 X49.538 Y38.946 F15600.000
G1 X73.923 Y38.946 F540.000 E17.63078
G1 X73.923 Y41.859 E17.82489
G1 X53.907 Y41.859 E19.15897
G1 X53.907 Y54.030 E19.97023
G1 X53.859 Y55.493 E20.06777
G1 X53.859 Y127.786 E24.88635
G1 X52.054 Y127.786 E25.00666
G1 X52.054 Y131.054 E25.22445
G1 X49.538 Y131.054 E25.39215
G1 X49.538 Y39.080 E31.52245
G1 X50.311 Y39.393 F15600.000
G1 X50.734 Y129.857
G1 X50.734 Y129.857 F720.000 E31.52248
G1 X51.627 Y125.697 F15600.000
G1 X51.770 Y123.867 F720.000 E31.71375
G1 X51.626 Y123.724 E31.73486
G1 X51.770 Y121.894 E31.92611
G1 X51.626 Y121.750 E31.94721
G1 X51.770 Y119.920 E32.13846
G1 X51.626 Y119.777 E32.15956
G1 X51.770 Y117.947 E32.35081
G1 X51.626 Y117.804 E32.37191
G1 X51.770 Y115.974 E32.56317
G1 X51.626 Y115.830 E32.58427
G1 X51.770 Y114.000 E32.77552
G1 X51.626 Y113.857 E32.79662
G1 X51.770 Y112.027 E32.98787
G1 X51.626 Y111.884 E33.00897
G1 X51.770 Y110.054 E33.20023
G1 X51.626 Y109.910 E33.22133
G1 X51.770 Y108.080 E33.41258
G1 X51.626 Y107.937 E33.43368
G1 X51.770 Y106.107 E33.62493
G1 X51.626 Y105.964 E33.64603
G1 X51.770 Y104.134 E33.83728
G1 X51.626 Y103.990 E33.85838
G1 X51.770 Y102.160 E34.04964
G1 X51.626 Y102.017 E34.07074
G1 X51.770 Y100.187 E34.26199
G1 X51.626 Y100.044 E34.28309
G1 X51.770 Y98.214 E34.47434
G1 X51.626 Y98.070 E34.49544
G1 X51.770 Y96.240 E34.68670
G1 X51.626 Y96.097 E34.70780
G1 X51.770 Y94.267 E34.89905
G1 X51.626 Y94.124 E34.92015
G1 X51.770 Y92.293 E35.11140
G1 X51.626 Y92.150 E35.13250
G1 X51.770 Y90.320 E35.32375
G1 X51.626 Y90.177 E35.34486
G1 X51.770 Y88.347 E35.53611
G1 X51.626 Y88.204 E35.55721
G1 X51.770 Y86.373 E35.74846
G1 X51.626 Y86.230 E35.76956
G1 X51.770 Y84.400 E35.96081
G1 X51.626 Y84.257 E35.98191
G1 X51.770 Y82.427 E36.17317
G1 X51.626 Y82.284 E36.19427
G1 X51.770 Y80.453 E36.38552
G1 X51.626 Y80.310 E36.40662
G1 X51.770 Y78.480 E36.59787
G1 X51.626 Y78.337 E36.61897
G1 X51.770 Y76.507 E36.81023
G1 X51.626 Y76.364 E36.83133
G1 X51.770 Y74.533 E37.02258
G1 X51.626 Y74.390 E37.04368
G1 X51.770 Y72.560 E37.23493
G1 X51.626 Y72.417 E37.25603
G1 X51.770 Y70.587 E37.44728
G1 X51.626 Y70.444 E37.46838
G1 X51.770 Y68.613 E37.65964
G1 X51.626 Y68.470 E37.68074
G1 X51.770 Y66.640 E37.87199
G1 X51.626 Y66.497 E37.89309
G1 X51.770 Y64.667 E38.08434
G1 X51.626 Y64.524 E38.10544
G1 X51.770 Y62.693 E38.29670
G1 X51.626 Y62.550 E38.31780
G1 X51.770 Y60.720 E38.50905
G1 X51.626 Y60.577 E38.53015
G1 X51.770 Y58.747 E38.72140
G1 X51.626 Y58.604 E38.74250
G1 X51.770 Y56.773 E38.93376
G1 X51.626 Y56.630 E38.95486
G1 X51.791 Y54.821 E39.14409
G1 X51.626 Y54.657 E39.16832
G1 X51.818 Y52.876 E39.35498
G1 X51.626 Y52.684 E39.38327
G1 X51.818 Y50.902 E39.56993
G1 X51.626 Y50.710 E39.59821
G1 X51.818 Y48.929 E39.78488
G1 X51.626 Y48.737 E39.81316
G1 X51.818 Y46.956 E39.99983
G1 X51.626 Y46.764 E40.02811
G1 X51.818 Y44.982 E40.21478
G1 X51.626 Y44.790 E40.24306
G1 X51.818 Y43.009 E40.42972
G1 X51.626 Y42.817 E40.45801
G1 X51.818 Y41.035 E40.64469
M106 S255
M104 S220 ; set temperature
M140 S110 ; set bed temperature
G1 F1800.000 E39.24469
G92 E0
G1 Z-0.590 F15600.000
G1 X53.006 Y40.957
G1 F1800.000 E1.40000
G1 X53.006 Y54.015 F2272.136 E1.72598
G1 X52.957 Y55.478 E1.76251
G1 X52.957 Y126.884 E3.54511
G1 X51.152 Y126.884 E3.59017
G1 X51.152 Y130.152 E3.67173
G1 X50.439 Y130.152 E3.68952
G1 X50.439 Y39.848 E5.94385
G1 X73.021 Y39.848 E6.50757
G1 X73.021 Y40.957 E6.53525
G1 X53.086 Y40.957 E7.03289
G1 X53.545 Y41.496 F15600.000
G1 X53.545 Y54.024 F2272.136 E7.34564
G1 X53.496 Y55.487 E7.38217
G1 X53.496 Y127.424 E9.17800
G1 X51.691 Y127.424 E9.22306
G1 X51.691 Y130.691 E9.30463
G1 X49.900 Y130.691 E9.34934
G1 X49.900 Y39.309 E11.63059
G1 X73.560 Y39.309 E12.22124
G1 X73.560 Y41.496 E12.27584
G1 X53.626 Y41.496 E12.77348
G1 X54.084 Y42.035 F15600.000
G1 X54.084 Y54.033 F1136.068 E13.07299
G1 X54.035 Y55.496 E13.10952
G1 X54.035 Y127.963 E14.91859
G1 X52.230 Y127.963 E14.96365
G1 X52.230 Y131.230 E15.04521
G1 X49.361 Y131.230 E15.11685
G1 X49.361 Y38.770 E17.42503
G1 X74.099 Y38.770 E18.04260
G1 X74.099 Y42.035 E18.12413
G1 X54.165 Y42.035 E18.62177
G1 X53.545 Y42.035 F15600.000
G1 X50.830 Y41.004
G1 X51.595 Y40.239 F4544.272 E18.64887
G1 X52.361 Y40.239 E18.66803
G1 X50.830 Y41.769 E18.72224
G1 X50.830 Y42.534 E18.74140
G1 X52.615 Y40.750 E18.80460
G1 X52.615 Y41.515 E18.82377
G1 X50.830 Y43.300 E18.88697
G1 X50.830 Y44.065 E18.90614
G1 X52.615 Y42.280 E18.96934
G1 X52.615 Y43.045 E18.98851
G1 X50.830 Y44.830 E19.05171
G1 X50.830 Y45.595 E19.07087
G1 X52.615 Y43.810 E19.13408
G1 X52.615 Y44.576 E19.15324
G1 X50.830 Y46.360 E19.21645
G1 X50.830 Y47.125 E19.23561
G1 X52.615 Y45.341 E19.29882
G1 X52.615 Y46.106 E19.31798
G1 X50.830 Y47.890 E19.38119
G1 X50.830 Y48.656 E19.40035
G1 X52.615 Y46.871 E19.46356
G1 X52.615 Y47.636 E19.48272
G1 X50.830 Y49.421 E19.54593
G1 X50.830 Y50.186 E19.56509
G1 X52.615 Y48.401 E19.62830
G1 X52.615 Y49.166 E19.64746
G1 X50.830 Y50.951 E19.71067
G1 X50.830 Y51.716 E19.72983
G1 X52.615 Y49.932 E19.79303
G1 X52.615 Y50.697 E19.81220
G1 X50.830 Y52.481 E19.87540
G1 X50.830 Y53.246 E19.89457
G1 X52.615 Y51.462 E19.95777
G1 X52.615 Y52.227 E19.97694
G1 X50.830 Y54.011 E20.04014
G1 X50.830 Y54.777 E20.05930
G1 X52.615 Y52.992 E20.12251
G1 X52.615 Y53.757 E20.14167
G1 X50.830 Y55.542 E20.20488
G1 X50.830 Y56.307 E20.22404
G1 X52.597 Y54.540 E20.28662
G1 X52.571 Y55.332 E20.30646
G1 X50.830 Y57.072 E20.36810
G1 X50.830 Y57.837 E20.38726
G1 X52.566 Y56.101 E20.44874
G1 X52.566 Y56.866 E20.46791
G1 X50.830 Y58.602 E20.52939
G1 X50.830 Y59.367 E20.54855
G1 X52.566 Y57.632 E20.61003
G1 X52.566 Y58.397 E20.62919
G1 X50.830 Y60.132 E20.69067
G1 X50.830 Y60.898 E20.70983
G1 X52.566 Y59.162 E20.77131
G1 X52.566 Y59.927 E20.79048
G1 X50.830 Y61.663 E20.85195
G1 X50.830 Y62.428 E20.87112
G1 X52.566 Y60.692 E20.93260
G1 X52.566 Y61.457 E20.95176
G1 X50.830 Y63.193 E21.01324
G1 X50.830 Y63.958 E21.03240
G1 X52.566 Y62.222 E21.09388
G1 X52.566 Y62.987 E21.11305
G1 X50.830 Y64.723 E21.17452
G1 X50.830 Y65.488 E21.19369
G1 X52.566 Y63.753 E21.25517
G1 X52.566 Y64.518 E21.27433
G1 X50.830 Y66.253 E21.33581
G1 X50.830 Y67.019 E21.35497
G1 X52.566 Y65.283 E21.41645
G1 X52.566 Y66.048 E21.43561
G1 X50.830 Y67.784 E21.49709
G1 X50.830 Y68.549 E21.51626
G1 X52.566 Y66.813 E21.57774
G1 X52.566 Y67.578 E21.59690
G1 X50.830 Y69.314 E21.65838
G1 X50.830 Y70.079 E21.67754
G1 X52.566 Y68.343 E21.73902
G1 X52.566 Y69.109 E21.75818
G1 X50.830 Y70.844 E21.81966
G1 X50.830 Y71.609 E21.83883
G1 X52.566 Y69.874 E21.90031
G1 X52.566 Y70.639 E21.91947
G1 X50.830 Y72.375 E21.98095
G1 X50.830 Y73.140 E22.00011
G1 X52.566 Y71.404 E22.06159
G1 X52.566 Y72.169 E22.08075
G1 X50.830 Y73.905 E22.14223
G1 X50.830 Y74.670 E22.16140
G1 X52.566 Y72.934 E22.22288
G1 X52.566 Y73.699 E22.24204
G1 X50.830 Y75.435 E22.30352
G1 X50.830 Y76.200 E22.32268
G1 X52.566 Y74.464 E22.38416
G1 X52.566 Y75.230 E22.40332
G1 X50.830 Y76.965 E22.46480
G1 X50.830 Y77.730 E22.48397
G1 X52.566 Y75.995 E22.54545
G1 X52.566 Y76.760 E22.56461
G1 X50.830 Y78.496 E22.62609
G1 X50.830 Y79.261 E22.64525
G1 X52.566 Y77.525 E22.70673
G1 X52.566 Y78.290 E22.72589
G1 X50.830 Y80.026 E22.78737
G1 X50.830 Y80.791 E22.80654
G1 X52.566 Y79.055 E22.86802
G1 X52.566 Y79.820 E22.88718
G1 X50.830 Y81.556 E22.94866
G1 X50.830 Y82.321 E22.96782
G1 X52.566 Y80.585 E23.02930
G1 X52.566 Y81.351 E23.04846
G1 X50.830 Y83.086 E23.10994
G1 X50.830 Y83.851 E23.12911
G1 X52.566 Y82.116 E23.19059
G1 X52.566 Y82.881 E23.20975
G1 X50.830 Y84.617 E23.27123
G1 X50.830 Y85.382 E23.29039
G1 X52.566 Y83.646 E23.35187
G1 X52.566 Y84.411 E23.37103
G1 X50.830 Y86.147 E23.43251
G1 X50.830 Y86.912 E23.45168
G1 X52.566 Y85.176 E23.51315
G1 X52.566 Y85.941 E23.53232
G1 X50.830 Y87.677 E23.59380
G1 X50.830 Y88.442 E23.61296
G1 X52.566 Y86.707 E23.67444
G1 X52.566 Y87.472 E23.69360
G1 X50.830 Y89.207 E23.75508
G1 X50.830 Y89.973 E23.77424
G1 X52.566 Y88.237 E23.83572
G1 X52.566 Y89.002 E23.85489
G1 X50.830 Y90.738 E23.91637
G1 X50.830 Y91.503 E23.93553
G1 X52.566 Y89.767 E23.99701
G1 X52.566 Y90.532 E24.01617
G1 X50.830 Y92.268 E24.07765
G1 X50.830 Y93.033 E24.09681
G1 X52.566 Y91.297 E24.15829
G1 X52.566 Y92.062 E24.17746
G1 X50.830 Y93.798 E24.23894
G1 X50.830 Y94.563 E24.25810
G1 X52.566 Y92.828 E24.31958
G1 X52.566 Y93.593 E24.33874
G1 X50.830 Y95.328 E24.40022
G1 X50.830 Y96.094 E24.41938
G1 X52.566 Y94.358 E24.48086
G1 X52.566 Y95.123 E24.50003
G1 X50.830 Y96.859 E24.56151
G1 X50.830 Y97.624 E24.58067
G1 X52.566 Y95.888 E24.64215
G1 X52.566 Y96.653 E24.66131
G1 X50.830 Y98.389 E24.72279
G1 X50.830 Y99.154 E24.74195
G1 X52.566 Y97.418 E24.80343
G1 X52.566 Y98.183 E24.82260
G1 X50.830 Y99.919 E24.88408
G1 X50.830 Y100.684 E24.90324
G1 X52.566 Y98.949 E24.96472
G1 X52.566 Y99.714 E24.98388
G1 X50.830 Y101.449 E25.04536
G1 X50.830 Y102.215 E25.06452
G1 X52.566 Y100.479 E25.12600
G1 X52.566 Y101.244 E25.14517
G1 X50.830 Y102.980 E25.20665
G1 X50.830 Y103.745 E25.22581
G1 X52.566 Y102.009 E25.28729
G1 X52.566 Y102.774 E25.30645
G1 X50.830 Y104.510 E25.36793
G1 X50.830 Y105.275 E25.38709
G1 X52.566 Y103.539 E25.44857
G1 X52.566 Y104.305 E25.46774
G1 X50.830 Y106.040 E25.52922
G1 X50.830 Y106.805 E25.54838
G1 X52.566 Y105.070 E25.60986
G1 X52.566 Y105.835 E25.62902
G1 X50.830 Y107.571 E25.69050
G1 X50.830 Y108.336 E25.70966
G1 X52.566 Y106.600 E25.77114
G1 X52.566 Y107.365 E25.79031
G1 X50.830 Y109.101 E25.85178
G1 X50.830 Y109.866 E25.87095
G1 X52.566 Y108.130 E25.93243
G1 X52.566 Y108.895 E25.95159
G1 X50.830 Y110.631 E26.01307
G1 X50.830 Y111.396 E26.03223
G1 X52.566 Y109.660 E26.09371
G1 X52.566 Y110.426 E26.11287
G1 X50.830 Y112.161 E26.17435
G1 X50.830 Y112.926 E26.19352
G1 X52.566 Y111.191 E26.25500
G1 X52.566 Y111.956 E26.27416
G1 X50.830 Y113.692 E26.33564
G1 X50.830 Y114.457 E26.35480
G1 X52.566 Y112.721 E26.41628
G1 X52.566 Y113.486 E26.43544
G1 X50.830 Y115.222 E26.49692
G1 X50.830 Y115.987 E26.51609
G1 X52.566 Y114.251 E26.57757
G1 X52.566 Y115.016 E26.59673
G1 X50.830 Y116.752 E26.65821
G1 X50.830 Y117.517 E26.67737
G1 X52.566 Y115.781 E26.73885
G1 X52.566 Y116.547 E26.75801
G1 X50.830 Y118.282 E26.81949
G1 X50.830 Y119.047 E26.83866
G1 X52.566 Y117.312 E26.90014
G1 X52.566 Y118.077 E26.91930
G1 X50.830 Y119.813 E26.98078
G1 X50.830 Y120.578 E26.99994
G1 X52.566 Y118.842 E27.06142
G1 X52.566 Y119.607 E27.08058
G1 X50.830 Y121.343 E27.14206
G1 X50.830 Y122.108 E27.16123
G1 X52.566 Y120.372 E27.22271
G1 X52.566 Y121.137 E27.24187
G1 X50.830 Y122.873 E27.30335
G1 X50.830 Y123.638 E27.32251
G1 X52.566 Y121.902 E27.38399
G1 X52.566 Y122.668 E27.40315
G1 X50.830 Y124.403 E27.46463
G1 X50.830 Y125.169 E27.48380
G1 X52.566 Y123.433 E27.54528
G1 X52.566 Y124.198 E27.56444
G1 X50.830 Y125.934 E27.62592
G1 X51.036 Y126.493 E27.64085
G1 X52.566 Y124.963 E27.69506
G1 X52.566 Y125.728 E27.71422
G1 X51.801 Y126.493 E27.74133
G1 X52.566 Y126.493 E27.76050
G1 F1800.000 E26.36050
G92 E0
G1 X72.476 Y40.412 F15600.000
G1 F1800.000 E1.40000
G1 X70.937 Y40.393 F1514.757 E1.43928
G1 X70.917 Y40.412 E1.43998
G1 X70.158 Y40.393 E1.45937
G1 X70.138 Y40.412 E1.46008
G1 X69.378 Y40.393 E1.47947
G1 X69.359 Y40.412 E1.48018
G1 X68.599 Y40.393 E1.49957
G1 X68.579 Y40.412 E1.50027
G1 X67.819 Y40.393 E1.51967
G1 X67.800 Y40.412 E1.52037
G1 X67.040 Y40.393 E1.53976
G1 X67.020 Y40.412 E1.54047
G1 X66.261 Y40.393 E1.55986
G1 X66.241 Y40.412 E1.56057
G1 X65.481 Y40.393 E1.57996
G1 X65.462 Y40.412 E1.58066
G1 X64.702 Y40.393 E1.60005
G1 X64.682 Y40.412 E1.60076
G1 X63.922 Y40.393 E1.62015
G1 X63.903 Y40.412 E1.62086
G1 X63.143 Y40.393 E1.64025
G1 X63.123 Y40.412 E1.64096
G1 X62.364 Y40.393 E1.66035
G1 X62.344 Y40.412 E1.66105
G1 X61.584 Y40.393 E1.68044
G1 X61.565 Y40.412 E1.68115
G1 X60.805 Y40.393 E1.70054
G1 X60.785 Y40.412 E1.70125
G1 X60.026 Y40.393 E1.72064
G1 X60.006 Y40.412 E1.72134
G1 X59.246 Y40.393 E1.74073
G1 X59.227 Y40.412 E1.74144
G1 X58.467 Y40.393 E1.76083
G1 X58.447 Y40.412 E1.76154
G1 X57.687 Y40.393 E1.78093
G1 X57.668 Y40.412 E1.78164
G1 X56.908 Y40.393 E1.80103
G1 X56.888 Y40.412 E1.80173
G1 X56.129 Y40.393 E1.82112
G1 X56.109 Y40.412 E1.82183
G1 X55.349 Y40.393 E1.84122
G1 X55.330 Y40.412 E1.84193
G1 X54.570 Y40.393 E1.86132
G1 X54.550 Y40.412 E1.86202
G1 X53.790 Y40.393 E1.88142
G1 X53.771 Y40.412 E1.88212
G1 X53.011 Y40.393 E1.90152
G1 F1800.000 E0.50152
G92 E0
G1 Z-0.280 F15600.000
G1 X53.006 Y40.957
G1 F1800.000 E1.40000
G1 X53.006 Y54.015 F2271.956 E1.72598
G1 X52.957 Y55.478 E1.76251
G1 X52.957 Y126.884 E3.54511
G1 X51.152 Y126.884 E3.59017
G1 X51.152 Y130.152 E3.67173
G1 X50.439 Y130.152 E3.68952
