; generated by Slic3r 0.9.9 on 2013-07-19 at 18:18:46

; layer_height = 0.25
; perimeters = 2
; top_solid_layers = 3
; bottom_solid_layers = 3
; fill_density = 0.4
; perimeter_speed = 30
; infill_speed = 60
; travel_speed = 130
; nozzle_diameter = 0.5
; filament_diameter = 2.96
; extrusion_multiplier = 1
; perimeters extrusion width = 0.50mm
; infill extrusion width = 0.50mm
; solid infill extrusion width = 0.50mm
; top infill extrusion width = 0.50mm
; first layer extrusion width = 0.60mm

G21 ; set units to millimeters
M107
M190 S115 ; wait for bed temperature to be reached
M104 S240 ; set temperature
G28 ; home all axes
G1 Z5 F5000 ; lift nozzle
M109 S240 ; wait for temperature to be reached
G90 ; use absolute coordinates
G92 E0
M82 ; use absolute distances for extrusion
G1 F1800.000 E-1.40000
G92 E0
G1 Z-2.900 F7800.000
G1 X43.380 Y68.450
G1 F1800.000 E1.40000
G1 X44.140 Y68.030 F540.000 E1.42920
G1 X44.670 Y67.800 E1.44863
G1 X45.220 Y67.610 E1.46820
G1 X45.780 Y67.460 E1.48770
G1 X46.350 Y67.350 E1.50722
G1 X46.630 Y67.310 E1.51673
G1 X47.500 Y67.260 E1.54604
G1 X112.500 Y67.260 E3.73195
G1 X113.370 Y67.310 E3.76126
G1 X113.940 Y67.400 E3.78066
G1 X114.780 Y67.610 E3.80978
G1 X115.330 Y67.800 E3.82935
G1 X115.860 Y68.030 E3.84878
G1 X116.110 Y68.160 E3.85826
G1 X116.370 Y68.300 E3.86819
G1 X116.860 Y68.610 E3.88769
G1 X117.320 Y68.950 E3.90692
G1 X117.760 Y69.330 E3.92647
G1 X118.170 Y69.740 E3.94597
G1 X118.550 Y70.180 E3.96552
G1 X119.050 Y70.880 E3.99445
G1 X119.340 Y71.390 E4.01418
G1 X119.590 Y71.910 E4.03359
G1 X119.700 Y72.170 E4.04308
G1 X119.890 Y72.720 E4.06265
G1 X120.040 Y73.280 E4.08215
G1 X120.150 Y73.850 E4.10167
G1 X120.190 Y74.130 E4.11118
G1 X120.240 Y75.000 E4.14049
G1 X120.240 Y95.000 E4.81308
G1 X120.190 Y95.870 E4.84238
G1 X120.100 Y96.440 E4.86179
G1 X119.890 Y97.280 E4.89091
G1 X119.700 Y97.830 E4.91048
G1 X119.470 Y98.360 E4.92990
G1 X119.200 Y98.870 E4.94931
G1 X118.890 Y99.360 E4.96881
G1 X118.550 Y99.820 E4.98805
G1 X118.170 Y100.260 E5.00760
G1 X117.760 Y100.670 E5.02710
G1 X117.320 Y101.050 E5.04665
G1 X116.860 Y101.390 E5.06589
G1 X116.370 Y101.700 E5.08538
G1 X115.860 Y101.970 E5.10479
G1 X115.330 Y102.200 E5.12422
G1 X114.780 Y102.390 E5.14379
G1 X114.220 Y102.540 E5.16329
G1 X113.650 Y102.650 E5.18281
G1 X113.370 Y102.690 E5.19232
G1 X112.790 Y102.730 E5.21187
G1 X47.500 Y102.740 E7.40754
G1 X46.630 Y102.690 E7.43684
G1 X46.060 Y102.600 E7.45625
G1 X45.220 Y102.390 E7.48537
G1 X44.670 Y102.200 E7.50494
G1 X44.140 Y101.970 E7.52437
G1 X43.630 Y101.700 E7.54377
G1 X43.140 Y101.390 E7.56327
G1 X42.680 Y101.050 E7.58251
G1 X42.240 Y100.670 E7.60206
G1 X41.830 Y100.260 E7.62156
G1 X41.450 Y99.820 E7.64111
G1 X41.110 Y99.360 E7.66035
G1 X40.800 Y98.870 E7.67985
G1 X40.530 Y98.360 E7.69925
G1 X40.300 Y97.830 E7.71868
G1 X40.110 Y97.280 E7.73825
G1 X39.960 Y96.720 E7.75775
G1 X39.850 Y96.150 E7.77727
G1 X39.810 Y95.870 E7.78678
G1 X39.770 Y95.290 E7.80633
G1 X39.760 Y75.000 E8.48868
G1 X39.810 Y74.130 E8.51798
G1 X39.960 Y73.280 E8.54701
G1 X40.200 Y72.450 E8.57606
G1 X40.300 Y72.170 E8.58606
G1 X40.530 Y71.640 E8.60549
G1 X40.950 Y70.880 E8.63469
G1 X41.450 Y70.180 E8.66362
G1 X42.030 Y69.530 E8.69292
G1 X42.680 Y68.950 E8.72222
G1 X43.308 Y68.498 E8.74823
G1 X43.610 Y68.990 F7800.000
G1 X44.080 Y68.710 F540.000 E8.76663
G1 X44.570 Y68.470 E8.78498
G1 X45.080 Y68.260 E8.80352
G1 X45.600 Y68.100 E8.82182
G1 X46.140 Y67.970 E8.84050
G1 X46.680 Y67.890 E8.85886
G1 X46.950 Y67.860 E8.86799
G1 X47.500 Y67.840 E8.88650
G1 X112.500 Y67.840 E11.07242
G1 X113.050 Y67.860 E11.09092
G1 X113.860 Y67.970 E11.11841
G1 X114.400 Y68.100 E11.13709
G1 X114.920 Y68.260 E11.15539
G1 X115.430 Y68.470 E11.17394
G1 X115.920 Y68.710 E11.19229
G1 X116.390 Y68.990 E11.21068
G1 X116.620 Y69.150 E11.22011
G1 X117.050 Y69.480 E11.23834
G1 X117.460 Y69.840 E11.25668
G1 X118.020 Y70.450 E11.28453
G1 X118.510 Y71.110 E11.31218
G1 X118.790 Y71.580 E11.33057
G1 X119.030 Y72.070 E11.34892
G1 X119.240 Y72.580 E11.36747
G1 X119.400 Y73.100 E11.38577
G1 X119.530 Y73.640 E11.40445
G1 X119.640 Y74.450 E11.43194
G1 X119.660 Y75.000 E11.45044
G1 X119.660 Y95.000 E12.12303
G1 X119.640 Y95.550 E12.14154
G1 X119.530 Y96.360 E12.16903
G1 X119.400 Y96.900 E12.18771
G1 X119.240 Y97.420 E12.20601
G1 X119.030 Y97.930 E12.22456
G1 X118.790 Y98.420 E12.24290
G1 X118.510 Y98.890 E12.26130
G1 X118.190 Y99.340 E12.27987
G1 X117.660 Y99.960 E12.30730
G1 X117.260 Y100.340 E12.32586
G1 X116.840 Y100.690 E12.34424
G1 X116.390 Y101.010 E12.36281
G1 X115.920 Y101.290 E12.38121
G1 X115.430 Y101.530 E12.39956
G1 X114.920 Y101.740 E12.41811
G1 X114.400 Y101.900 E12.43640
G1 X113.860 Y102.030 E12.45508
G1 X113.050 Y102.140 E12.48257
G1 X112.500 Y102.160 E12.50108
G1 X47.500 Y102.160 E14.68699
G1 X46.950 Y102.140 E14.70550
G1 X46.140 Y102.030 E14.73299
G1 X45.600 Y101.900 E14.75167
G1 X45.080 Y101.740 E14.76997
G1 X44.570 Y101.530 E14.78852
G1 X44.080 Y101.290 E14.80687
G1 X43.610 Y101.010 E14.82526
G1 X43.160 Y100.690 E14.84383
G1 X42.540 Y100.160 E14.87126
G1 X42.160 Y99.760 E14.88982
G1 X41.810 Y99.340 E14.90820
G1 X41.490 Y98.890 E14.92677
G1 X41.210 Y98.420 E14.94517
G1 X40.970 Y97.930 E14.96352
G1 X40.760 Y97.420 E14.98207
G1 X40.600 Y96.900 E15.00036
G1 X40.470 Y96.360 E15.01904
G1 X40.360 Y95.550 E15.04653
G1 X40.340 Y95.000 E15.06504
G1 X40.340 Y75.000 E15.73763
G1 X40.360 Y74.450 E15.75614
G1 X40.390 Y74.180 E15.76527
G1 X40.470 Y73.640 E15.78363
G1 X40.530 Y73.370 E15.79293
G1 X40.760 Y72.580 E15.82060
G1 X41.090 Y71.820 E15.84847
G1 X41.210 Y71.580 E15.85749
G1 X41.490 Y71.110 E15.87589
G1 X41.810 Y70.660 E15.89446
G1 X42.340 Y70.040 E15.92189
G1 X42.950 Y69.480 E15.94974
G1 X43.539 Y69.040 E15.97446
G1 X43.760 Y69.590 F7800.000
G1 X44.440 Y69.170 F540.000 E16.00134
G1 X45.170 Y68.850 E16.02815
G1 X45.670 Y68.680 E16.04591
G1 X46.180 Y68.550 E16.06361
G1 X46.710 Y68.470 E16.08163
G1 X46.970 Y68.440 E16.09043
G1 X47.500 Y68.420 E16.10827
G1 X112.500 Y68.420 E18.29418
G1 X113.030 Y68.440 E18.31202
G1 X113.820 Y68.550 E18.33884
G1 X114.330 Y68.680 E18.35654
G1 X114.830 Y68.850 E18.37430
G1 X115.560 Y69.170 E18.40111
G1 X116.020 Y69.440 E18.41905
G1 X116.450 Y69.740 E18.43668
G1 X116.660 Y69.900 E18.44556
G1 X117.060 Y70.260 E18.46365
G1 X117.600 Y70.840 E18.49030
G1 X117.910 Y71.260 E18.50786
G1 X118.200 Y71.710 E18.52586
G1 X118.330 Y71.940 E18.53475
G1 X118.550 Y72.420 E18.55251
G1 X118.740 Y72.920 E18.57049
G1 X118.890 Y73.430 E18.58837
G1 X118.950 Y73.680 E18.59702
G1 X119.030 Y74.210 E18.61504
G1 X119.060 Y74.470 E18.62384
G1 X119.080 Y75.000 E18.64168
G1 X119.080 Y95.000 E19.31427
G1 X119.060 Y95.530 E19.33211
G1 X118.950 Y96.320 E19.35893
G1 X118.820 Y96.830 E19.37663
G1 X118.650 Y97.330 E19.39439
G1 X118.330 Y98.060 E19.42119
G1 X118.060 Y98.520 E19.43913
G1 X117.760 Y98.950 E19.45676
G1 X117.600 Y99.160 E19.46564
G1 X117.240 Y99.560 E19.48374
G1 X116.660 Y100.100 E19.51039
G1 X116.450 Y100.260 E19.51927
G1 X116.020 Y100.560 E19.53690
G1 X115.560 Y100.830 E19.55484
G1 X114.830 Y101.150 E19.58164
G1 X114.330 Y101.320 E19.59940
G1 X113.820 Y101.450 E19.61710
G1 X113.030 Y101.560 E19.64392
G1 X112.500 Y101.580 E19.66176
G1 X47.500 Y101.580 E21.84768
G1 X46.970 Y101.560 E21.86551
G1 X46.180 Y101.450 E21.89234
G1 X45.670 Y101.320 E21.91004
G1 X45.170 Y101.150 E21.92780
G1 X44.440 Y100.830 E21.95460
G1 X43.980 Y100.560 E21.97254
G1 X43.550 Y100.260 E21.99017
G1 X43.340 Y100.100 E21.99905
G1 X42.940 Y99.740 E22.01715
G1 X42.400 Y99.160 E22.04380
G1 X42.240 Y98.950 E22.05267
G1 X41.940 Y98.520 E22.07031
G1 X41.670 Y98.060 E22.08824
G1 X41.350 Y97.330 E22.11505
G1 X41.180 Y96.830 E22.13281
G1 X41.050 Y96.320 E22.15051
G1 X40.940 Y95.530 E22.17733
G1 X40.920 Y95.000 E22.19517
G1 X40.920 Y75.000 E22.86776
G1 X40.940 Y74.470 E22.88559
G1 X41.050 Y73.680 E22.91242
G1 X41.180 Y73.170 E22.93012
G1 X41.450 Y72.420 E22.95692
G1 X41.670 Y71.940 E22.97468
G1 X41.800 Y71.710 E22.98356
G1 X42.240 Y71.050 E23.01024
G1 X42.400 Y70.840 E23.01912
G1 X42.760 Y70.440 E23.03722
G1 X43.340 Y69.900 E23.06387
G1 X43.689 Y69.640 E23.07850
G1 F1800.000 E21.67850
G92 E0
G1 X48.368 Y80.868 F7800.000
G1 F1800.000 E1.40000
G1 X49.132 Y80.868 F540.000 E1.42571
G1 X49.132 Y83.734 E1.52208
G1 X49.243 Y84.156 E1.53677
G1 X49.293 Y84.445 E1.54662
G1 X49.332 Y85.000 E1.56534
G1 X49.293 Y85.555 E1.58405
G1 X49.132 Y86.300 E1.60966
G1 X49.132 Y91.668 E1.79019
G1 X60.868 Y91.668 E2.18485
G1 X60.868 Y86.266 E2.36651
G1 X60.757 Y85.844 E2.38119
G1 X60.707 Y85.555 E2.39104
G1 X60.668 Y85.000 E2.40976
G1 X60.707 Y84.445 E2.42847
G1 X60.868 Y83.700 E2.45408
G1 X60.868 Y80.868 E2.54934
G1 X61.632 Y80.868 E2.57505
G1 X61.632 Y83.807 E2.67390
G1 X61.684 Y83.916 E2.67796
G1 X61.793 Y84.445 E2.69611
G1 X61.832 Y85.000 E2.71483
G1 X61.793 Y85.555 E2.73354
G1 X61.743 Y85.844 E2.74339
G1 X61.632 Y86.266 E2.75806
G1 X61.632 Y91.668 E2.93973
G1 X73.368 Y91.668 E3.33439
G1 X73.368 Y86.266 E3.51604
G1 X73.257 Y85.844 E3.53072
G1 X73.207 Y85.555 E3.54058
G1 X73.168 Y85.000 E3.55929
G1 X73.207 Y84.445 E3.57800
G1 X73.368 Y83.700 E3.60362
G1 X73.368 Y80.868 E3.69887
G1 X74.132 Y80.868 E3.72458
G1 X74.132 Y83.734 E3.82096
G1 X74.243 Y84.156 E3.83565
G1 X74.293 Y84.445 E3.84550
G1 X74.332 Y85.000 E3.86421
G1 X74.293 Y85.555 E3.88293
G1 X74.243 Y85.844 E3.89278
G1 X74.132 Y86.266 E3.90745
G1 X74.132 Y91.668 E4.08912
G1 X85.868 Y91.668 E4.48377
G1 X85.868 Y86.266 E4.66543
G1 X85.757 Y85.844 E4.68011
G1 X85.707 Y85.555 E4.68997
G1 X85.668 Y85.000 E4.70868
G1 X85.707 Y84.445 E4.72739
G1 X85.868 Y83.700 E4.75300
G1 X85.868 Y80.868 E4.84826
G1 X86.632 Y80.868 E4.87397
G1 X86.632 Y83.824 E4.97338
G1 X86.688 Y83.931 E4.97743
G1 X86.793 Y84.445 E4.99508
G1 X86.832 Y85.000 E5.01379
G1 X86.793 Y85.555 E5.03250
G1 X86.743 Y85.844 E5.04235
G1 X86.632 Y86.266 E5.05703
G1 X86.632 Y91.668 E5.23870
G1 X98.368 Y91.668 E5.63335
G1 X98.368 Y86.176 E5.81804
G1 X98.312 Y86.069 E5.82209
G1 X98.207 Y85.555 E5.83973
G1 X98.168 Y85.000 E5.85845
G1 X98.207 Y84.445 E5.87716
G1 X98.257 Y84.156 E5.88701
G1 X98.368 Y83.734 E5.90168
G1 X98.368 Y80.868 E5.99808
G1 X99.132 Y80.868 E6.02379
G1 X99.132 Y83.824 E6.12320
G1 X99.188 Y83.931 E6.12725
G1 X99.293 Y84.445 E6.14490
G1 X99.332 Y85.000 E6.16361
G1 X99.293 Y85.555 E6.18232
G1 X99.243 Y85.844 E6.19217
G1 X99.132 Y86.266 E6.20685
G1 X99.132 Y91.668 E6.38851
G1 X110.868 Y91.668 E6.78317
G1 X110.868 Y86.266 E6.96483
G1 X110.757 Y85.844 E6.97951
G1 X110.707 Y85.555 E6.98936
G1 X110.668 Y85.000 E7.00808
G1 X110.707 Y84.445 E7.02679
G1 X110.868 Y83.700 E7.05240
G1 X110.868 Y80.868 E7.14766
G1 X111.632 Y80.868 E7.17337
G1 X111.632 Y94.132 E7.61944
G1 X48.368 Y94.132 E9.74699
G1 X48.368 Y80.955 E10.19014
G1 X47.789 Y80.289 F7800.000
G1 X49.711 Y80.289 F378.000 E10.25476
G1 X49.711 Y83.646 E10.36766
G1 X49.809 Y84.039 E10.38126
G1 X49.866 Y84.365 E10.39241
G1 X49.910 Y85.000 E10.41381
G1 X49.866 Y85.635 E10.43520
G1 X49.711 Y86.369 E10.46043
G1 X49.711 Y91.089 E10.61918
G1 X60.289 Y91.089 E10.97493
G1 X60.289 Y86.354 E11.13419
G1 X60.191 Y85.961 E11.14779
G1 X60.134 Y85.635 E11.15894
G1 X60.090 Y85.000 E11.18034
G1 X60.134 Y84.365 E11.20174
G1 X60.289 Y83.631 E11.22696
G1 X60.289 Y80.289 E11.33936
G1 X62.211 Y80.289 E11.40398
G1 X62.211 Y83.676 E11.51787
G1 X62.309 Y84.039 E11.53051
G1 X62.366 Y84.365 E11.54166
G1 X62.410 Y85.000 E11.56306
G1 X62.366 Y85.635 E11.58446
G1 X62.309 Y85.961 E11.59560
G1 X62.211 Y86.353 E11.60919
G1 X62.211 Y91.089 E11.76846
G1 X72.789 Y91.089 E12.12421
G1 X72.789 Y86.354 E12.28347
G1 X72.691 Y85.961 E12.29706
G1 X72.634 Y85.635 E12.30821
G1 X72.590 Y85.000 E12.32961
G1 X72.634 Y84.365 E12.35101
G1 X72.789 Y83.631 E12.37624
G1 X72.789 Y80.289 E12.48863
G1 X74.711 Y80.289 E12.55325
G1 X74.711 Y83.647 E12.66616
G1 X74.809 Y84.039 E12.67975
G1 X74.866 Y84.365 E12.69090
G1 X74.910 Y85.000 E12.71230
G1 X74.866 Y85.635 E12.73370
G1 X74.809 Y85.961 E12.74485
G1 X74.711 Y86.353 E12.75844
G1 X74.711 Y91.089 E12.91770
G1 X85.289 Y91.089 E13.27345
G1 X85.289 Y86.354 E13.43271
G1 X85.191 Y85.961 E13.44631
G1 X85.134 Y85.635 E13.45746
G1 X85.090 Y85.000 E13.47886
G1 X85.134 Y84.365 E13.50026
G1 X85.289 Y83.631 E13.52548
G1 X85.289 Y80.289 E13.63788
G1 X87.211 Y80.289 E13.70250
G1 X87.211 Y83.682 E13.81660
G1 X87.309 Y84.039 E13.82903
G1 X87.366 Y84.365 E13.84018
G1 X87.410 Y85.000 E13.86158
G1 X87.366 Y85.635 E13.88298
G1 X87.309 Y85.961 E13.89413
G1 X87.211 Y86.353 E13.90772
G1 X87.211 Y91.089 E14.06699
G1 X97.789 Y91.089 E14.42273
G1 X97.789 Y86.318 E14.58320
G1 X97.691 Y85.961 E14.59563
G1 X97.634 Y85.635 E14.60677
G1 X97.590 Y85.000 E14.62818
G1 X97.634 Y84.365 E14.64957
G1 X97.691 Y84.039 E14.66072
G1 X97.789 Y83.647 E14.67431
G1 X97.789 Y80.289 E14.78722
G1 X99.711 Y80.289 E14.85185
G1 X99.711 Y83.682 E14.96595
G1 X99.809 Y84.039 E14.97838
G1 X99.866 Y84.365 E14.98953
G1 X99.910 Y85.000 E15.01093
G1 X99.866 Y85.635 E15.03233
G1 X99.809 Y85.961 E15.04348
G1 X99.711 Y86.353 E15.05707
G1 X99.711 Y91.089 E15.21634
G1 X110.289 Y91.089 E15.57208
G1 X110.289 Y86.354 E15.73134
G1 X110.191 Y85.961 E15.74494
G1 X110.134 Y85.635 E15.75609
G1 X110.090 Y85.000 E15.77749
G1 X110.134 Y84.365 E15.79889
G1 X110.289 Y83.631 E15.82411
G1 X110.289 Y80.289 E15.93651
G1 X112.211 Y80.289 E16.00113
G1 X112.211 Y94.711 E16.48611
G1 X47.789 Y94.711 E18.65257
G1 X47.789 Y80.376 E19.13464
G1 X48.290 Y80.579 F7800.000
G1 F1800.000 E17.73464
G92 E0
G1 X48.368 Y78.332 F7800.000
G1 F1800.000 E1.40000
G1 X48.368 Y75.868 F540.000 E1.48288
G1 X111.632 Y75.868 E3.61042
G1 X111.632 Y78.332 E3.69330
G1 X108.332 Y78.332 E3.80428
G1 X108.332 Y83.493 E3.97783
G1 X108.187 Y84.206 E4.00230
G1 X108.145 Y84.604 E4.01576
G1 X108.132 Y85.000 E4.02908
G1 X108.145 Y85.396 E4.04241
G1 X108.187 Y85.794 E4.05587
G1 X108.332 Y86.507 E4.08034
G1 X108.332 Y89.132 E4.16862
G1 X101.668 Y89.132 E4.39274
G1 X101.668 Y86.507 E4.48102
G1 X101.813 Y85.794 E4.50549
G1 X101.855 Y85.396 E4.51895
G1 X101.868 Y85.000 E4.53227
G1 X101.855 Y84.604 E4.54560
G1 X101.813 Y84.206 E4.55906
G1 X101.668 Y83.493 E4.58353
G1 X101.668 Y78.332 E4.75708
G1 X95.832 Y78.332 E4.95333
G1 X95.832 Y83.493 E5.12689
G1 X95.687 Y84.206 E5.15135
G1 X95.645 Y84.604 E5.16481
G1 X95.632 Y85.000 E5.17814
G1 X95.645 Y85.396 E5.19146
G1 X95.687 Y85.794 E5.20493
G1 X95.832 Y86.507 E5.22939
G1 X95.832 Y89.132 E5.31767
G1 X89.168 Y89.132 E5.54179
G1 X89.168 Y86.507 E5.63008
G1 X89.313 Y85.794 E5.65454
G1 X89.355 Y85.396 E5.66800
G1 X89.368 Y85.000 E5.68133
G1 X89.355 Y84.604 E5.69465
G1 X89.313 Y84.206 E5.70812
G1 X89.168 Y83.493 E5.73258
G1 X89.168 Y78.332 E5.90614
G1 X83.332 Y78.332 E6.10238
G1 X83.332 Y83.493 E6.27594
G1 X83.187 Y84.206 E6.30041
G1 X83.145 Y84.604 E6.31387
G1 X83.132 Y85.000 E6.32719
G1 X83.145 Y85.396 E6.34052
G1 X83.187 Y85.794 E6.35398
G1 X83.332 Y86.507 E6.37845
G1 X83.332 Y89.132 E6.46673
G1 X76.668 Y89.132 E6.69085
G1 X76.668 Y86.507 E6.77913
G1 X76.813 Y85.794 E6.80360
G1 X76.855 Y85.396 E6.81706
G1 X76.868 Y85.000 E6.83038
G1 X76.855 Y84.604 E6.84371
G1 X76.813 Y84.206 E6.85717
G1 X76.668 Y83.493 E6.88164
G1 X76.668 Y78.332 E7.05519
G1 X70.832 Y78.332 E7.25144
G1 X70.832 Y83.493 E7.42499
G1 X70.687 Y84.206 E7.44946
G1 X70.645 Y84.604 E7.46292
G1 X70.632 Y85.000 E7.47625
G1 X70.645 Y85.396 E7.48957
G1 X70.687 Y85.794 E7.50304
G1 X70.832 Y86.507 E7.52750
G1 X70.832 Y89.132 E7.61578
G1 X64.168 Y89.132 E7.83990
G1 X64.168 Y86.507 E7.92819
G1 X64.313 Y85.794 E7.95265
G1 X64.355 Y85.396 E7.96611
G1 X64.368 Y85.000 E7.97944
G1 X64.355 Y84.604 E7.99276
G1 X64.313 Y84.206 E8.00623
G1 X64.168 Y83.493 E8.03069
G1 X64.168 Y78.332 E8.20425
G1 X58.332 Y78.332 E8.40049
G1 X58.332 Y83.493 E8.57405
G1 X58.187 Y84.206 E8.59851
G1 X58.145 Y84.604 E8.61198
G1 X58.132 Y85.000 E8.62530
G1 X58.145 Y85.396 E8.63863
G1 X58.187 Y85.794 E8.65209
G1 X58.332 Y86.507 E8.67655
G1 X58.332 Y89.132 E8.76484
G1 X51.668 Y89.132 E8.98896
G1 X51.668 Y86.507 E9.07724
G1 X51.813 Y85.794 E9.10170
G1 X51.855 Y85.396 E9.11517
G1 X51.868 Y85.000 E9.12849
G1 X51.855 Y84.604 E9.14182
G1 X51.813 Y84.206 E9.15528
G1 X51.668 Y83.493 E9.17975
