; generated by Slic3r 0.9.9 on 2013-07-19 at 17:16:02

; layer_height = 0.25
; perimeters = 2
; top_solid_layers = 3
; bottom_solid_layers = 3
; fill_density = 0.4
; perimeter_speed = 30
; infill_speed = 60
; travel_speed = 130
; nozzle_diameter = 0.5
; filament_diameter = 2.96
; extrusion_multiplier = 1
; perimeters extrusion width = 0.50mm
; infill extrusion width = 0.50mm
; solid infill extrusion width = 0.50mm
; top infill extrusion width = 0.50mm
; first layer extrusion width = 0.60mm

G21 ; set units to millimeters
M107
M190 S115 ; wait for bed temperature to be reached
M104 S240 ; set temperature
G28 ; home all axes
G1 Z5 F5000 ; lift nozzle
M109 S240 ; wait for temperature to be reached
G90 ; use absolute coordinates
G92 E0
M82 ; use absolute distances for extrusion
G1 F1800.000 E-1.40000
G92 E0
G1 Z-2.900 F7800.000
G1 X49.390 Y73.610
G1 F1800.000 E1.40000
G1 X49.880 Y73.300 F540.000 E1.41950
G1 X50.390 Y73.030 E1.43891
G1 X50.920 Y72.800 E1.45834
G1 X51.470 Y72.610 E1.47790
G1 X52.030 Y72.460 E1.49740
G1 X52.600 Y72.350 E1.51692
G1 X52.880 Y72.310 E1.52643
G1 X53.750 Y72.260 E1.55574
G1 X106.250 Y72.260 E3.32129
G1 X107.120 Y72.310 E3.35059
G1 X107.400 Y72.350 E3.36011
G1 X107.970 Y72.460 E3.37963
G1 X108.530 Y72.610 E3.39912
G1 X109.080 Y72.800 E3.41869
G1 X109.610 Y73.030 E3.43812
G1 X110.120 Y73.300 E3.45753
G1 X110.610 Y73.610 E3.47703
G1 X111.300 Y74.140 E3.50629
G1 X111.720 Y74.530 E3.52556
G1 X112.110 Y74.950 E3.54484
G1 X112.640 Y75.640 E3.57410
G1 X112.800 Y75.880 E3.58380
G1 X113.090 Y76.390 E3.60353
G1 X113.220 Y76.640 E3.61300
G1 X113.450 Y77.170 E3.63243
G1 X113.640 Y77.720 E3.65200
G1 X113.790 Y78.280 E3.67150
G1 X113.940 Y79.130 E3.70052
G1 X113.990 Y80.000 E3.72983
G1 X113.990 Y89.990 E4.06579
G1 X113.530 Y115.330 E4.91810
G1 X113.480 Y115.900 E4.93734
G1 X113.390 Y116.460 E4.95642
G1 X113.330 Y116.740 E4.96605
G1 X113.080 Y117.560 E4.99488
G1 X112.980 Y117.830 E5.00456
G1 X112.740 Y118.350 E5.02382
G1 X112.470 Y118.850 E5.04293
G1 X112.160 Y119.330 E5.06214
G1 X111.820 Y119.780 E5.08111
G1 X111.240 Y120.420 E5.11016
G1 X110.820 Y120.800 E5.12920
G1 X110.140 Y121.320 E5.15799
G1 X109.660 Y121.620 E5.17703
G1 X109.150 Y121.890 E5.19643
G1 X108.360 Y122.210 E5.22510
G1 X107.820 Y122.380 E5.24414
G1 X106.980 Y122.560 E5.27303
G1 X106.410 Y122.620 E5.29230
G1 X105.840 Y122.650 E5.31150
G1 X105.270 Y122.630 E5.33068
G1 X104.710 Y122.570 E5.34962
G1 X103.020 Y122.260 E5.40740
G1 X102.690 Y122.180 E5.41882
G1 X102.040 Y121.960 E5.44190
G1 X101.420 Y121.690 E5.46464
G1 X50.380 Y96.950 E7.37210
G1 X49.620 Y96.530 E7.40130
G1 X49.140 Y96.200 E7.42089
G1 X48.690 Y95.840 E7.44027
G1 X48.070 Y95.240 E7.46928
G1 X47.690 Y94.800 E7.48884
G1 X47.190 Y94.100 E7.51776
G1 X46.780 Y93.340 E7.54680
G1 X46.550 Y92.810 E7.56623
G1 X46.360 Y92.270 E7.58549
G1 X46.150 Y91.420 E7.61493
G1 X46.060 Y90.850 E7.63434
G1 X46.010 Y89.990 E7.66331
G1 X46.010 Y80.000 E7.99926
G1 X46.060 Y79.130 E8.02857
G1 X46.210 Y78.280 E8.05760
G1 X46.360 Y77.720 E8.07709
G1 X46.550 Y77.170 E8.09666
G1 X46.780 Y76.640 E8.11609
G1 X46.910 Y76.390 E8.12557
G1 X47.050 Y76.130 E8.13550
G1 X47.360 Y75.640 E8.15500
G1 X47.890 Y74.950 E8.18426
G1 X48.280 Y74.530 E8.20353
G1 X48.700 Y74.140 E8.22281
G1 X49.320 Y73.662 E8.24915
G1 X49.630 Y74.150 F7800.000
G1 X49.860 Y73.990 F540.000 E8.25857
G1 X50.330 Y73.710 E8.27697
G1 X50.820 Y73.470 E8.29532
G1 X51.330 Y73.260 E8.31387
G1 X51.850 Y73.100 E8.33216
G1 X52.390 Y72.970 E8.35084
G1 X53.200 Y72.860 E8.37833
G1 X53.750 Y72.840 E8.39684
G1 X106.250 Y72.840 E10.16239
G1 X106.800 Y72.860 E10.18089
G1 X107.610 Y72.970 E10.20838
G1 X108.150 Y73.100 E10.22706
G1 X108.670 Y73.260 E10.24536
G1 X109.180 Y73.470 E10.26391
G1 X109.670 Y73.710 E10.28226
G1 X110.140 Y73.990 E10.30065
G1 X110.370 Y74.150 E10.31008
G1 X111.010 Y74.660 E10.33760
G1 X111.210 Y74.840 E10.34665
G1 X111.590 Y75.240 E10.36520
G1 X112.100 Y75.880 E10.39272
G1 X112.260 Y76.110 E10.40214
G1 X112.540 Y76.580 E10.42054
G1 X112.780 Y77.070 E10.43889
G1 X112.990 Y77.580 E10.45744
G1 X113.220 Y78.370 E10.48511
G1 X113.280 Y78.640 E10.49441
G1 X113.360 Y79.180 E10.51277
G1 X113.390 Y79.450 E10.52190
G1 X113.410 Y80.000 E10.54041
G1 X113.410 Y90.120 E10.88074
G1 X112.960 Y115.310 E11.72800
G1 X112.940 Y115.590 E11.73744
G1 X112.810 Y116.400 E11.76503
G1 X112.750 Y116.670 E11.77433
G1 X112.500 Y117.460 E11.80220
G1 X112.280 Y117.970 E11.82088
G1 X112.030 Y118.460 E11.83938
G1 X111.580 Y119.150 E11.86708
G1 X111.050 Y119.790 E11.89503
G1 X110.860 Y119.980 E11.90406
G1 X110.450 Y120.360 E11.92286
G1 X109.790 Y120.860 E11.95071
G1 X109.080 Y121.280 E11.97845
G1 X108.830 Y121.400 E11.98778
G1 X108.330 Y121.610 E12.00601
G1 X107.540 Y121.860 E12.03388
G1 X106.730 Y122.010 E12.06158
G1 X106.180 Y122.060 E12.08015
G1 X105.900 Y122.070 E12.08958
G1 X105.080 Y122.030 E12.11719
G1 X104.800 Y122.000 E12.12666
G1 X103.160 Y121.700 E12.18272
G1 X102.550 Y121.530 E12.20402
G1 X102.250 Y121.420 E12.21476
G1 X101.670 Y121.170 E12.23600
G1 X50.630 Y96.430 E14.14346
G1 X50.120 Y96.160 E14.16287
G1 X49.640 Y95.850 E14.18209
G1 X48.970 Y95.320 E14.21082
G1 X48.370 Y94.710 E14.23959
G1 X48.180 Y94.490 E14.24937
G1 X47.840 Y94.030 E14.26860
G1 X47.400 Y93.290 E14.29755
G1 X47.270 Y93.040 E14.30703
G1 X47.050 Y92.510 E14.32633
G1 X46.870 Y91.970 E14.34547
G1 X46.800 Y91.690 E14.35518
G1 X46.680 Y91.130 E14.37444
G1 X46.640 Y90.850 E14.38395
G1 X46.590 Y89.990 E14.41292
G1 X46.590 Y80.000 E14.74888
G1 X46.610 Y79.450 E14.76739
G1 X46.720 Y78.640 E14.79488
G1 X46.850 Y78.100 E14.81355
G1 X47.010 Y77.580 E14.83185
G1 X47.110 Y77.320 E14.84122
G1 X47.460 Y76.580 E14.86875
G1 X47.740 Y76.110 E14.88715
G1 X48.060 Y75.660 E14.90572
G1 X48.590 Y75.040 E14.93315
G1 X48.990 Y74.660 E14.95170
G1 X49.560 Y74.201 E14.97631
G1 X49.800 Y74.740 F7800.000
G1 X50.230 Y74.440 F540.000 E14.99394
G1 X50.690 Y74.170 E15.01188
G1 X51.170 Y73.950 E15.02963
G1 X51.670 Y73.760 E15.04762
G1 X52.430 Y73.550 E15.07414
G1 X53.220 Y73.440 E15.10096
G1 X53.750 Y73.420 E15.11880
G1 X106.250 Y73.420 E16.88434
G1 X106.780 Y73.440 E16.90218
G1 X107.570 Y73.550 E16.92900
G1 X108.330 Y73.760 E16.95552
G1 X108.830 Y73.950 E16.97351
G1 X109.310 Y74.170 E16.99126
G1 X109.770 Y74.440 E17.00920
G1 X110.200 Y74.740 E17.02683
G1 X110.410 Y74.900 E17.03571
G1 X110.810 Y75.260 E17.05381
G1 X111.350 Y75.840 E17.08046
G1 X111.810 Y76.480 E17.10696
G1 X112.080 Y76.940 E17.12490
G1 X112.400 Y77.670 E17.15171
G1 X112.640 Y78.430 E17.17851
G1 X112.700 Y78.680 E17.18716
G1 X112.780 Y79.210 E17.20518
G1 X112.810 Y79.470 E17.21398
G1 X112.830 Y80.000 E17.23182
G1 X112.830 Y90.110 E17.57181
G1 X112.380 Y115.290 E18.41874
G1 X112.330 Y115.820 E18.43664
G1 X112.230 Y116.340 E18.45445
G1 X112.100 Y116.850 E18.47215
G1 X111.920 Y117.350 E18.49002
G1 X111.700 Y117.840 E18.50808
G1 X111.450 Y118.300 E18.52569
G1 X111.160 Y118.740 E18.54341
G1 X110.830 Y119.160 E18.56137
G1 X110.280 Y119.740 E18.58825
G1 X109.880 Y120.080 E18.60591
G1 X109.450 Y120.390 E18.62374
G1 X108.990 Y120.670 E18.64185
G1 X108.280 Y121.010 E18.66832
G1 X107.780 Y121.190 E18.68619
G1 X107.270 Y121.330 E18.70398
G1 X106.740 Y121.420 E18.72205
G1 X106.220 Y121.480 E18.73966
G1 X105.690 Y121.490 E18.75748
G1 X105.160 Y121.460 E18.77534
G1 X103.530 Y121.190 E18.83090
G1 X102.870 Y121.020 E18.85382
G1 X102.230 Y120.790 E18.87669
G1 X50.880 Y95.910 E20.79558
G1 X50.400 Y95.650 E20.81394
G1 X49.940 Y95.350 E20.83241
G1 X49.720 Y95.190 E20.84156
G1 X49.310 Y94.840 E20.85969
G1 X48.920 Y94.460 E20.87800
G1 X48.740 Y94.250 E20.88730
G1 X48.400 Y93.820 E20.90574
G1 X48.250 Y93.600 E20.91469
G1 X48.100 Y93.370 E20.92393
G1 X47.840 Y92.890 E20.94228
G1 X47.620 Y92.390 E20.96065
G1 X47.370 Y91.610 E20.98820
G1 X47.220 Y90.810 E21.01557
G1 X47.190 Y90.530 E21.02504
G1 X47.170 Y89.990 E21.04321
G1 X47.170 Y80.000 E21.37917
G1 X47.190 Y79.470 E21.39701
G1 X47.300 Y78.680 E21.42383
G1 X47.430 Y78.170 E21.44153
G1 X47.700 Y77.420 E21.46834
G1 X47.920 Y76.940 E21.48610
G1 X48.190 Y76.480 E21.50403
G1 X48.650 Y75.840 E21.53054
G1 X49.010 Y75.440 E21.54864
G1 X49.590 Y74.900 E21.57529
G1 X49.731 Y74.793 E21.58125
G1 F1800.000 E20.18125
G92 E0
G1 X84.146 Y80.871 F7800.000
G1 F1800.000 E1.40000
G1 X88.354 Y80.871 F540.000 E1.54151
G1 X87.082 Y82.142 E1.60198
G1 X87.082 Y87.858 E1.79421
G1 X88.354 Y89.129 E1.85468
G1 X84.146 Y89.129 E1.99620
G1 X85.418 Y87.858 E2.05667
G1 X85.418 Y82.142 E2.24890
G1 X84.207 Y80.932 E2.30645
G1 X84.160 Y81.703 F7800.000
G1 X82.749 Y80.292 F540.000 E2.37355
G1 X89.751 Y80.292 E2.60904
G1 X87.661 Y82.382 E2.70844
G1 X87.661 Y87.618 E2.88455
G1 X89.751 Y89.708 E2.98394
G1 X82.749 Y89.708 E3.21944
G1 X84.839 Y87.618 E3.31884
G1 X84.839 Y82.382 E3.49494
G1 X84.221 Y81.764 E3.52432
G1 X84.309 Y81.144 F7800.000
G1 F1800.000 E2.12432
G92 E0
G1 X82.882 Y82.861 F7800.000
G1 F1800.000 E1.40000
G1 X82.882 Y87.139 F540.000 E1.54386
G1 X80.891 Y89.129 E1.63854
G1 X79.109 Y89.129 E1.69845
G1 X77.118 Y87.139 E1.79314
G1 X77.118 Y82.861 E1.93699
G1 X79.109 Y80.871 E2.03168
G1 X80.891 Y80.871 E2.09159
G1 X82.821 Y82.800 E2.18335
G1 X83.461 Y82.621 F7800.000
G1 X83.461 Y87.379 F540.000 E2.34333
G1 X81.130 Y89.708 E2.45414
G1 X78.870 Y89.708 E2.53016
G1 X76.539 Y87.379 E2.64096
G1 X76.539 Y82.621 E2.80094
G1 X78.870 Y80.292 E2.91174
G1 X81.130 Y80.292 E2.98776
G1 X83.399 Y82.560 E3.09565
G1 X83.052 Y83.031 F7800.000
G1 F1800.000 E1.69565
G92 E0
G1 X75.854 Y80.871 F7800.000
G1 F1800.000 E1.40000
G1 X74.582 Y82.142 F540.000 E1.46047
G1 X74.582 Y87.858 E1.65270
G1 X75.854 Y89.129 E1.71317
G1 X71.646 Y89.129 E1.85468
G1 X72.918 Y87.858 E1.91515
G1 X72.918 Y82.142 E2.10738
G1 X71.646 Y80.871 E2.16785
G1 X75.767 Y80.871 E2.30645
G1 X77.251 Y80.292 F7800.000
G1 X75.161 Y82.382 F540.000 E2.40584
G1 X75.161 Y87.618 E2.58195
G1 X77.251 Y89.708 E2.68135
G1 X70.249 Y89.708 E2.91685
G1 X72.339 Y87.618 E3.01624
G1 X72.339 Y82.382 E3.19235
G1 X70.249 Y80.292 E3.29175
G1 X77.165 Y80.292 E3.52433
G1 X76.750 Y80.581 F7800.000
G1 F1800.000 E2.12433
G92 E0
G1 X70.382 Y82.861 F7800.000
G1 F1800.000 E1.40000
G1 X70.382 Y87.139 F540.000 E1.54386
G1 X68.391 Y89.129 E1.63854
G1 X66.609 Y89.129 E1.69845
G1 X64.618 Y87.139 E1.79314
G1 X64.618 Y82.861 E1.93699
G1 X66.609 Y80.871 E2.03168
G1 X68.391 Y80.871 E2.09159
G1 X70.321 Y82.800 E2.18335
G1 X70.961 Y82.621 F7800.000
G1 X70.961 Y87.379 F540.000 E2.34333
G1 X68.630 Y89.708 E2.45414
G1 X66.370 Y89.708 E2.53016
G1 X64.039 Y87.379 E2.64096
G1 X64.039 Y82.621 E2.80094
G1 X66.370 Y80.292 E2.91174
G1 X68.630 Y80.292 E2.98776
G1 X70.899 Y82.560 E3.09565
G1 X70.552 Y83.031 F7800.000
G1 F1800.000 E1.69565
G92 E0
G1 X63.354 Y80.871 F7800.000
G1 F1800.000 E1.40000
G1 X62.082 Y82.142 F540.000 E1.46047
G1 X62.082 Y87.858 E1.65270
G1 X63.354 Y89.129 E1.71317
G1 X59.146 Y89.129 E1.85468
G1 X60.418 Y87.858 E1.91515
G1 X60.418 Y82.142 E2.10738
G1 X59.146 Y80.871 E2.16785
G1 X63.267 Y80.871 E2.30645
G1 X64.751 Y80.292 F7800.000
G1 X62.661 Y82.382 F540.000 E2.40584
G1 X62.661 Y87.618 E2.58195
G1 X64.751 Y89.708 E2.68135
G1 X57.749 Y89.708 E2.91685
G1 X59.839 Y87.618 E3.01624
G1 X59.839 Y82.382 E3.19235
G1 X57.749 Y80.292 E3.29175
G1 X64.665 Y80.292 E3.52433
G1 X64.250 Y80.581 F7800.000
G1 F1800.000 E2.12433
G92 E0
G1 X57.882 Y82.861 F7800.000
G1 F1800.000 E1.40000
G1 X57.882 Y87.139 F540.000 E1.54386
G1 X55.891 Y89.129 E1.63854
G1 X54.618 Y89.129 E1.68135
G1 X54.618 Y80.871 E1.95907
G1 X55.891 Y80.871 E2.00188
G1 X57.821 Y82.800 E2.09364
G1 X58.461 Y82.621 F7800.000
G1 X58.461 Y87.379 F540.000 E2.25363
G1 X56.130 Y89.708 E2.36443
G1 X54.039 Y89.708 E2.43475
G1 X54.039 Y80.292 E2.75138
G1 X56.130 Y80.292 E2.82170
G1 X58.399 Y82.560 E2.92958
G1 X58.052 Y83.031 F7800.000
G1 F1800.000 E1.52958
G92 E0
G1 X89.618 Y82.861 F7800.000
G1 F1800.000 E1.40000
G1 X91.609 Y80.871 F540.000 E1.49468
G1 X93.391 Y80.871 E1.55459
G1 X95.382 Y82.861 E1.64928
G1 X95.382 Y87.139 E1.79314
G1 X93.391 Y89.129 E1.88782
G1 X91.609 Y89.129 E1.94773
G1 X89.618 Y87.139 E2.04241
G1 X89.618 Y82.948 E2.18335
G1 X89.039 Y82.621 F7800.000
G1 X91.370 Y80.292 F540.000 E2.29415
G1 X93.630 Y80.292 E2.37017
G1 X95.961 Y82.621 E2.48098
G1 X95.961 Y87.379 E2.64096
G1 X93.630 Y89.708 E2.75176
G1 X91.370 Y89.708 E2.82778
G1 X89.039 Y87.379 E2.93858
G1 X89.039 Y82.708 E3.09565
G1 X89.618 Y82.622 F7800.000
G1 F1800.000 E1.69565
G92 E0
G1 X96.646 Y80.871 F7800.000
G1 F1800.000 E1.40000
G1 X100.854 Y80.871 F540.000 E1.54151
G1 X99.582 Y82.142 E1.60198
G1 X99.582 Y87.858 E1.79421
G1 X100.854 Y89.129 E1.85468
G1 X96.646 Y89.129 E1.99620
G1 X97.918 Y87.858 E2.05667
G1 X97.918 Y82.142 E2.24890
G1 X96.707 Y80.932 E2.30645
G1 X96.660 Y81.703 F7800.000
G1 X95.249 Y80.292 F540.000 E2.37355
G1 X102.251 Y80.292 E2.60904
G1 X100.161 Y82.382 E2.70844
G1 X100.161 Y87.618 E2.88455
G1 X102.251 Y89.708 E2.98394
G1 X95.249 Y89.708 E3.21944
G1 X97.339 Y87.618 E3.31884
G1 X97.339 Y82.382 E3.49495
G1 X96.721 Y81.764 E3.52433
G1 X96.809 Y81.144 F7800.000
G1 F1800.000 E2.12433
G92 E0
G1 X102.118 Y82.861 F7800.000
G1 F1800.000 E1.40000
G1 X104.109 Y80.871 F540.000 E1.49468
G1 X105.382 Y80.871 E1.53749
G1 X105.382 Y89.129 E1.81521
G1 X104.109 Y89.129 E1.85802
G1 X102.118 Y87.139 E1.95270
G1 X102.118 Y82.948 E2.09364
G1 X101.539 Y82.621 F7800.000
G1 X103.870 Y80.292 F540.000 E2.20445
G1 X105.961 Y80.292 E2.27476
G1 X105.961 Y89.708 E2.59140
G1 X103.870 Y89.708 E2.66172
G1 X101.539 Y87.379 E2.77252
G1 X101.539 Y82.708 E2.92958
G1 X102.118 Y82.622 F7800.000
G1 F1800.000 E1.52958
G92 E0
G1 X105.519 Y114.865 F7800.000
G1 F1800.000 E1.40000
G1 X105.811 Y114.919 F540.000 E1.41000
G1 X105.519 Y114.865 F7800.000
G1 X104.934 Y114.757 F540.000 E1.43000
G1 X104.934 Y114.757 F7800.000
G1 X104.934 Y114.757 F1800.000
G1 X104.934 Y114.757 F7800.000
G1 X104.796 Y114.732 F540.000 E1.43473
G1 X104.796 Y114.732 F7800.000
G1 X104.796 Y114.732 F1800.000
G1 F1800.000 E0.03473
G92 E0
G1 X74.841 Y88.710 F7800.000
G1 F1800.000 E1.40000
G1 X74.610 Y88.479 F1080.000 E1.41466
G1 X73.750 Y88.710 E1.45458
G1 X73.205 Y88.164 E1.48918
G1 X72.659 Y88.710 E1.52377
G1 X73.657 Y86.892 F7800.000
G1 X73.843 Y85.755 F360.000 E1.58646
G1 X73.657 Y85.569 E1.60077
G1 X73.843 Y84.431 E1.66345
G1 X73.657 Y84.245 E1.67776
G1 X73.843 Y83.108 E1.74045
G1 F1800.000 E0.34045
G92 E0
G1 X77.769 Y87.197 F7800.000
G1 F1800.000 E1.40000
G1 X77.537 Y86.965 F1080.000 E1.41195
G1 X77.537 Y86.079 E1.44418
G1 X80.168 Y88.710 E1.57959
G1 X80.885 Y88.542 E1.60642
G1 X77.537 Y85.194 E1.77876
G1 X77.537 Y84.308 E1.81099
G1 X81.328 Y88.099 E2.00614
G1 X81.771 Y87.657 E2.02893
G1 X77.537 Y83.423 E2.24687
G1 X77.786 Y82.786 E2.27176
G1 X82.214 Y87.214 E2.49968
G1 X82.463 Y86.577 E2.52457
G1 X78.229 Y82.343 E2.74251
G1 X78.672 Y81.901 E2.76530
G1 X82.463 Y85.692 E2.96045
G1 X82.463 Y84.806 E2.99268
G1 X79.115 Y81.458 E3.16502
G1 X79.832 Y81.290 E3.19185
G1 X82.463 Y83.921 E3.32725
G1 X82.463 Y83.035 E3.35949
G1 X82.248 Y82.820 E3.37054
G1 F1800.000 E1.97054
G92 E0
G1 X74.841 Y81.290 F7800.000
G1 F1800.000 E1.40000
G1 X74.295 Y81.836 F1080.000 E1.43459
G1 X73.750 Y81.290 E1.46919
G1 X72.659 Y81.290 E1.51811
G1 X72.891 Y81.523 E1.53285
G1 F1800.000 E0.13285
G92 E0
G1 X69.748 Y82.820 F7800.000
G1 F1800.000 E1.40000
G1 X69.963 Y83.035 F1080.000 E1.41106
G1 X69.963 Y83.921 E1.44329
G1 X67.332 Y81.290 E1.57869
G1 X66.615 Y81.458 E1.60552
G1 X69.963 Y84.806 E1.77786
G1 X69.963 Y85.692 E1.81010
G1 X66.172 Y81.901 E2.00524
G1 X65.729 Y82.343 E2.02803
G1 X69.963 Y86.577 E2.24598
G1 X69.714 Y87.214 E2.27086
G1 X65.286 Y82.786 E2.49879
G1 X65.037 Y83.423 E2.52367
G1 X69.271 Y87.657 E2.74161
G1 X68.828 Y88.099 E2.76441
G1 X65.037 Y84.308 E2.95955
G1 X65.037 Y85.194 E2.99178
G1 X68.385 Y88.542 E3.16413
G1 X67.668 Y88.710 E3.19095
G1 X65.037 Y86.079 E3.32636
G1 X65.037 Y86.965 E3.35859
G1 X65.269 Y87.197 E3.37054
G1 F1800.000 E1.97054
G92 E0
G1 X61.157 Y86.892 F7800.000
G1 F1800.000 E1.40000
G1 X61.343 Y85.755 F360.000 E1.46269
G1 X61.157 Y85.569 E1.47700
G1 X61.343 Y84.431 E1.53968
G1 X61.157 Y84.245 E1.55399
G1 X61.343 Y83.108 E1.61668
G1 X62.341 Y88.710 F7800.000
