; generated by Slic3r 0.9.9 on 2013-07-19 at 18:15:57

; layer_height = 0.25
; perimeters = 2
; top_solid_layers = 3
; bottom_solid_layers = 3
; fill_density = 0.4
; perimeter_speed = 30
; infill_speed = 60
; travel_speed = 130
; nozzle_diameter = 0.5
; filament_diameter = 2.96
; extrusion_multiplier = 1
; perimeters extrusion width = 0.50mm
; infill extrusion width = 0.50mm
; solid infill extrusion width = 0.50mm
; top infill extrusion width = 0.50mm
; first layer extrusion width = 0.60mm

G21 ; set units to millimeters
M107
M190 S115 ; wait for bed temperature to be reached
M104 S240 ; set temperature
G28 ; home all axes
G1 Z5 F5000 ; lift nozzle
M109 S240 ; wait for temperature to be reached
G90 ; use absolute coordinates
G92 E0
M82 ; use absolute distances for extrusion
G1 F1800.000 E-1.40000
G92 E0
G1 Z-2.900 F7800.000
G1 X55.180 Y71.450
G1 F1800.000 E1.40000
G1 X55.640 Y71.110 F540.000 E1.41924
G1 X56.130 Y70.800 E1.43874
G1 X56.640 Y70.530 E1.45814
G1 X57.170 Y70.300 E1.47757
G1 X57.450 Y70.200 E1.48757
G1 X58.000 Y70.030 E1.50693
G1 X58.560 Y69.900 E1.52626
G1 X59.130 Y69.810 E1.54567
G1 X60.000 Y69.760 E1.57498
G1 X100.000 Y69.760 E2.92015
G1 X100.870 Y69.810 E2.94946
G1 X101.720 Y69.960 E2.97849
G1 X102.550 Y70.200 E3.00754
G1 X102.830 Y70.300 E3.01754
G1 X103.360 Y70.530 E3.03697
G1 X104.120 Y70.950 E3.06617
G1 X104.820 Y71.450 E3.09510
G1 X105.050 Y71.640 E3.10513
G1 X105.470 Y72.030 E3.12441
G1 X105.860 Y72.450 E3.14368
G1 X106.390 Y73.140 E3.17294
G1 X106.550 Y73.380 E3.18264
G1 X106.840 Y73.890 E3.20237
G1 X106.970 Y74.140 E3.21185
G1 X107.200 Y74.670 E3.23128
G1 X107.470 Y75.500 E3.26063
G1 X107.600 Y76.060 E3.27996
G1 X107.690 Y76.630 E3.29937
G1 X107.740 Y77.500 E3.32868
G1 X107.730 Y92.790 E3.84287
G1 X107.690 Y93.370 E3.86242
G1 X107.540 Y94.220 E3.89145
G1 X107.300 Y95.050 E3.92051
G1 X107.200 Y95.330 E3.93050
G1 X106.970 Y95.860 E3.94993
G1 X106.550 Y96.620 E3.97914
G1 X106.050 Y97.320 E4.00806
G1 X105.860 Y97.550 E4.01810
G1 X105.470 Y97.970 E4.03737
G1 X105.050 Y98.360 E4.05665
G1 X104.360 Y98.890 E4.08591
G1 X104.120 Y99.050 E4.09561
G1 X103.610 Y99.340 E4.11534
G1 X103.360 Y99.470 E4.12481
G1 X102.830 Y99.700 E4.14424
G1 X102.000 Y99.970 E4.17359
G1 X101.440 Y100.100 E4.19293
G1 X100.870 Y100.190 E4.21233
G1 X100.000 Y100.240 E4.24164
G1 X60.000 Y100.240 E5.58682
G1 X59.130 Y100.190 E5.61612
G1 X58.280 Y100.040 E5.64515
G1 X57.450 Y99.800 E5.67421
G1 X57.170 Y99.700 E5.68421
G1 X56.640 Y99.470 E5.70363
G1 X55.880 Y99.050 E5.73284
G1 X55.180 Y98.550 E5.76177
G1 X54.950 Y98.360 E5.77180
G1 X54.530 Y97.970 E5.79107
G1 X54.140 Y97.550 E5.81035
G1 X53.950 Y97.320 E5.82038
G1 X53.450 Y96.620 E5.84931
G1 X53.030 Y95.860 E5.87851
G1 X52.800 Y95.330 E5.89794
G1 X52.610 Y94.780 E5.91751
G1 X52.460 Y94.220 E5.93701
G1 X52.350 Y93.650 E5.95653
G1 X52.310 Y93.370 E5.96604
G1 X52.270 Y92.790 E5.98559
G1 X52.260 Y77.500 E6.49979
G1 X52.310 Y76.630 E6.52909
G1 X52.400 Y76.060 E6.54850
G1 X52.610 Y75.220 E6.57762
G1 X52.800 Y74.670 E6.59718
G1 X52.910 Y74.410 E6.60668
G1 X53.030 Y74.140 E6.61662
G1 X53.300 Y73.630 E6.63602
G1 X53.610 Y73.140 E6.65552
G1 X54.140 Y72.450 E6.68478
G1 X54.530 Y72.030 E6.70406
G1 X55.113 Y71.505 E6.73044
G1 X55.450 Y71.980 F7800.000
G1 X56.110 Y71.490 F540.000 E6.75808
G1 X56.580 Y71.210 E6.77648
G1 X57.070 Y70.970 E6.79483
G1 X57.580 Y70.760 E6.81337
G1 X58.100 Y70.600 E6.83167
G1 X58.640 Y70.470 E6.85035
G1 X59.450 Y70.360 E6.87784
G1 X60.000 Y70.340 E6.89635
G1 X100.000 Y70.340 E8.24153
G1 X100.550 Y70.360 E8.26003
G1 X101.360 Y70.470 E8.28752
G1 X101.900 Y70.600 E8.30620
G1 X102.420 Y70.760 E8.32450
G1 X102.930 Y70.970 E8.34305
G1 X103.420 Y71.210 E8.36140
G1 X103.660 Y71.350 E8.37074
G1 X103.890 Y71.490 E8.37980
G1 X104.340 Y71.810 E8.39836
G1 X104.960 Y72.340 E8.42580
G1 X105.340 Y72.740 E8.44435
G1 X105.690 Y73.160 E8.46274
G1 X106.010 Y73.610 E8.48130
G1 X106.290 Y74.080 E8.49970
G1 X106.640 Y74.820 E8.52723
G1 X106.740 Y75.080 E8.53660
G1 X106.970 Y75.870 E8.56427
G1 X107.030 Y76.140 E8.57357
G1 X107.110 Y76.680 E8.59193
G1 X107.140 Y76.950 E8.60107
G1 X107.160 Y77.500 E8.61957
G1 X107.160 Y92.500 E9.12402
G1 X107.140 Y93.050 E9.14252
G1 X107.030 Y93.860 E9.17001
G1 X106.900 Y94.400 E9.18869
G1 X106.740 Y94.920 E9.20699
G1 X106.530 Y95.430 E9.22554
G1 X106.290 Y95.920 E9.24389
G1 X106.010 Y96.390 E9.26228
G1 X105.520 Y97.050 E9.28993
G1 X104.960 Y97.660 E9.31778
G1 X104.550 Y98.020 E9.33612
G1 X104.120 Y98.350 E9.35435
G1 X103.890 Y98.510 E9.36377
G1 X103.420 Y98.790 E9.38217
G1 X102.930 Y99.030 E9.40052
G1 X102.420 Y99.240 E9.41907
G1 X101.900 Y99.400 E9.43737
G1 X101.360 Y99.530 E9.45605
G1 X100.550 Y99.640 E9.48354
G1 X100.000 Y99.660 E9.50204
G1 X60.000 Y99.660 E10.84722
G1 X59.450 Y99.640 E10.86573
G1 X58.640 Y99.530 E10.89322
G1 X58.100 Y99.400 E10.91190
G1 X57.580 Y99.240 E10.93020
G1 X57.070 Y99.030 E10.94874
G1 X56.580 Y98.790 E10.96709
G1 X56.110 Y98.510 E10.98549
G1 X55.450 Y98.020 E11.01313
G1 X54.840 Y97.460 E11.04098
G1 X54.480 Y97.050 E11.05933
G1 X54.150 Y96.620 E11.07756
G1 X53.990 Y96.390 E11.08698
G1 X53.710 Y95.920 E11.10538
G1 X53.470 Y95.430 E11.12373
G1 X53.260 Y94.920 E11.14228
G1 X53.100 Y94.400 E11.16057
G1 X52.970 Y93.860 E11.17925
G1 X52.860 Y93.050 E11.20674
G1 X52.840 Y92.500 E11.22525
G1 X52.840 Y77.500 E11.72969
G1 X52.860 Y76.950 E11.74820
G1 X52.890 Y76.680 E11.75734
G1 X52.970 Y76.140 E11.77569
G1 X53.030 Y75.870 E11.78500
G1 X53.260 Y75.080 E11.81267
G1 X53.470 Y74.570 E11.83121
G1 X53.710 Y74.080 E11.84956
G1 X53.990 Y73.610 E11.86796
G1 X54.480 Y72.950 E11.89560
G1 X54.840 Y72.540 E11.91395
G1 X55.384 Y72.036 E11.93888
G1 X55.840 Y72.400 F7800.000
G1 X56.480 Y71.940 F540.000 E11.96539
G1 X56.940 Y71.670 E11.98333
G1 X57.420 Y71.450 E12.00108
G1 X57.920 Y71.260 E12.01907
G1 X58.680 Y71.050 E12.04559
G1 X59.470 Y70.940 E12.07241
G1 X60.000 Y70.920 E12.09025
G1 X100.000 Y70.920 E13.43543
G1 X100.530 Y70.940 E13.45326
G1 X101.320 Y71.050 E13.48009
G1 X101.830 Y71.180 E13.49779
G1 X102.580 Y71.450 E13.52459
G1 X103.060 Y71.670 E13.54235
G1 X103.290 Y71.800 E13.55123
G1 X103.740 Y72.090 E13.56924
G1 X104.160 Y72.400 E13.58679
G1 X104.740 Y72.940 E13.61344
G1 X105.100 Y73.340 E13.63154
G1 X105.260 Y73.550 E13.64042
G1 X105.700 Y74.210 E13.66709
G1 X105.830 Y74.440 E13.67598
G1 X106.050 Y74.920 E13.69374
G1 X106.240 Y75.420 E13.71172
G1 X106.390 Y75.930 E13.72960
G1 X106.450 Y76.180 E13.73825
G1 X106.530 Y76.710 E13.75627
G1 X106.560 Y76.970 E13.76508
G1 X106.580 Y77.500 E13.78291
G1 X106.580 Y92.500 E14.28735
G1 X106.560 Y93.030 E14.30519
G1 X106.450 Y93.820 E14.33201
G1 X106.320 Y94.330 E14.34971
G1 X106.050 Y95.080 E14.37652
G1 X105.830 Y95.560 E14.39428
G1 X105.700 Y95.790 E14.40316
G1 X105.410 Y96.240 E14.42116
G1 X105.100 Y96.660 E14.43872
G1 X104.560 Y97.240 E14.46537
G1 X104.160 Y97.600 E14.48347
G1 X103.950 Y97.760 E14.49235
G1 X103.520 Y98.060 E14.50998
G1 X103.060 Y98.330 E14.52792
G1 X102.330 Y98.650 E14.55472
G1 X101.830 Y98.820 E14.57248
G1 X101.320 Y98.950 E14.59018
G1 X100.530 Y99.060 E14.61700
G1 X100.000 Y99.080 E14.63484
G1 X60.000 Y99.080 E15.98002
G1 X59.470 Y99.060 E15.99785
G1 X58.680 Y98.950 E16.02468
G1 X58.170 Y98.820 E16.04238
G1 X57.420 Y98.550 E16.06918
G1 X56.940 Y98.330 E16.08694
G1 X56.710 Y98.200 E16.09583
G1 X56.260 Y97.910 E16.11383
G1 X55.840 Y97.600 E16.13138
G1 X55.260 Y97.060 E16.15803
G1 X54.900 Y96.660 E16.17613
G1 X54.740 Y96.450 E16.18501
G1 X54.440 Y96.020 E16.20264
G1 X54.170 Y95.560 E16.22058
G1 X53.850 Y94.830 E16.24738
G1 X53.680 Y94.330 E16.26514
G1 X53.550 Y93.820 E16.28284
G1 X53.440 Y93.030 E16.30967
G1 X53.420 Y92.500 E16.32750
G1 X53.420 Y77.500 E16.83195
G1 X53.440 Y76.970 E16.84978
G1 X53.550 Y76.180 E16.87661
G1 X53.680 Y75.670 E16.89431
G1 X53.850 Y75.170 E16.91207
G1 X54.170 Y74.440 E16.93887
G1 X54.440 Y73.980 E16.95681
G1 X54.900 Y73.340 E16.98331
G1 X55.260 Y72.940 E17.00141
G1 X55.775 Y72.458 E17.02514
G1 F1800.000 E15.62514
G92 E0
G1 X60.868 Y78.368 F7800.000
G1 F1800.000 E1.40000
G1 X61.632 Y78.368 F540.000 E1.42571
G1 X61.632 Y81.234 E1.52209
G1 X61.743 Y81.656 E1.53677
G1 X61.793 Y81.945 E1.54662
G1 X61.832 Y82.500 E1.56534
G1 X61.793 Y83.055 E1.58405
G1 X61.632 Y83.800 E1.60966
G1 X61.632 Y89.168 E1.79019
G1 X73.368 Y89.168 E2.18486
G1 X73.368 Y83.766 E2.36651
G1 X73.257 Y83.344 E2.38119
G1 X73.207 Y83.055 E2.39104
G1 X73.168 Y82.500 E2.40976
G1 X73.207 Y81.945 E2.42847
G1 X73.368 Y81.200 E2.45408
G1 X73.368 Y78.368 E2.54934
G1 X74.132 Y78.368 E2.57505
G1 X74.132 Y81.307 E2.67390
G1 X74.184 Y81.416 E2.67796
G1 X74.293 Y81.945 E2.69611
G1 X74.332 Y82.500 E2.71483
G1 X74.293 Y83.055 E2.73354
G1 X74.243 Y83.344 E2.74339
G1 X74.132 Y83.766 E2.75806
G1 X74.132 Y89.168 E2.93973
G1 X85.868 Y89.168 E3.33438
G1 X85.868 Y83.766 E3.51606
G1 X85.757 Y83.344 E3.53072
G1 X85.707 Y83.055 E3.54057
G1 X85.668 Y82.500 E3.55929
G1 X85.707 Y81.945 E3.57800
G1 X85.757 Y81.656 E3.58785
G1 X85.868 Y81.234 E3.60252
G1 X85.868 Y78.368 E3.69892
G1 X86.632 Y78.368 E3.72463
G1 X86.632 Y81.234 E3.82101
G1 X86.743 Y81.656 E3.83569
G1 X86.793 Y81.945 E3.84555
G1 X86.832 Y82.500 E3.86426
G1 X86.793 Y83.055 E3.88297
G1 X86.743 Y83.344 E3.89282
G1 X86.632 Y83.766 E3.90750
G1 X86.632 Y89.168 E4.08916
G1 X98.368 Y89.168 E4.48382
G1 X98.368 Y83.766 E4.66548
G1 X98.257 Y83.344 E4.68016
G1 X98.207 Y83.055 E4.69001
G1 X98.168 Y82.500 E4.70872
G1 X98.207 Y81.945 E4.72744
G1 X98.368 Y81.200 E4.75305
G1 X98.368 Y78.368 E4.84831
G1 X99.132 Y78.368 E4.87401
G1 X99.132 Y91.632 E5.32009
G1 X60.868 Y91.632 E6.60690
G1 X60.868 Y78.455 E7.05005
G1 X60.289 Y77.789 F7800.000
G1 X62.211 Y77.789 F378.000 E7.11467
G1 X62.211 Y81.146 E7.22757
G1 X62.309 Y81.539 E7.24117
G1 X62.366 Y81.865 E7.25232
G1 X62.410 Y82.500 E7.27372
G1 X62.366 Y83.135 E7.29512
G1 X62.211 Y83.869 E7.32034
G1 X62.211 Y88.589 E7.47910
G1 X72.789 Y88.589 E7.83485
G1 X72.789 Y83.854 E7.99411
G1 X72.691 Y83.461 E8.00770
G1 X72.634 Y83.135 E8.01885
G1 X72.590 Y82.500 E8.04025
G1 X72.634 Y81.865 E8.06165
G1 X72.789 Y81.131 E8.08688
G1 X72.789 Y77.789 E8.19927
G1 X74.711 Y77.789 E8.26389
G1 X74.711 Y81.176 E8.37778
G1 X74.809 Y81.539 E8.39042
G1 X74.866 Y81.865 E8.40157
G1 X74.910 Y82.500 E8.42297
G1 X74.866 Y83.135 E8.44437
G1 X74.809 Y83.461 E8.45551
G1 X74.711 Y83.853 E8.46910
G1 X74.711 Y88.589 E8.62837
G1 X85.289 Y88.589 E8.98412
G1 X85.289 Y83.853 E9.14339
G1 X85.191 Y83.461 E9.15697
G1 X85.134 Y83.135 E9.16812
G1 X85.090 Y82.500 E9.18952
G1 X85.134 Y81.865 E9.21092
G1 X85.191 Y81.539 E9.22207
G1 X85.289 Y81.147 E9.23566
G1 X85.289 Y77.789 E9.34857
G1 X87.211 Y77.789 E9.41319
G1 X87.211 Y81.147 E9.52610
G1 X87.309 Y81.539 E9.53969
G1 X87.366 Y81.865 E9.55084
G1 X87.410 Y82.500 E9.57224
G1 X87.366 Y83.135 E9.59364
G1 X87.309 Y83.461 E9.60478
G1 X87.211 Y83.853 E9.61838
G1 X87.211 Y88.589 E9.77764
G1 X97.789 Y88.589 E10.13339
G1 X97.789 Y83.854 E10.29265
G1 X97.691 Y83.461 E10.30625
G1 X97.634 Y83.135 E10.31740
G1 X97.590 Y82.500 E10.33880
G1 X97.634 Y81.865 E10.36020
G1 X97.789 Y81.131 E10.38542
G1 X97.789 Y77.789 E10.49782
G1 X99.711 Y77.789 E10.56243
G1 X99.711 Y92.211 E11.04742
G1 X60.289 Y92.211 E12.37314
G1 X60.289 Y77.876 E12.85521
G1 X60.790 Y78.079 F7800.000
G1 X61.287 Y91.213
G1 X61.287 Y90.382 F1080.000 E12.88359
G1 X62.118 Y91.213 E12.92373
G1 X62.949 Y91.213 E12.95211
G1 X61.323 Y89.587 E13.03062
G1 X62.154 Y89.587 E13.05900
G1 X63.780 Y91.213 E13.13752
G1 X64.611 Y91.213 E13.16589
G1 X62.985 Y89.587 E13.24441
G1 X63.816 Y89.587 E13.27279
G1 X65.442 Y91.213 E13.35131
G1 X66.273 Y91.213 E13.37968
G1 X64.647 Y89.587 E13.45820
G1 X65.478 Y89.587 E13.48658
G1 X67.103 Y91.213 E13.56510
G1 X67.934 Y91.213 E13.59347
G1 X66.309 Y89.587 E13.67199
G1 X67.139 Y89.587 E13.70037
G1 X68.765 Y91.213 E13.77888
G1 X69.596 Y91.213 E13.80726
G1 X67.970 Y89.587 E13.88578
G1 X68.801 Y89.587 E13.91415
G1 X70.427 Y91.213 E13.99267
G1 X71.258 Y91.213 E14.02105
G1 X69.632 Y89.587 E14.09957
G1 X70.463 Y89.587 E14.12794
G1 X72.089 Y91.213 E14.20646
G1 X72.920 Y91.213 E14.23484
G1 X71.294 Y89.587 E14.31336
G1 X72.125 Y89.587 E14.34173
G1 X73.750 Y91.213 E14.42025
G1 X74.581 Y91.213 E14.44863
G1 X72.956 Y89.587 E14.52714
G1 X73.786 Y89.587 E14.55552
G1 X75.412 Y91.213 E14.63404
G1 X76.243 Y91.213 E14.66241
G1 X74.617 Y89.587 E14.74093
G1 X75.448 Y89.587 E14.76931
G1 X77.074 Y91.213 E14.84783
G1 X77.905 Y91.213 E14.87620
G1 X76.279 Y89.587 E14.95472
G1 X77.110 Y89.587 E14.98310
G1 X78.736 Y91.213 E15.06162
G1 X79.567 Y91.213 E15.08999
G1 X77.941 Y89.587 E15.16851
G1 X78.772 Y89.587 E15.19689
G1 X80.397 Y91.213 E15.27540
G1 X81.228 Y91.213 E15.30378
G1 X79.603 Y89.587 E15.38230
G1 X80.433 Y89.587 E15.41067
G1 X82.059 Y91.213 E15.48919
G1 X82.890 Y91.213 E15.51757
G1 X81.264 Y89.587 E15.59609
G1 X82.095 Y89.587 E15.62446
G1 X83.721 Y91.213 E15.70298
G1 X84.552 Y91.213 E15.73136
G1 X82.926 Y89.587 E15.80988
G1 X83.757 Y89.587 E15.83825
G1 X85.383 Y91.213 E15.91677
G1 X86.214 Y91.213 E15.94515
G1 X84.588 Y89.587 E16.02366
G1 X85.419 Y89.587 E16.05204
G1 X87.044 Y91.213 E16.13056
G1 X87.875 Y91.213 E16.15893
G1 X86.250 Y89.587 E16.23745
G1 X87.080 Y89.587 E16.26583
G1 X88.706 Y91.213 E16.34435
G1 X89.537 Y91.213 E16.37272
G1 X87.911 Y89.587 E16.45124
G1 X88.742 Y89.587 E16.47962
G1 X90.368 Y91.213 E16.55814
G1 X91.199 Y91.213 E16.58651
G1 X89.573 Y89.587 E16.66503
G1 X90.404 Y89.587 E16.69341
G1 X92.030 Y91.213 E16.77193
G1 X92.861 Y91.213 E16.80030
G1 X91.235 Y89.587 E16.87882
G1 X92.066 Y89.587 E16.90719
G1 X93.691 Y91.213 E16.98571
G1 X94.522 Y91.213 E17.01409
G1 X92.897 Y89.587 E17.09261
G1 X93.727 Y89.587 E17.12098
G1 X95.353 Y91.213 E17.19950
G1 X96.184 Y91.213 E17.22788
G1 X94.558 Y89.587 E17.30640
G1 X95.389 Y89.587 E17.33477
G1 X97.015 Y91.213 E17.41329
G1 X97.846 Y91.213 E17.44167
G1 X96.220 Y89.587 E17.52019
G1 X97.051 Y89.587 E17.54856
G1 X98.677 Y91.213 E17.62708
G1 X98.713 Y90.418 E17.65425
G1 X97.882 Y89.587 E17.69438
G1 X98.713 Y89.587 E17.72276
G1 F1800.000 E16.32276
G92 E0
G1 X61.277 Y83.527 F7800.000
G1 F1800.000 E1.40000
G1 X61.369 Y83.105 F360.000 E1.40911
G1 X61.277 Y83.013 E1.41185
G1 X61.417 Y82.640 E1.42026
G1 X61.277 Y82.500 E1.42445
G1 X61.398 Y82.108 E1.43312
G1 X61.277 Y81.986 E1.43674
G1 X61.277 Y81.473 E1.44757
G1 F1800.000 E0.04757
G92 E0
G1 X73.750 Y83.617 F7800.000
G1 F1800.000 E1.40000
G1 X73.839 Y83.271 F360.000 E1.40640
G1 X73.622 Y83.054 E1.41189
G1 X73.898 Y82.894 E1.41759
G1 X73.581 Y82.576 E1.42563
G1 X73.922 Y82.482 E1.43196
G1 X73.597 Y82.157 E1.44019
G1 X73.888 Y82.014 E1.44601
G1 X73.652 Y81.777 E1.45200
G1 X73.735 Y81.424 E1.45848
G1 F1800.000 E0.05848
G92 E0
G1 X86.250 Y83.617 F7800.000
G1 F1800.000 E1.40000
G1 X86.341 Y83.261 F360.000 E1.40674
G1 X86.120 Y83.040 E1.41249
G1 X86.400 Y82.873 E1.41847
G1 X86.080 Y82.553 E1.42680
G1 X86.420 Y82.447 E1.43335
G1 X86.100 Y82.126 E1.44167
G1 X86.380 Y81.960 E1.44766
G1 X86.159 Y81.738 E1.45341
G1 X86.250 Y81.383 E1.46014
G1 F1800.000 E0.06014
G92 E0
G1 X98.723 Y83.527 F7800.000
G1 F1800.000 E1.40000
G1 X98.723 Y83.014 F360.000 E1.41084
G1 X98.602 Y82.892 E1.41446
G1 X98.723 Y82.500 E1.42312
G1 X98.583 Y82.360 E1.42731
G1 X98.723 Y81.987 E1.43572
G1 X98.631 Y81.895 E1.43846
G1 X98.723 Y81.473 E1.44757
M104 S230 ; set temperature
M140 S110 ; set bed temperature
G1 F1800.000 E0.04757
G92 E0
G1 Z-2.650 F7800.000
G1 X97.972 Y81.114
G1 F1800.000 E1.40000
G1 X98.250 Y80.434 F600.000 E1.41334
G1 X98.250 Y78.250 E1.45301
G1 X99.250 Y78.250 E1.47118
G1 X99.250 Y91.750 E1.71640
G1 X60.750 Y91.750 E2.41576
G1 X60.750 Y78.250 E2.66099
G1 X61.750 Y78.250 E2.67915
G1 X61.750 Y80.434 E2.71882
G1 X61.906 Y80.790 E2.72589
G1 X62.121 Y81.416 E2.73791
G1 X62.190 Y81.701 E2.74324
G1 X62.265 Y82.239 E2.75311
G1 X62.265 Y82.761 E2.76258
G1 X62.190 Y83.299 E2.77245
G1 X62.028 Y83.886 E2.78352
G1 X61.750 Y84.566 E2.79686
G1 X61.750 Y89.050 E2.87831
G1 X73.250 Y89.050 E3.08721
G1 X73.250 Y84.566 E3.16866
G1 X73.094 Y84.210 E3.17572
G1 X72.879 Y83.584 E3.18774
G1 X72.762 Y83.026 E3.19811
G1 X72.726 Y82.500 E3.20768
G1 X72.762 Y81.974 E3.21725
G1 X72.879 Y81.416 E3.22761
