; generated by Slic3r 0.9.9 on 2013-07-09 at 20:10:59

; layer_height = 0.31
; perimeters = 3
; top_solid_layers = 3
; bottom_solid_layers = 3
; fill_density = 0.4
; perimeter_speed = 30
; infill_speed = 60
; travel_speed = 100  
; nozzle_diameter = 0.5
; filament_diameter = 2.93
; extrusion_multiplier = 1
; perimeters extrusion width = 0.50mm
; infill extrusion width = 0.50mm
; solid infill extrusion width = 0.50mm
; top infill extrusion width = 0.50mm
; first layer extrusion width = 1.00mm

G21 ; set units to millimeters
M107
M190 S120 ; wait for bed temperature to be reached
M104 S240 ; set temperature
G28 ; home all axes
G1 Z5 F5000 ; lift nozzle
M109 S240 ; wait for temperature to be reached
G90 ; use absolute coordinates
G92 E0
M82 ; use absolute distances for extrusion
G1 F1800.000 E-1.00000
G92 E0
G1 Z-0.900 F6000.000
G1 X68.923 Y69.357
G1 F1800.000 E1.00000
G1 X69.583 Y68.777 F540.000 E1.05816
G1 X70.043 Y68.437 E1.09603
G1 X70.793 Y67.987 E1.15393
G1 X71.323 Y67.727 E1.19301
G1 X71.863 Y67.517 E1.23137
G1 X72.413 Y67.347 E1.26948
G1 X72.983 Y67.217 E1.30818
G1 X73.563 Y67.127 E1.34703
G1 X74.433 Y67.077 E1.40472
G1 X86.433 Y67.077 E2.19911
G1 X105.953 Y67.347 E3.49143
G1 X106.243 Y67.367 E3.51067
G1 X106.813 Y67.447 E3.54878
G1 X107.383 Y67.557 E3.58721
G1 X107.663 Y67.627 E3.60631
G1 X108.483 Y67.907 E3.66367
G1 X109.013 Y68.147 E3.70219
G1 X109.763 Y68.567 E3.75909
G1 X110.233 Y68.897 E3.79711
G1 X110.903 Y69.457 E3.85491
G1 X111.303 Y69.867 E3.89283
G1 X111.683 Y70.307 E3.93132
G1 X112.023 Y70.777 E3.96972
G1 X112.463 Y71.517 E4.02671
G1 X112.713 Y72.037 E4.06491
G1 X113.013 Y72.847 E4.12209
G1 X113.213 Y73.687 E4.17925
G1 X113.303 Y74.267 E4.21810
G1 X113.353 Y75.127 E4.27513
G1 X113.343 Y105.417 E6.28029
G1 X113.303 Y105.997 E6.31878
G1 X113.153 Y106.857 E6.37657
G1 X112.913 Y107.697 E6.43440
G1 X112.703 Y108.237 E6.47276
G1 X112.443 Y108.767 E6.51184
G1 X111.993 Y109.517 E6.56974
G1 X111.653 Y109.977 E6.60760
G1 X111.073 Y110.637 E6.66577
G1 X110.413 Y111.217 E6.72393
G1 X109.953 Y111.557 E6.76180
G1 X109.203 Y112.007 E6.81970
G1 X108.673 Y112.267 E6.85878
G1 X108.133 Y112.477 E6.89713
G1 X107.583 Y112.647 E6.93524
G1 X107.013 Y112.777 E6.97394
G1 X106.433 Y112.867 E7.01280
G1 X105.563 Y112.917 E7.07049
G1 X93.563 Y112.917 E7.86487
G1 X74.043 Y112.647 E9.15720
G1 X73.753 Y112.627 E9.17644
G1 X73.183 Y112.547 E9.21454
G1 X72.613 Y112.437 E9.25297
G1 X72.333 Y112.367 E9.27208
G1 X71.513 Y112.087 E9.32944
G1 X70.983 Y111.847 E9.36795
G1 X70.233 Y111.427 E9.42486
G1 X69.763 Y111.097 E9.46287
G1 X69.093 Y110.537 E9.52068
G1 X68.693 Y110.127 E9.55860
G1 X68.313 Y109.687 E9.59709
G1 X67.973 Y109.217 E9.63549
G1 X67.533 Y108.477 E9.69248
G1 X67.283 Y107.957 E9.73067
G1 X66.983 Y107.147 E9.78785
G1 X66.783 Y106.307 E9.84502
G1 X66.693 Y105.727 E9.88387
G1 X66.643 Y104.867 E9.94090
G1 X66.653 Y74.577 E11.94606
G1 X66.693 Y73.997 E11.98455
G1 X66.843 Y73.137 E12.04234
G1 X67.083 Y72.297 E12.10017
G1 X67.293 Y71.757 E12.13852
G1 X67.553 Y71.227 E12.17760
G1 X68.003 Y70.477 E12.23550
G1 X68.343 Y70.017 E12.27337
G1 X68.831 Y69.454 E12.32268
G1 X69.373 Y70.187 F6000.000
G1 X69.953 Y69.627 F540.000 E12.37605
G1 X70.383 Y69.287 E12.41234
G1 X70.833 Y68.987 E12.44814
G1 X71.543 Y68.607 E12.50145
G1 X72.303 Y68.307 E12.55554
G1 X72.823 Y68.167 E12.59119
G1 X73.353 Y68.057 E12.62702
G1 X74.163 Y67.977 E12.68090
G1 X86.523 Y67.977 E13.49912
G1 X105.933 Y68.247 E14.78416
G1 X106.483 Y68.297 E14.82072
G1 X107.023 Y68.387 E14.85696
G1 X107.553 Y68.527 E14.89325
G1 X108.333 Y68.817 E14.94834
G1 X108.583 Y68.927 E14.96642
G1 X109.063 Y69.187 E15.00256
G1 X109.523 Y69.487 E15.03891
G1 X109.963 Y69.817 E15.07532
G1 X110.373 Y70.187 E15.11188
G1 X110.753 Y70.587 E15.14841
G1 X111.253 Y71.237 E15.20269
G1 X111.683 Y71.947 E15.25764
G1 X111.803 Y72.197 E15.27600
G1 X112.013 Y72.707 E15.31251
G1 X112.193 Y73.227 E15.34894
G1 X112.263 Y73.487 E15.36676
G1 X112.323 Y73.757 E15.38507
G1 X112.403 Y74.307 E15.42186
G1 X112.453 Y74.847 E15.45777
G1 X112.453 Y105.397 E17.48014
G1 X112.373 Y106.207 E17.53402
G1 X112.323 Y106.467 E17.55155
G1 X112.123 Y107.257 E17.60549
G1 X111.933 Y107.767 E17.64152
G1 X111.703 Y108.257 E17.67735
G1 X111.443 Y108.727 E17.71291
G1 X111.143 Y109.177 E17.74871
G1 X110.623 Y109.807 E17.80279
G1 X110.043 Y110.367 E17.85616
G1 X109.613 Y110.707 E17.89245
G1 X109.163 Y111.007 E17.92825
G1 X108.453 Y111.387 E17.98156
G1 X107.693 Y111.687 E18.03565
G1 X107.173 Y111.827 E18.07130
G1 X106.643 Y111.937 E18.10713
G1 X105.833 Y112.017 E18.16102
G1 X93.473 Y112.017 E18.97923
G1 X74.063 Y111.747 E20.26428
G1 X73.513 Y111.697 E20.30083
G1 X72.973 Y111.607 E20.33708
G1 X72.443 Y111.467 E20.37336
G1 X71.663 Y111.177 E20.42845
G1 X71.413 Y111.067 E20.44653
G1 X70.933 Y110.807 E20.48267
G1 X70.473 Y110.507 E20.51903
G1 X70.033 Y110.177 E20.55544
G1 X69.623 Y109.807 E20.59199
G1 X69.243 Y109.407 E20.62852
G1 X68.743 Y108.757 E20.68281
G1 X68.313 Y108.047 E20.73775
G1 X68.193 Y107.797 E20.75611
G1 X67.983 Y107.287 E20.79262
G1 X67.803 Y106.767 E20.82905
G1 X67.733 Y106.507 E20.84687
G1 X67.673 Y106.237 E20.86518
G1 X67.593 Y105.687 E20.90198
G1 X67.543 Y105.147 E20.93788
G1 X67.543 Y74.597 E22.96025
G1 X67.623 Y73.787 E23.01413
G1 X67.673 Y73.527 E23.03166
G1 X67.873 Y72.737 E23.08561
G1 X68.063 Y72.227 E23.12163
G1 X68.293 Y71.737 E23.15747
G1 X68.553 Y71.267 E23.19302
G1 X68.853 Y70.817 E23.22883
G1 X69.284 Y70.286 E23.27405
G1 F1800.000 E22.27405
G92 E0
G1 X70.416 Y73.203 F6000.000
G1 F1800.000 E1.00000
G1 X72.769 Y70.850 F540.000 E1.22030
G1 X88.097 Y70.850 E2.23499
G1 X90.133 Y72.886 E2.42561
G1 X91.903 Y71.116 E2.59125
G1 X107.231 Y71.116 E3.60594
G1 X109.584 Y73.469 E3.82625
G1 X109.584 Y106.797 E6.03251
G1 X107.231 Y109.150 E6.25282
G1 X91.903 Y109.150 E7.26751
G1 X89.867 Y107.114 E7.45812
G1 X88.097 Y108.884 E7.62377
G1 X72.769 Y108.884 E8.63846
G1 X70.416 Y106.531 E8.85876
G1 X70.416 Y73.337 E11.05616
G1 F1800.000 E10.05616
G92 E0
G1 X72.433 Y70.867 F6000.000
G1 X88.433 Y70.867
G1 X90.442 Y73.839
G1 F1800.000 E1.00000
G1 X92.272 Y72.009 F540.000 E1.17135
G1 X106.861 Y72.009 E2.13708
G1 X108.691 Y73.839 E2.30843
G1 X108.691 Y106.428 E4.46574
G1 X106.861 Y108.258 E4.63709
G1 X92.272 Y108.258 E5.60282
G1 X90.442 Y106.428 E5.77417
G1 X90.442 Y73.973 E7.92261
G1 X89.558 Y73.572 F6000.000
G1 X89.558 Y106.161 F540.000 E10.07992
G1 X87.728 Y107.991 E10.25127
G1 X73.139 Y107.991 E11.21700
G1 X71.309 Y106.161 E11.38835
G1 X71.309 Y73.572 E13.54566
G1 X73.139 Y71.742 E13.71701
G1 X87.728 Y71.742 E14.68274
G1 X89.463 Y73.478 E14.84522
G1 F1800.000 E13.84522
G92 E0
G1 X88.433 Y70.867 F6000.000
G1 X91.335 Y74.209
G1 F1800.000 E1.00000
G1 X92.642 Y72.902 F540.000 E1.12239
G1 X106.491 Y72.902 E2.03917
G1 X107.798 Y74.209 E2.16156
G1 X107.798 Y106.058 E4.26991
G1 X106.491 Y107.365 E4.39230
G1 X92.642 Y107.365 E5.30908
G1 X91.335 Y106.058 E5.43147
G1 X91.335 Y74.343 E7.53096
G1 F1800.000 E6.53096
G92 E0
G1 X88.433 Y70.867 F6000.000
G1 X88.665 Y73.942
G1 F1800.000 E1.00000
G1 X88.665 Y105.791 F540.000 E3.10835
G1 X87.358 Y107.098 E3.23075
G1 X73.509 Y107.098 E4.14752
G1 X72.202 Y105.791 E4.26991
G1 X72.202 Y73.942 E6.37827
G1 X73.509 Y72.635 E6.50066
G1 X87.358 Y72.635 E7.41743
G1 X88.570 Y73.848 E7.53096
G1 F1800.000 E6.53096
G92 E0
G1 X88.433 Y70.867 F6000.000
G1 X92.228 Y74.579
G1 F1800.000 E1.00000
G1 X93.012 Y73.794 F540.000 E1.07343
G1 X106.121 Y73.794 E1.94125
G1 X106.906 Y74.579 E2.01469
G1 X106.906 Y105.688 E4.07409
G1 X106.121 Y106.472 E4.14752
G1 X93.012 Y106.472 E5.01534
G1 X92.228 Y105.688 E5.08878
G1 X92.228 Y74.713 E7.13931
G1 F1800.000 E6.13931
G92 E0
G1 X88.433 Y70.867 F6000.000
G1 X87.772 Y74.312
G1 F1800.000 E1.00000
G1 X87.772 Y105.421 F540.000 E3.05940
G1 X86.988 Y106.206 E3.13283
G1 X73.879 Y106.206 E4.00065
G1 X73.094 Y105.421 E4.07409
G1 X73.094 Y74.312 E6.13348
G1 X73.879 Y73.528 E6.20692
G1 X86.988 Y73.528 E7.07474
G1 X87.678 Y74.217 E7.13931
G1 F1800.000 E6.13931
G92 E0
G1 X88.433 Y70.867 F6000.000
G1 X93.120 Y74.948
G1 F1800.000 E1.00000
G1 X93.382 Y74.687 F540.000 E1.02448
G1 X105.752 Y74.687 E1.84334
G1 X106.013 Y74.948 E1.86782
G1 X106.013 Y105.318 E3.87826
G1 X105.752 Y105.580 E3.90274
G1 X93.382 Y105.580 E4.72160
G1 X93.120 Y105.318 E4.74608
G1 X93.120 Y75.082 E6.74766
G1 F1800.000 E5.74766
G92 E0
G1 X88.433 Y70.867 F6000.000
G1 X86.880 Y74.682
G1 F1800.000 E1.00000
G1 X86.880 Y105.052 F540.000 E3.01044
G1 X86.618 Y105.313 E3.03492
G1 X74.248 Y105.313 E3.85378
G1 X73.987 Y105.052 E3.87826
G1 X73.987 Y74.682 E5.88870
G1 X74.248 Y74.420 E5.91318
G1 X86.618 Y74.420 E6.73204
G1 X86.785 Y74.587 E6.74766
G1 X85.987 Y75.313 F6000.000
G1 X85.987 Y104.420 F378.000 E8.67453
G1 X74.880 Y104.420 E9.40982
G1 X74.880 Y75.313 E11.33668
G1 X85.853 Y75.313 E12.06311
G1 X85.541 Y76.086 F6000.000
G1 X85.094 Y76.206
G1 X85.094 Y103.528 F540.000 E13.87179
G1 X75.772 Y103.528 E14.48888
G1 X75.772 Y76.206 E16.29756
G1 X84.960 Y76.206 E16.90579
G1 X84.202 Y77.098 F6000.000
G1 X84.202 Y102.635 F540.000 E18.59628
G1 X76.665 Y102.635 E19.09519
G1 X76.665 Y77.098 E20.78567
G1 X84.068 Y77.098 E21.27572
G1 X83.554 Y77.745 F6000.000
G1 X83.554 Y79.016 F1080.000 E21.36033
G1 X82.284 Y77.745 E21.47998
G1 X81.014 Y77.745 E21.56458
G1 X83.554 Y80.286 E21.80388
G1 X83.554 Y81.556 E21.88848
G1 X79.744 Y77.745 E22.24741
G1 X78.474 Y77.745 E22.33201
G1 X83.554 Y82.826 E22.81059
G1 X83.554 Y84.097 E22.89518
G1 X77.312 Y77.854 E23.48316
G1 X77.312 Y79.124 E23.56775
G1 X83.554 Y85.367 E24.15572
G1 X83.554 Y86.637 E24.24032
G1 X77.312 Y80.395 E24.82829
G1 X77.312 Y81.665 E24.91289
G1 X83.554 Y87.907 E25.50086
G1 X83.554 Y89.177 E25.58546
G1 X77.312 Y82.935 E26.17343
G1 X77.312 Y84.205 E26.25803
G1 X83.554 Y90.447 E26.84600
G1 X83.554 Y91.718 E26.93060
G1 X77.312 Y85.475 E27.51857
G1 X77.312 Y86.745 E27.60317
G1 X83.554 Y92.988 E28.19114
G1 X83.554 Y94.258 E28.27573
G1 X77.312 Y88.016 E28.86371
G1 X77.312 Y89.286 E28.94830
G1 X83.554 Y95.528 E29.53627
G1 X83.554 Y96.798 E29.62087
G1 X77.312 Y90.556 E30.20884
G1 X77.312 Y91.826 E30.29344
G1 X83.554 Y98.069 E30.88141
G1 X83.554 Y99.339 E30.96601
G1 X77.312 Y93.096 E31.55398
G1 X77.312 Y94.367 E31.63858
G1 X83.554 Y100.609 E32.22655
G1 X83.554 Y101.879 E32.31115
G1 X77.312 Y95.637 E32.89912
G1 X77.312 Y96.907 E32.98372
G1 X82.393 Y101.988 E33.46229
G1 X81.123 Y101.988 E33.54689
G1 X77.312 Y98.177 E33.90583
G1 X77.312 Y99.447 E33.99042
G1 X79.853 Y101.988 E34.22972
G1 X78.583 Y101.988 E34.31432
G1 X77.312 Y100.717 E34.43398
G1 X77.312 Y101.988 E34.51859
G1 F1800.000 E33.51859
G92 E0
G1 X73.191 Y107.867 F6000.000
G1 X87.676 Y107.867
G1 X90.567 Y106.376
G1 X94.013 Y104.687
G1 F1800.000 E1.00000
G1 X94.013 Y75.580 F378.000 E2.92687
G1 X105.120 Y75.580 E3.66216
G1 X105.120 Y104.687 E5.58903
G1 X94.147 Y104.687 E6.31545
G1 X94.459 Y103.914 F6000.000
G1 X94.906 Y103.794
G1 X94.906 Y76.472 F540.000 E8.12413
G1 X104.228 Y76.472 E8.74123
G1 X104.228 Y103.794 E10.54990
G1 X95.040 Y103.794 E11.15814
G1 X95.798 Y102.902 F6000.000
G1 X95.798 Y77.365 F540.000 E12.84862
G1 X103.335 Y77.365 E13.34753
G1 X103.335 Y102.902 E15.03801
G1 X95.932 Y102.902 E15.52806
G1 X96.446 Y102.254 F6000.000
G1 X96.445 Y100.984 F1080.000 E15.61267
G1 X97.716 Y102.254 E15.73233
G1 X98.986 Y102.254 E15.81692
G1 X96.445 Y99.714 E16.05622
G1 X96.445 Y98.444 E16.14082
G1 X100.256 Y102.254 E16.49976
G1 X101.526 Y102.254 E16.58435
G1 X96.445 Y97.174 E17.06293
G1 X96.445 Y95.903 E17.14753
G1 X102.688 Y102.146 E17.73550
G1 X102.688 Y100.876 E17.82010
G1 X96.445 Y94.633 E18.40807
G1 X96.445 Y93.363 E18.49266
G1 X102.688 Y99.605 E19.08064
G1 X102.688 Y98.335 E19.16523
G1 X96.445 Y92.093 E19.75320
G1 X96.445 Y90.823 E19.83780
G1 X102.688 Y97.065 E20.42577
G1 X102.688 Y95.795 E20.51037
G1 X96.445 Y89.553 E21.09834
G1 X96.445 Y88.282 E21.18294
G1 X102.688 Y94.525 E21.77091
G1 X102.688 Y93.254 E21.85551
G1 X96.445 Y87.012 E22.44348
G1 X96.445 Y85.742 E22.52808
G1 X102.688 Y91.984 E23.11605
G1 X102.688 Y90.714 E23.20065
G1 X96.445 Y84.472 E23.78862
G1 X96.445 Y83.202 E23.87321
G1 X102.688 Y89.444 E24.46119
G1 X102.688 Y88.174 E24.54578
G1 X96.445 Y81.931 E25.13375
G1 X96.445 Y80.661 E25.21835
G1 X102.688 Y86.904 E25.80632
G1 X102.688 Y85.633 E25.89092
G1 X96.445 Y79.391 E26.47889
G1 X96.445 Y78.121 E26.56349
G1 X102.688 Y84.363 E27.15146
G1 X102.688 Y83.093 E27.23606
G1 X97.607 Y78.012 E27.71463
G1 X98.877 Y78.012 E27.79923
G1 X102.688 Y81.823 E28.15817
G1 X102.688 Y80.553 E28.24277
G1 X100.147 Y78.012 E28.48206
G1 X101.417 Y78.012 E28.56666
G1 X102.688 Y79.283 E28.68632
G1 X102.688 Y78.012 E28.77093
M106 S229
M104 S225 ; set temperature
M140 S110 ; set bed temperature
G1 F1800.000 E27.77093
G92 E0
G1 Z-0.590 F6000.000
G1 X106.809 Y72.133
G1 X87.676 Y71.867
G1 X85.183 Y76.117
G1 F1800.000 E1.00000
G1 X85.183 Y103.617 F1800.000 E1.63218
G1 X75.683 Y103.617 E1.85057
G1 X75.683 Y76.117 E2.48274
G1 X85.108 Y76.117 E2.69941
G1 X85.683 Y75.617 F6000.000
G1 X85.683 Y104.117 F1800.000 E3.35458
G1 X75.183 Y104.117 E3.59595
G1 X75.183 Y75.617 E4.25112
G1 X85.608 Y75.617 E4.49077
G1 X86.183 Y75.117 F6000.000
G1 X86.183 Y104.617 F1260.000 E5.16893
G1 X74.683 Y104.617 E5.43329
G1 X74.683 Y75.117 E6.11145
G1 X86.108 Y75.117 E6.37409
G1 X85.933 Y75.550 F6000.000
G1 X76.046 Y76.479
G1 X76.757 Y76.479 F3600.000 E6.39053
G1 X76.046 Y77.190 E6.41378
G1 X76.046 Y77.901 E6.43021
G1 X77.468 Y76.479 E6.47670
G1 X78.179 Y76.479 E6.49314
G1 X76.046 Y78.612 E6.56287
G1 X76.046 Y79.323 E6.57930
G1 X78.890 Y76.479 E6.67228
G1 X79.601 Y76.479 E6.68871
G1 X76.046 Y80.034 E6.80493
G1 X76.046 Y80.745 E6.82137
G1 X80.312 Y76.479 E6.96083
G1 X81.023 Y76.479 E6.97726
G1 X76.046 Y81.456 E7.13996
G1 X76.046 Y82.167 E7.15640
G1 X81.734 Y76.479 E7.34234
G1 X82.445 Y76.479 E7.35878
G1 X76.046 Y82.878 E7.56796
G1 X76.046 Y83.589 E7.58440
G1 X83.156 Y76.479 E7.81683
G1 X83.867 Y76.479 E7.83326
G1 X76.046 Y84.300 E8.08893
G1 X76.046 Y85.011 E8.10537
G1 X84.578 Y76.479 E8.38428
G1 X84.821 Y76.947 E8.39647
G1 X76.046 Y85.722 E8.68333
G1 X76.046 Y86.433 E8.69976
G1 X84.821 Y77.658 E8.98662
G1 X84.821 Y78.369 E9.00306
G1 X76.046 Y87.144 E9.28991
G1 X76.046 Y87.855 E9.30635
G1 X84.821 Y79.080 E9.59321
G1 X84.821 Y79.791 E9.60964
G1 X76.046 Y88.566 E9.89650
G1 X76.046 Y89.277 E9.91293
G1 X84.821 Y80.502 E10.19979
G1 X84.821 Y81.213 E10.21623
G1 X76.046 Y89.988 E10.50308
G1 X76.046 Y90.699 E10.51952
G1 X84.821 Y81.924 E10.80638
G1 X84.821 Y82.635 E10.82281
G1 X76.046 Y91.410 E11.10967
G1 X76.046 Y92.121 E11.12610
G1 X84.821 Y83.346 E11.41296
G1 X84.821 Y84.057 E11.42939
G1 X76.046 Y92.832 E11.71625
G1 X76.046 Y93.543 E11.73269
G1 X84.821 Y84.768 E12.01954
G1 X84.821 Y85.479 E12.03598
G1 X76.046 Y94.254 E12.32284
G1 X76.046 Y94.965 E12.33927
G1 X84.821 Y86.190 E12.62613
G1 X84.821 Y86.901 E12.64256
G1 X76.046 Y95.676 E12.92942
G1 X76.046 Y96.387 E12.94586
G1 X84.821 Y87.612 E13.23271
G1 X84.821 Y88.323 E13.24915
G1 X76.046 Y97.098 E13.53601
G1 X76.046 Y97.809 E13.55244
G1 X84.821 Y89.034 E13.83930
G1 X84.821 Y89.745 E13.85573
G1 X76.046 Y98.520 E14.14259
G1 X76.046 Y99.231 E14.15903
G1 X84.821 Y90.456 E14.44588
G1 X84.821 Y91.167 E14.46232
G1 X76.046 Y99.942 E14.74918
G1 X76.046 Y100.653 E14.76561
G1 X84.821 Y91.878 E15.05247
G1 X84.821 Y92.589 E15.06890
G1 X76.046 Y101.364 E15.35576
G1 X76.046 Y102.075 E15.37220
G1 X84.821 Y93.300 E15.65905
G1 X84.821 Y94.011 E15.67549
G1 X76.046 Y102.786 E15.96235
G1 X76.289 Y103.254 E15.97453
G1 X84.821 Y94.722 E16.25345
G1 X84.821 Y95.433 E16.26988
G1 X77.000 Y103.254 E16.52555
G1 X77.711 Y103.254 E16.54199
G1 X84.821 Y96.144 E16.77442
G1 X84.821 Y96.855 E16.79085
G1 X78.422 Y103.254 E17.00004
G1 X79.133 Y103.254 E17.01647
G1 X84.821 Y97.566 E17.20242
G1 X84.821 Y98.277 E17.21885
G1 X79.844 Y103.254 E17.38156
G1 X80.555 Y103.254 E17.39799
G1 X84.821 Y98.988 E17.53745
G1 X84.821 Y99.699 E17.55388
G1 X81.266 Y103.254 E17.67010
G1 X81.977 Y103.254 E17.68654
G1 X84.821 Y100.410 E17.77951
G1 X84.821 Y101.121 E17.79595
G1 X82.688 Y103.254 E17.86568
G1 X83.399 Y103.254 E17.88212
G1 X84.821 Y101.832 E17.92861
G1 X84.821 Y102.543 E17.94504
