; generated by Slic3r 0.9.9 on 2013-07-09 at 22:07:45

; layer_height = 0.25
; perimeters = 3
; top_solid_layers = 3
; bottom_solid_layers = 3
; fill_density = 0.4
; perimeter_speed = 30
; infill_speed = 60
; travel_speed = 100  
; nozzle_diameter = 0.5
; filament_diameter = 2.93
; extrusion_multiplier = 1
; perimeters extrusion width = 0.84mm
; infill extrusion width = 0.84mm
; solid infill extrusion width = 0.84mm
; top infill extrusion width = 0.84mm
; first layer extrusion width = 0.80mm

G21 ; set units to millimeters
M107
M190 S120 ; wait for bed temperature to be reached
M104 S240 ; set temperature
G28 ; home all axes
G1 Z5 F5000 ; lift nozzle
M109 S240 ; wait for temperature to be reached
G90 ; use absolute coordinates
G92 E0
M82 ; use absolute distances for extrusion
G1 F1800.000 E-1.00000
G92 E0
G1 Z-1.000 F6000.000
G1 X65.890 Y48.450
G1 F1800.000 E1.00000
G1 X66.420 Y47.780 F540.000 E1.03728
G1 X67.030 Y47.170 E1.07493
G1 X67.700 Y46.640 E1.11221
G1 X68.180 Y46.330 E1.13715
G1 X68.680 Y46.050 E1.16215
G1 X68.940 Y45.930 E1.17465
G1 X69.470 Y45.720 E1.19953
G1 X69.750 Y45.630 E1.21236
G1 X70.580 Y45.420 E1.24973
G1 X71.430 Y45.300 E1.28719
G1 X71.710 Y45.280 E1.29944
G1 X108.290 Y45.280 E2.89580
G1 X109.140 Y45.370 E2.93311
G1 X109.700 Y45.480 E2.95801
G1 X110.250 Y45.630 E2.98289
G1 X110.790 Y45.820 E3.00787
G1 X111.320 Y46.050 E3.03309
G1 X112.060 Y46.480 E3.07044
G1 X112.530 Y46.810 E3.09550
G1 X112.970 Y47.170 E3.12031
G1 X113.580 Y47.780 E3.15795
G1 X114.110 Y48.450 E3.19524
G1 X114.420 Y48.930 E3.22017
G1 X114.700 Y49.430 E3.24518
G1 X115.030 Y50.220 E3.28254
G1 X115.200 Y50.770 E3.30767
G1 X115.380 Y51.610 E3.34516
G1 X115.470 Y52.460 E3.38246
G1 X115.470 Y127.540 E6.65897
G1 X115.380 Y128.390 E6.69628
G1 X115.270 Y128.950 E6.72118
G1 X115.120 Y129.500 E6.74606
G1 X114.930 Y130.040 E6.77104
G1 X114.700 Y130.570 E6.79625
G1 X114.270 Y131.310 E6.83360
G1 X113.940 Y131.780 E6.85867
G1 X113.580 Y132.220 E6.88348
G1 X112.970 Y132.830 E6.92112
G1 X112.300 Y133.360 E6.95841
G1 X111.820 Y133.670 E6.98334
G1 X111.320 Y133.950 E7.00835
G1 X110.530 Y134.280 E7.04571
G1 X109.980 Y134.450 E7.07084
G1 X109.140 Y134.630 E7.10833
G1 X108.290 Y134.720 E7.14563
G1 X71.710 Y134.720 E8.74199
G1 X71.430 Y134.700 E8.75424
G1 X70.580 Y134.580 E8.79170
G1 X70.020 Y134.450 E8.81679
G1 X69.470 Y134.280 E8.84191
G1 X68.680 Y133.950 E8.87928
G1 X68.180 Y133.670 E8.90429
G1 X67.700 Y133.360 E8.92922
G1 X67.030 Y132.830 E8.96650
G1 X66.420 Y132.220 E9.00415
G1 X65.890 Y131.550 E9.04143
G1 X65.580 Y131.070 E9.06637
G1 X65.300 Y130.570 E9.09138
G1 X64.970 Y129.780 E9.12874
G1 X64.800 Y129.230 E9.15386
G1 X64.620 Y128.390 E9.19135
G1 X64.530 Y127.540 E9.22865
G1 X64.530 Y52.460 E12.50517
G1 X64.580 Y51.890 E12.53014
G1 X64.670 Y51.330 E12.55489
G1 X64.800 Y50.770 E12.57998
G1 X64.970 Y50.220 E12.60510
G1 X65.300 Y49.430 E12.64247
G1 X65.580 Y48.930 E12.66747
G1 X65.829 Y48.542 E12.68760
G1 X66.460 Y48.920 F6000.000
G1 X66.780 Y48.490 F540.000 E12.71099
G1 X67.330 Y47.890 E12.74651
G1 X67.950 Y47.370 E12.78182
G1 X68.630 Y46.920 E12.81741
G1 X69.110 Y46.660 E12.84123
G1 X69.360 Y46.550 E12.85315
G1 X70.130 Y46.280 E12.88876
G1 X70.920 Y46.100 E12.92412
G1 X71.190 Y46.060 E12.93603
G1 X71.730 Y46.020 E12.95966
G1 X108.000 Y46.010 E14.54249
G1 X108.810 Y46.060 E14.57791
G1 X109.350 Y46.150 E14.60180
G1 X109.870 Y46.280 E14.62519
G1 X110.390 Y46.450 E14.64907
G1 X110.890 Y46.660 E14.67273
G1 X111.600 Y47.060 E14.70830
G1 X112.260 Y47.530 E14.74366
G1 X112.670 Y47.890 E14.76747
G1 X113.040 Y48.280 E14.79093
G1 X113.220 Y48.490 E14.80300
G1 X113.540 Y48.920 E14.82639
G1 X113.830 Y49.380 E14.85012
G1 X114.090 Y49.860 E14.87394
G1 X114.390 Y50.620 E14.90960
G1 X114.600 Y51.400 E14.94485
G1 X114.690 Y51.940 E14.96874
G1 X114.740 Y52.750 E15.00416
G1 X114.730 Y127.520 E18.26715
G1 X114.690 Y128.060 E18.29078
G1 X114.650 Y128.330 E18.30269
G1 X114.540 Y128.860 E18.32631
G1 X114.390 Y129.380 E18.34993
G1 X114.090 Y130.140 E18.38559
G1 X113.830 Y130.620 E18.40941
G1 X113.540 Y131.080 E18.43314
G1 X113.220 Y131.510 E18.45653
G1 X112.860 Y131.920 E18.48034
G1 X112.260 Y132.470 E18.51586
G1 X111.600 Y132.940 E18.55122
G1 X110.890 Y133.340 E18.58679
G1 X110.130 Y133.640 E18.62244
G1 X109.350 Y133.850 E18.65770
G1 X108.810 Y133.940 E18.68159
G1 X108.000 Y133.990 E18.71700
G1 X71.730 Y133.980 E20.29984
G1 X71.190 Y133.940 E20.32347
G1 X70.920 Y133.900 E20.33538
G1 X70.390 Y133.790 E20.35900
G1 X69.870 Y133.640 E20.38262
G1 X69.110 Y133.340 E20.41828
G1 X68.630 Y133.080 E20.44210
G1 X68.170 Y132.790 E20.46583
G1 X67.740 Y132.470 E20.48922
G1 X67.330 Y132.110 E20.51303
G1 X66.780 Y131.510 E20.54855
G1 X66.310 Y130.850 E20.58391
G1 X65.910 Y130.140 E20.61948
G1 X65.610 Y129.380 E20.65513
G1 X65.400 Y128.600 E20.69038
G1 X65.310 Y128.060 E20.71428
G1 X65.260 Y127.250 E20.74969
G1 X65.260 Y52.750 E24.00090
G1 X65.310 Y51.940 E24.03631
G1 X65.400 Y51.400 E24.06020
G1 X65.530 Y50.880 E24.08359
G1 X65.700 Y50.360 E24.10747
G1 X65.910 Y49.860 E24.13114
G1 X66.170 Y49.380 E24.15496
G1 X66.400 Y49.012 E24.17388
G1 F1800.000 E23.17388
G92 E0
G1 X94.324 Y93.204 F6000.000
G1 F1800.000 E1.00000
G1 X109.676 Y93.204 F540.000 E1.66996
G1 X112.046 Y95.574 E1.81623
G1 X112.046 Y128.926 E3.27171
G1 X109.676 Y131.296 E3.41798
G1 X94.324 Y131.296 E4.08793
G1 X91.954 Y128.926 E4.23420
G1 X91.954 Y95.574 E5.68968
G1 X94.246 Y93.282 E5.83114
G1 F1800.000 E4.83114
G92 E0
G1 X94.000 Y93.250 F6000.000
G1 X86.000 Y93.250
G1 X88.046 Y95.574
G1 F1800.000 E1.00000
G1 X88.046 Y128.926 F540.000 E2.45548
G1 X85.676 Y131.296 E2.60175
G1 X70.324 Y131.296 E3.27171
G1 X67.954 Y128.926 E3.41798
G1 X67.954 Y95.574 E4.87346
G1 X70.324 Y93.204 E5.01973
G1 X85.676 Y93.204 E5.68968
G1 X87.968 Y95.496 E5.83114
G1 F1800.000 E4.83114
G92 E0
G1 X86.000 Y93.250 F6000.000
G1 X94.324 Y86.796
G1 F1800.000 E1.00000
G1 X91.954 Y84.426 F540.000 E1.14627
G1 X91.954 Y51.074 E2.60175
G1 X94.324 Y48.704 E2.74802
G1 X109.676 Y48.704 E3.41798
G1 X112.046 Y51.074 E3.56425
G1 X112.046 Y84.426 E5.01973
G1 X109.676 Y86.796 E5.16600
G1 X94.434 Y86.796 E5.83114
G1 F1800.000 E4.83114
G92 E0
G1 X96.500 Y90.750 F6000.000
G1 X88.046 Y84.426
G1 F1800.000 E1.00000
G1 X85.676 Y86.796 F540.000 E1.14627
G1 X70.324 Y86.796 E1.81623
G1 X67.954 Y84.426 E1.96250
G1 X67.954 Y51.074 E3.41798
G1 X70.324 Y48.704 E3.56425
G1 X85.676 Y48.704 E4.23420
G1 X88.046 Y51.074 E4.38047
G1 X88.046 Y84.316 E5.83114
G1 F1800.000 E4.83114
G92 E0
G1 X86.000 Y93.250 F6000.000
G1 X94.000 Y93.250
G1 X94.629 Y93.940
G1 F1800.000 E1.00000
G1 X109.371 Y93.940 F540.000 E1.64336
G1 X111.310 Y95.879 E1.76304
G1 X111.310 Y128.621 E3.19192
G1 X109.371 Y130.560 E3.31160
G1 X94.629 Y130.560 E3.95496
G1 X92.690 Y128.621 E4.07464
G1 X92.690 Y95.879 E5.50352
G1 X94.551 Y94.018 E5.61838
G1 F1800.000 E4.61838
G92 E0
G1 X94.000 Y93.250 F6000.000
G1 X86.000 Y93.250
G1 X87.310 Y95.879
G1 F1800.000 E1.00000
G1 X87.310 Y128.621 F540.000 E2.42889
G1 X85.371 Y130.560 E2.54856
G1 X70.629 Y130.560 E3.19192
G1 X68.690 Y128.621 E3.31160
G1 X68.690 Y95.879 E4.74049
G1 X70.629 Y93.940 E4.86016
G1 X85.371 Y93.940 E5.50352
G1 X87.232 Y95.801 E5.61838
G1 F1800.000 E4.61838
G92 E0
G1 X86.000 Y93.250 F6000.000
G1 X94.629 Y86.060
G1 F1800.000 E1.00000
G1 X92.690 Y84.121 F540.000 E1.11968
G1 X92.690 Y51.379 E2.54856
G1 X94.629 Y49.440 E2.66824
G1 X109.371 Y49.440 E3.31160
G1 X111.310 Y51.379 E3.43128
G1 X111.310 Y84.121 E4.86016
G1 X109.371 Y86.060 E4.97984
G1 X94.739 Y86.060 E5.61838
G1 F1800.000 E4.61838
G92 E0
G1 X96.500 Y90.750 F6000.000
G1 X87.310 Y84.121
G1 F1800.000 E1.00000
G1 X85.371 Y86.060 F540.000 E1.11968
G1 X70.629 Y86.060 E1.76304
G1 X68.690 Y84.121 E1.88271
G1 X68.690 Y51.379 E3.31160
G1 X70.629 Y49.440 E3.43128
G1 X85.371 Y49.440 E4.07464
G1 X87.310 Y51.379 E4.19431
G1 X87.310 Y84.011 E5.61838
G1 F1800.000 E4.61838
G92 E0
G1 X86.000 Y93.250 F6000.000
G1 X94.000 Y93.250
G1 X94.934 Y94.675
G1 F1800.000 E1.00000
G1 X109.066 Y94.675 F540.000 E1.61677
G1 X110.575 Y96.184 E1.70985
G1 X110.575 Y128.316 E3.11214
G1 X109.066 Y129.825 E3.20522
G1 X94.934 Y129.825 E3.82199
G1 X93.425 Y128.316 E3.91507
G1 X93.425 Y96.184 E5.31736
G1 X94.856 Y94.753 E5.40563
G1 F1800.000 E4.40563
G92 E0
G1 X94.000 Y93.250 F6000.000
G1 X86.000 Y93.250
G1 X86.575 Y96.184
G1 F1800.000 E1.00000
G1 X86.575 Y128.316 F540.000 E2.40229
G1 X85.066 Y129.825 E2.49537
G1 X70.934 Y129.825 E3.11214
G1 X69.425 Y128.316 E3.20522
G1 X69.425 Y96.184 E4.60751
G1 X70.934 Y94.675 E4.70059
G1 X85.066 Y94.675 E5.31736
G1 X86.497 Y96.106 E5.40562
G1 F1800.000 E4.40562
G92 E0
G1 X86.000 Y93.250 F6000.000
G1 X94.934 Y85.325
G1 F1800.000 E1.00000
G1 X93.425 Y83.816 F540.000 E1.09308
G1 X93.425 Y51.684 E2.49537
G1 X94.934 Y50.175 E2.58845
G1 X109.066 Y50.175 E3.20522
G1 X110.575 Y51.684 E3.29830
G1 X110.575 Y83.816 E4.70059
G1 X109.066 Y85.325 E4.79367
G1 X95.044 Y85.325 E5.40563
G1 F1800.000 E4.40563
G92 E0
G1 X96.500 Y90.750 F6000.000
G1 X86.575 Y83.816
G1 F1800.000 E1.00000
G1 X85.066 Y85.325 F540.000 E1.09308
G1 X70.934 Y85.325 E1.70985
G1 X69.425 Y83.816 E1.80293
G1 X69.425 Y51.684 E3.20522
G1 X70.934 Y50.175 E3.29830
G1 X85.066 Y50.175 E3.91507
G1 X86.575 Y51.684 E4.00815
G1 X86.575 Y83.706 E5.40562
G1 F1800.000 E4.40562
G92 E0
G1 X86.000 Y93.250 F6000.000
G1 X94.000 Y93.250
G1 X95.238 Y95.411
G1 F1800.000 E1.00000
G1 X108.762 Y95.411 F540.000 E1.59017
G1 X109.839 Y96.488 E1.65666
G1 X109.839 Y128.012 E3.03235
G1 X108.762 Y129.089 E3.09884
G1 X95.238 Y129.089 E3.68901
G1 X94.161 Y128.012 E3.75550
G1 X94.161 Y96.488 E5.13120
G1 X95.160 Y95.489 E5.19287
G1 F1800.000 E4.19287
G92 E0
G1 X94.000 Y93.250 F6000.000
G1 X86.000 Y93.250
G1 X85.839 Y96.488
G1 F1800.000 E1.00000
G1 X85.839 Y128.012 F540.000 E2.37570
G1 X84.762 Y129.089 E2.44218
G1 X71.238 Y129.089 E3.03235
G1 X70.161 Y128.012 E3.09884
G1 X70.161 Y96.488 E4.47454
G1 X71.238 Y95.411 E4.54102
G1 X84.762 Y95.411 E5.13120
G1 X85.761 Y96.410 E5.19287
G1 F1800.000 E4.19287
G92 E0
G1 X86.000 Y93.250 F6000.000
G1 X95.238 Y84.589
G1 F1800.000 E1.00000
G1 X94.161 Y83.512 F540.000 E1.06649
G1 X94.161 Y51.988 E2.44218
G1 X95.238 Y50.911 E2.50867
G1 X108.762 Y50.911 E3.09884
G1 X109.839 Y51.988 E3.16533
G1 X109.839 Y83.512 E4.54102
G1 X108.762 Y84.589 E4.60751
G1 X95.349 Y84.589 E5.19287
G1 F1800.000 E4.19287
G92 E0
G1 X96.500 Y90.750 F6000.000
G1 X83.500 Y90.750
G1 X85.839 Y83.512
G1 F1800.000 E1.00000
G1 X84.762 Y84.589 F540.000 E1.06649
G1 X71.238 Y84.589 E1.65666
G1 X70.161 Y83.512 E1.72314
G1 X70.161 Y51.988 E3.09884
G1 X71.238 Y50.911 E3.16533
G1 X84.762 Y50.911 E3.75550
G1 X85.839 Y51.988 E3.82199
G1 X85.839 Y83.401 E5.19287
G1 F1800.000 E4.19287
G92 E0
G1 X83.500 Y90.750 F6000.000
G1 X95.543 Y96.147
G1 F1800.000 E1.00000
G1 X108.457 Y96.147 F540.000 E1.56358
G1 X109.103 Y96.793 E1.60347
G1 X109.103 Y127.707 E2.95257
G1 X108.457 Y128.353 E2.99246
G1 X95.543 Y128.353 E3.55604
G1 X94.897 Y127.707 E3.59593
G1 X94.897 Y96.793 E4.94503
G1 X95.465 Y96.225 E4.98011
G1 F1800.000 E3.98011
G92 E0
G1 X94.000 Y93.250 F6000.000
G1 X86.000 Y93.250
G1 X85.103 Y96.793
G1 F1800.000 E1.00000
G1 X85.103 Y127.707 F540.000 E2.34910
G1 X84.457 Y128.353 E2.38899
G1 X71.543 Y128.353 E2.95257
G1 X70.897 Y127.707 E2.99246
G1 X70.897 Y96.793 E4.34156
G1 X71.543 Y96.147 E4.38146
G1 X84.457 Y96.147 E4.94503
G1 X85.025 Y96.715 E4.98011
G1 F1800.000 E3.98011
G92 E0
G1 X86.000 Y93.250 F6000.000
G1 X95.543 Y83.853
G1 F1800.000 E1.00000
G1 X94.897 Y83.207 F540.000 E1.03989
G1 X94.897 Y52.293 E2.38899
G1 X95.543 Y51.647 E2.42889
G1 X108.457 Y51.647 E2.99246
G1 X109.103 Y52.293 E3.03235
G1 X109.103 Y83.207 E4.38146
G1 X108.457 Y83.853 E4.42135
G1 X95.653 Y83.853 E4.98011
G1 F1800.000 E3.98011
G92 E0
G1 X96.500 Y90.750 F6000.000
G1 X83.500 Y90.750
G1 X85.103 Y83.207
G1 F1800.000 E1.00000
G1 X84.457 Y83.853 F540.000 E1.03989
G1 X71.543 Y83.853 E1.60347
G1 X70.897 Y83.207 E1.64336
G1 X70.897 Y52.293 E2.99246
G1 X71.543 Y51.647 E3.03235
G1 X84.457 Y51.647 E3.59593
G1 X85.103 Y52.293 E3.63582
G1 X85.103 Y83.097 E4.98011
G1 F1800.000 E3.98011
G92 E0
G1 X83.500 Y90.750 F6000.000
G1 X95.848 Y96.882
G1 F1800.000 E1.00000
G1 X108.152 Y96.882 F540.000 E1.53698
G1 X108.368 Y97.098 E1.55028
G1 X108.368 Y127.402 E2.87279
G1 X108.152 Y127.618 E2.88608
G1 X95.848 Y127.618 E3.42306
G1 X95.632 Y127.402 E3.43636
G1 X95.632 Y97.098 E4.75887
G1 X95.770 Y96.960 E4.76735
G1 F1800.000 E3.76735
G92 E0
G1 X94.000 Y93.250 F6000.000
G1 X86.000 Y93.250
G1 X84.368 Y97.098
G1 F1800.000 E1.00000
G1 X84.368 Y127.402 F540.000 E2.32251
G1 X84.152 Y127.618 E2.33580
G1 X71.848 Y127.618 E2.87279
G1 X71.632 Y127.402 E2.88608
G1 X71.632 Y97.098 E4.20859
G1 X71.848 Y96.882 E4.22189
G1 X84.152 Y96.882 E4.75887
G1 X84.290 Y97.020 E4.76735
G1 F1800.000 E3.76735
G92 E0
G1 X86.000 Y93.250 F6000.000
G1 X95.848 Y83.118
G1 F1800.000 E1.00000
G1 X95.632 Y82.902 F540.000 E1.01330
G1 X95.632 Y52.598 E2.33580
G1 X95.848 Y52.382 E2.34910
G1 X108.152 Y52.382 E2.88608
G1 X108.368 Y52.598 E2.89938
G1 X108.368 Y82.902 E4.22189
G1 X108.152 Y83.118 E4.23519
G1 X95.958 Y83.118 E4.76735
G1 F1800.000 E3.76735
G92 E0
G1 X96.500 Y90.750 F6000.000
G1 X83.500 Y90.750
G1 X84.368 Y82.902
G1 F1800.000 E1.00000
G1 X84.152 Y83.118 F540.000 E1.01330
G1 X71.848 Y83.118 E1.55028
G1 X71.632 Y82.902 E1.56358
G1 X71.632 Y52.598 E2.88608
G1 X71.848 Y52.382 E2.89938
G1 X84.152 Y52.382 E3.43636
G1 X84.368 Y52.598 E3.44966
G1 X84.368 Y82.792 E4.76735
G1 F1800.000 E3.76735
G92 E0
G1 X83.632 Y97.618 F6000.000
G1 F1800.000 E1.00000
G1 X83.632 Y126.882 F378.000 E2.27711
G1 X72.368 Y126.882 E2.76869
G1 X72.368 Y97.618 E4.04580
G1 X83.522 Y97.618 E4.53256
G1 X83.264 Y98.255 F6000.000
G1 X82.897 Y98.353
G1 X82.897 Y126.147 F540.000 E5.74546
G1 X73.103 Y126.147 E6.17284
G1 X73.103 Y98.353 E7.38574
G1 X82.786 Y98.353 E7.80830
G1 X82.161 Y99.089 F6000.000
G1 X82.161 Y125.411 F540.000 E8.95700
G1 X73.839 Y125.411 E9.32017
G1 X73.839 Y99.089 E10.46887
G1 X82.051 Y99.089 E10.82722
G1 X81.628 Y99.622 F6000.000
G1 X80.579 Y99.622 F1080.000 E10.87337
G1 X81.628 Y100.671 E10.93862
G1 X81.628 Y101.720 E10.98476
G1 X79.530 Y99.622 E11.11527
G1 X78.481 Y99.622 E11.16140
G1 X81.628 Y102.769 E11.35716
G1 X81.628 Y103.817 E11.40329
G1 X77.433 Y99.622 E11.66429
G1 X76.384 Y99.622 E11.71043
G1 X81.628 Y104.866 E12.03668
G1 X81.628 Y105.915 E12.08281
G1 X75.335 Y99.622 E12.47431
G1 X74.372 Y99.708 E12.51684
G1 X81.628 Y106.964 E12.96824
G1 X81.628 Y108.012 E13.01438
G1 X74.372 Y100.757 E13.46578
G1 X74.372 Y101.805 E13.51192
G1 X81.628 Y109.061 E13.96332
G1 X81.628 Y110.110 E14.00946
G1 X74.372 Y102.854 E14.46086
G1 X74.372 Y103.903 E14.50700
G1 X81.628 Y111.158 E14.95840
G1 X81.628 Y112.207 E15.00454
G1 X74.372 Y104.952 E15.45595
G1 X74.372 Y106.000 E15.50208
G1 X81.628 Y113.256 E15.95349
G1 X81.628 Y114.305 E15.99962
G1 X74.372 Y107.049 E16.45103
G1 X74.372 Y108.098 E16.49716
G1 X81.628 Y115.353 E16.94857
G1 X81.628 Y116.402 E16.99470
G1 X74.372 Y109.147 E17.44611
G1 X74.372 Y110.195 E17.49224
G1 X81.628 Y117.451 E17.94365
G1 X81.628 Y118.500 E17.98978
G1 X74.372 Y111.244 E18.44119
G1 X74.372 Y112.293 E18.48733
G1 X81.628 Y119.548 E18.93873
G1 X81.628 Y120.597 E18.98487
G1 X74.372 Y113.342 E19.43627
G1 X74.372 Y114.390 E19.48241
G1 X81.628 Y121.646 E19.93381
G1 X81.628 Y122.694 E19.97995
G1 X74.372 Y115.439 E20.43135
G1 X74.372 Y116.488 E20.47749
G1 X81.628 Y123.743 E20.92889
G1 X81.628 Y124.792 E20.97503
G1 X74.372 Y117.536 E21.42643
G1 X74.372 Y118.585 E21.47257
G1 X80.665 Y124.878 E21.86406
G1 X79.616 Y124.878 E21.91020
G1 X74.372 Y119.634 E22.23645
G1 X74.372 Y120.683 E22.28259
G1 X78.567 Y124.878 E22.54359
G1 X77.519 Y124.878 E22.58972
G1 X74.372 Y121.731 E22.78548
G1 X74.372 Y122.780 E22.83161
G1 X76.470 Y124.878 E22.96212
G1 X75.421 Y124.878 E23.00826
G1 X74.372 Y123.829 E23.07352
G1 X74.372 Y124.878 E23.11966
G1 F1800.000 E22.11966
G92 E0
G1 X72.500 Y126.750 F6000.000
G1 X83.500 Y126.750
G1 X96.500 Y126.750
G1 X96.368 Y126.882
G1 F1800.000 E1.00000
G1 X96.368 Y97.618 F378.000 E2.27711
G1 X107.632 Y97.618 E2.76869
G1 X107.632 Y126.882 E4.04580
G1 X96.478 Y126.882 E4.53256
