; generated by Slic3r 0.9.9 on 2013-07-10 at 18:16:19

; layer_height = 0.25
; perimeters = 3
; top_solid_layers = 3
; bottom_solid_layers = 3
; fill_density = 0.4
; perimeter_speed = 30
; infill_speed = 60
; travel_speed = 130
; nozzle_diameter = 0.5
; filament_diameter = 2.92
; extrusion_multiplier = 1
; perimeters extrusion width = 0.50mm
; infill extrusion width = 0.50mm
; solid infill extrusion width = 0.50mm
; top infill extrusion width = 0.50mm
; first layer extrusion width = 1.00mm

G21 ; set units to millimeters
M190 S115 ; wait for bed temperature to be reached
M104 S230 ; set temperature
G28 ; home all axes
G1 Z5 F5000 ; lift nozzle
M109 S230 ; wait for temperature to be reached
G90 ; use absolute coordinates
G92 E0
M82 ; use absolute distances for extrusion
G1 F1800.000 E-1.20000
G92 E0
G1 Z-0.900 F7800.000
G1 X57.520 Y64.760
G1 F1800.000 E1.20000
G1 X57.950 Y64.420 F540.000 E1.23654
G1 X58.400 Y64.120 E1.27259
G1 X59.110 Y63.740 E1.32626
G1 X59.610 Y63.530 E1.36241
G1 X59.870 Y63.440 E1.38075
G1 X60.660 Y63.240 E1.43506
G1 X60.920 Y63.190 E1.45271
G1 X61.730 Y63.110 E1.50696
G1 X98.270 Y63.110 E3.94246
G1 X99.080 Y63.190 E3.99671
G1 X99.340 Y63.240 E4.01436
G1 X100.130 Y63.440 E4.06868
G1 X100.390 Y63.530 E4.08702
G1 X100.890 Y63.740 E4.12316
G1 X101.600 Y64.120 E4.17684
G1 X102.050 Y64.420 E4.21289
G1 X102.480 Y64.760 E4.24942
G1 X103.060 Y65.320 E4.30316
G1 X103.580 Y65.950 E4.35761
G1 X103.880 Y66.400 E4.39366
G1 X104.260 Y67.110 E4.44733
G1 X104.560 Y67.870 E4.50179
G1 X104.700 Y68.390 E4.53769
G1 X104.810 Y68.920 E4.57377
G1 X104.890 Y69.730 E4.62802
G1 X104.890 Y100.270 E6.66360
G1 X104.810 Y101.080 E6.71785
G1 X104.760 Y101.340 E6.73550
G1 X104.560 Y102.130 E6.78981
G1 X104.470 Y102.390 E6.80815
G1 X104.260 Y102.890 E6.84430
G1 X103.880 Y103.600 E6.89797
G1 X103.580 Y104.050 E6.93402
G1 X103.240 Y104.480 E6.97056
G1 X102.680 Y105.060 E7.02430
G1 X102.050 Y105.580 E7.07875
G1 X101.600 Y105.880 E7.11479
G1 X100.890 Y106.260 E7.16847
G1 X100.130 Y106.560 E7.22293
G1 X99.610 Y106.700 E7.25882
G1 X99.080 Y106.810 E7.29490
G1 X98.270 Y106.890 E7.34915
G1 X61.730 Y106.890 E9.78465
G1 X60.920 Y106.810 E9.83890
G1 X60.660 Y106.760 E9.85655
G1 X59.870 Y106.560 E9.91087
G1 X59.610 Y106.470 E9.92921
G1 X59.110 Y106.260 E9.96535
G1 X58.400 Y105.880 E10.01903
G1 X57.950 Y105.580 E10.05508
G1 X57.520 Y105.240 E10.09162
G1 X56.940 Y104.680 E10.14535
G1 X56.420 Y104.050 E10.19980
G1 X56.120 Y103.600 E10.23585
G1 X55.740 Y102.890 E10.28952
G1 X55.440 Y102.130 E10.34398
G1 X55.300 Y101.610 E10.37988
G1 X55.190 Y101.080 E10.41596
G1 X55.110 Y100.270 E10.47021
G1 X55.110 Y69.730 E12.50579
G1 X55.190 Y68.920 E12.56004
G1 X55.300 Y68.390 E12.59612
G1 X55.440 Y67.870 E12.63201
G1 X55.740 Y67.110 E12.68647
G1 X56.120 Y66.400 E12.74015
G1 X56.420 Y65.950 E12.77620
G1 X56.940 Y65.320 E12.83065
G1 X57.420 Y64.850 E12.87546
G1 F1800.000 E11.67546
G92 E0
G1 X81.983 Y68.336 F7800.000
G1 F1800.000 E1.20000
G1 X84.336 Y65.983 F540.000 E1.42182
G1 X99.664 Y65.983 E2.44347
G1 X102.017 Y68.336 E2.66528
G1 X102.017 Y101.664 E4.88669
G1 X99.664 Y104.017 E5.10850
G1 X84.336 Y104.017 E6.13015
G1 X81.983 Y101.664 E6.35197
G1 X81.983 Y68.470 E8.56445
G1 F1800.000 E7.36445
G92 E0
G1 X78.017 Y68.336 F7800.000
G1 F1800.000 E1.20000
G1 X78.017 Y101.664 F540.000 E3.42140
G1 X75.664 Y104.017 E3.64322
G1 X60.336 Y104.017 E4.66487
G1 X57.983 Y101.664 E4.88669
G1 X57.983 Y68.336 E7.10809
G1 X60.336 Y65.983 E7.32991
G1 X75.664 Y65.983 E8.35156
G1 X77.922 Y68.241 E8.56445
G1 F1800.000 E7.36445
G92 E0
G1 X82.876 Y68.706 F7800.000
G1 F1800.000 E1.20000
G1 X84.706 Y66.876 F540.000 E1.37252
G1 X99.294 Y66.876 E2.34488
G1 X101.124 Y68.706 E2.51740
G1 X101.124 Y101.294 E4.68952
G1 X99.294 Y103.124 E4.86204
G1 X84.706 Y103.124 E5.83440
G1 X82.876 Y101.294 E6.00692
G1 X82.876 Y68.840 E8.17011
G1 F1800.000 E6.97011
G92 E0
G1 X77.124 Y68.706 F7800.000
G1 F1800.000 E1.20000
G1 X77.124 Y101.294 F540.000 E3.37211
G1 X75.294 Y103.124 E3.54463
G1 X60.706 Y103.124 E4.51699
G1 X58.876 Y101.294 E4.68952
G1 X58.876 Y68.706 E6.86163
G1 X60.706 Y66.876 E7.03415
G1 X75.294 Y66.876 E8.00651
G1 X77.030 Y68.611 E8.17011
G1 F1800.000 E6.97011
G92 E0
G1 X83.768 Y69.076 F7800.000
G1 F1800.000 E1.20000
G1 X85.076 Y67.768 F540.000 E1.32323
G1 X98.924 Y67.768 E2.24630
G1 X100.232 Y69.076 E2.36953
G1 X100.232 Y100.924 E4.49235
G1 X98.924 Y102.232 E4.61558
G1 X85.076 Y102.232 E5.53864
G1 X83.768 Y100.924 E5.66188
G1 X83.768 Y69.209 E7.77577
G1 F1800.000 E6.57577
G92 E0
G1 X76.232 Y69.076 F7800.000
G1 F1800.000 E1.20000
G1 X76.232 Y100.924 F540.000 E3.32282
G1 X74.924 Y102.232 E3.44605
G1 X61.076 Y102.232 E4.36912
G1 X59.768 Y100.924 E4.49235
G1 X59.768 Y69.076 E6.61517
G1 X61.076 Y67.768 E6.73840
G1 X74.924 Y67.768 E7.66146
G1 X76.137 Y68.981 E7.77577
G1 F1800.000 E6.57577
G92 E0
G1 X84.661 Y69.445 F7800.000
G1 F1800.000 E1.20000
G1 X85.445 Y68.661 F540.000 E1.27394
G1 X98.555 Y68.661 E2.14771
G1 X99.339 Y69.445 E2.22165
G1 X99.339 Y100.555 E4.29518
G1 X98.555 Y101.339 E4.36912
G1 X85.445 Y101.339 E5.24289
G1 X84.661 Y100.555 E5.31683
G1 X84.661 Y69.579 E7.38143
G1 F1800.000 E6.18143
G92 E0
G1 X75.339 Y69.445 F7800.000
G1 F1800.000 E1.20000
G1 X75.339 Y100.555 F540.000 E3.27353
G1 X74.555 Y101.339 E3.34747
G1 X61.445 Y101.339 E4.22124
G1 X60.661 Y100.555 E4.29518
G1 X60.661 Y69.445 E6.36871
G1 X61.445 Y68.661 E6.44264
G1 X74.555 Y68.661 E7.31642
G1 X75.244 Y69.351 E7.38143
G1 F1800.000 E6.18143
G92 E0
G1 X85.554 Y69.815 F7800.000
G1 F1800.000 E1.20000
G1 X85.815 Y69.554 F540.000 E1.22465
G1 X98.185 Y69.554 E2.04913
G1 X98.446 Y69.815 E2.07377
G1 X98.446 Y100.185 E4.09801
G1 X98.185 Y100.446 E4.12266
G1 X85.815 Y100.446 E4.94714
G1 X85.554 Y100.185 E4.97178
G1 X85.554 Y69.949 E6.98709
G1 F1800.000 E5.78709
G92 E0
G1 X74.446 Y69.815 F7800.000
G1 F1800.000 E1.20000
G1 X74.446 Y100.185 F540.000 E3.22424
G1 X74.185 Y100.446 E3.24888
G1 X61.815 Y100.446 E4.07336
G1 X61.554 Y100.185 E4.09801
G1 X61.554 Y69.815 E6.12224
G1 X61.815 Y69.554 E6.14689
G1 X74.185 Y69.554 E6.97137
G1 X74.352 Y69.720 E6.98709
G1 F1800.000 E5.78709
G92 E0
G1 X86.446 Y70.446 F7800.000
G1 F1800.000 E1.20000
G1 X97.554 Y70.446 F378.000 E1.94033
G1 X97.554 Y99.554 E3.88042
G1 X86.446 Y99.554 E4.62076
G1 X86.446 Y70.580 E6.55192
G1 X87.219 Y70.893 F7800.000
G1 X87.339 Y71.339
G1 X96.661 Y71.339 F540.000 E7.17325
G1 X96.661 Y98.661 E8.99434
G1 X87.339 Y98.661 E9.61567
G1 X87.339 Y71.473 E11.42783
G1 X88.232 Y72.232 F7800.000
G1 X95.768 Y72.232 F540.000 E11.93016
G1 X95.768 Y97.768 E13.63225
G1 X88.232 Y97.768 E14.13458
G1 X88.232 Y72.366 E15.82773
G1 F1800.000 E14.62773
G92 E0
G1 X73.554 Y70.446 F7800.000
G1 F1800.000 E1.20000
G1 X73.554 Y99.554 F378.000 E3.14009
G1 X62.446 Y99.554 E3.88042
G1 X62.446 Y70.446 E5.82051
G1 X73.420 Y70.446 E6.55192
G1 X73.107 Y71.219 F7800.000
G1 X72.661 Y71.339
G1 X72.661 Y98.661 F540.000 E8.37301
G1 X63.339 Y98.661 E8.99434
G1 X63.339 Y71.339 E10.81542
G1 X72.527 Y71.339 E11.42783
G1 X71.768 Y72.232 F7800.000
G1 X71.768 Y97.768 F540.000 E13.12992
G1 X64.232 Y97.768 E13.63225
G1 X64.232 Y72.232 E15.33433
G1 X71.634 Y72.232 E15.82773
G1 F1800.000 E14.62773
G92 E0
G1 X95.121 Y72.879 F7800.000
G1 F1800.000 E1.20000
G1 X95.121 Y74.149 F1080.000 E1.28519
G1 X93.851 Y72.879 E1.40567
G1 X92.581 Y72.879 E1.49085
G1 X95.121 Y75.419 E1.73179
G1 X95.121 Y76.690 E1.81697
G1 X91.310 Y72.879 E2.17836
G1 X90.040 Y72.879 E2.26354
G1 X95.121 Y77.960 E2.74540
G1 X95.121 Y79.230 E2.83058
G1 X88.879 Y72.988 E3.42259
G1 X88.879 Y74.258 E3.50776
G1 X95.121 Y80.500 E4.09977
G1 X95.121 Y81.770 E4.18495
G1 X88.879 Y75.528 E4.77695
G1 X88.879 Y76.798 E4.86213
G1 X95.121 Y83.040 E5.45414
G1 X95.121 Y84.311 E5.53931
G1 X88.879 Y78.068 E6.13132
G1 X88.879 Y79.338 E6.21650
G1 X95.121 Y85.581 E6.80850
G1 X95.121 Y86.851 E6.89368
G1 X88.879 Y80.609 E7.48569
G1 X88.879 Y81.879 E7.57086
G1 X95.121 Y88.121 E8.16287
G1 X95.121 Y89.391 E8.24805
G1 X88.879 Y83.149 E8.84005
G1 X88.879 Y84.419 E8.92523
G1 X95.121 Y90.662 E9.51724
G1 X95.121 Y91.932 E9.60241
G1 X88.879 Y85.689 E10.19442
G1 X88.879 Y86.960 E10.27960
G1 X95.121 Y93.202 E10.87160
G1 X95.121 Y94.472 E10.95678
G1 X88.879 Y88.230 E11.54878
G1 X88.879 Y89.500 E11.63396
G1 X95.121 Y95.742 E12.22597
G1 X95.121 Y97.012 E12.31115
G1 X88.879 Y90.770 E12.90315
G1 X88.879 Y92.040 E12.98833
G1 X93.960 Y97.121 E13.47019
G1 X92.690 Y97.121 E13.55537
G1 X88.879 Y93.310 E13.91677
G1 X88.879 Y94.581 E14.00194
G1 X91.419 Y97.121 E14.24288
G1 X90.149 Y97.121 E14.32806
G1 X88.879 Y95.851 E14.44854
G1 X88.879 Y97.121 E14.53373
G1 F1800.000 E13.33373
G92 E0
G1 X64.879 Y97.121 F7800.000
G1 F1800.000 E1.20000
G1 X64.879 Y95.851 F1080.000 E1.28519
G1 X66.149 Y97.121 E1.40567
G1 X67.419 Y97.121 E1.49085
G1 X64.879 Y94.581 E1.73179
G1 X64.879 Y93.310 E1.81697
G1 X68.690 Y97.121 E2.17837
G1 X69.960 Y97.121 E2.26354
G1 X64.879 Y92.040 E2.74540
G1 X64.879 Y90.770 E2.83058
G1 X71.121 Y97.012 E3.42259
G1 X71.121 Y95.742 E3.50776
G1 X64.879 Y89.500 E4.09977
G1 X64.879 Y88.230 E4.18495
G1 X71.121 Y94.472 E4.77695
G1 X71.121 Y93.202 E4.86213
G1 X64.879 Y86.960 E5.45414
G1 X64.879 Y85.689 E5.53931
G1 X71.121 Y91.932 E6.13132
G1 X71.121 Y90.662 E6.21650
G1 X64.879 Y84.419 E6.80850
G1 X64.879 Y83.149 E6.89368
G1 X71.121 Y89.391 E7.48569
G1 X71.121 Y88.121 E7.57086
G1 X64.879 Y81.879 E8.16287
G1 X64.879 Y80.609 E8.24805
G1 X71.121 Y86.851 E8.84005
G1 X71.121 Y85.581 E8.92523
G1 X64.879 Y79.338 E9.51724
G1 X64.879 Y78.068 E9.60241
G1 X71.121 Y84.311 E10.19442
G1 X71.121 Y83.040 E10.27960
G1 X64.879 Y76.798 E10.87160
G1 X64.879 Y75.528 E10.95678
G1 X71.121 Y81.770 E11.54879
G1 X71.121 Y80.500 E11.63396
G1 X64.879 Y74.258 E12.22597
G1 X64.879 Y72.988 E12.31115
G1 X71.121 Y79.230 E12.90315
G1 X71.121 Y77.960 E12.98833
G1 X66.040 Y72.879 E13.47019
G1 X67.310 Y72.879 E13.55537
G1 X71.121 Y76.690 E13.91677
G1 X71.121 Y75.419 E14.00195
G1 X68.581 Y72.879 E14.24288
G1 X69.851 Y72.879 E14.32806
G1 X71.121 Y74.149 E14.44854
G1 X71.121 Y72.879 E14.53373
M104 S220 ; set temperature
M140 S110 ; set bed temperature
G1 F1800.000 E13.33373
G92 E0
G1 Z-0.650 F7800.000
G1 X72.750 Y71.250
G1 F1800.000 E1.20000
G1 X72.750 Y98.750 F1800.000 E1.71332
G1 X63.250 Y98.750 E1.89065
G1 X63.250 Y71.250 E2.40397
G1 X72.675 Y71.250 E2.57989
G1 X73.250 Y70.750 F7800.000
G1 X73.250 Y99.250 F1800.000 E3.11188
G1 X62.750 Y99.250 E3.30787
G1 X62.750 Y70.750 E3.83986
G1 X73.175 Y70.750 E4.03445
G1 X73.750 Y70.250 F7800.000
G1 X73.750 Y99.750 F1260.000 E4.58510
G1 X62.250 Y99.750 E4.79976
G1 X62.250 Y70.250 E5.35042
G1 X73.675 Y70.250 E5.56368
G1 X73.500 Y70.683 F7800.000
G1 F1800.000 E4.36368
G92 E0
G1 X87.250 Y71.250 F7800.000
G1 F1800.000 E1.20000
G1 X96.750 Y71.250 F1800.000 E1.37733
G1 X96.750 Y98.750 E1.89065
G1 X87.250 Y98.750 E2.06798
G1 X87.250 Y71.325 E2.57989
G1 X86.750 Y70.750 F7800.000
G1 X97.250 Y70.750 F1800.000 E2.77589
G1 X97.250 Y99.250 E3.30787
G1 X86.750 Y99.250 E3.50387
G1 X86.750 Y70.825 E4.03445
G1 X86.250 Y70.250 F7800.000
G1 X97.750 Y70.250 F1260.000 E4.24911
G1 X97.750 Y99.750 E4.79976
G1 X86.250 Y99.750 E5.01443
G1 X86.250 Y70.325 E5.56368
G1 X86.683 Y70.500 F7800.000
G1 F1800.000 E4.36368
G92 E0
G1 X63.612 Y71.613 F7800.000
G1 F1800.000 E1.20000
G1 X64.324 Y71.612 F3600.000 E1.21335
G1 X63.612 Y72.324 E1.23223
G1 X63.612 Y73.035 E1.24557
G1 X65.035 Y71.612 E1.28332
G1 X65.746 Y71.612 E1.29667
G1 X63.612 Y73.746 E1.35329
G1 X63.612 Y74.457 E1.36663
G1 X66.457 Y71.612 E1.44213
G1 X67.168 Y71.612 E1.45547
G1 X63.612 Y75.168 E1.54984
G1 X63.612 Y75.879 E1.56318
G1 X67.879 Y71.612 E1.67642
G1 X68.590 Y71.612 E1.68977
G1 X63.612 Y76.590 E1.82188
G1 X63.612 Y77.301 E1.83522
G1 X69.301 Y71.612 E1.98621
G1 X70.012 Y71.612 E1.99955
G1 X63.612 Y78.012 E2.16941
G1 X63.612 Y78.723 E2.18275
G1 X70.723 Y71.612 E2.37148
G1 X71.434 Y71.612 E2.38483
G1 X63.612 Y79.434 E2.59243
G1 X63.612 Y80.145 E2.60577
G1 X72.145 Y71.612 E2.83225
G1 X72.388 Y72.080 E2.84214
G1 X63.612 Y80.856 E3.07507
G1 X63.612 Y81.567 E3.08841
G1 X72.388 Y72.791 E3.32134
G1 X72.388 Y73.502 E3.33468
G1 X63.612 Y82.278 E3.56761
G1 X63.612 Y82.989 E3.58095
G1 X72.388 Y74.213 E3.81388
G1 X72.388 Y74.924 E3.82722
G1 X63.612 Y83.700 E4.06014
G1 X63.612 Y84.411 E4.07349
G1 X72.388 Y75.635 E4.30641
G1 X72.388 Y76.346 E4.31976
G1 X63.612 Y85.122 E4.55268
G1 X63.612 Y85.833 E4.56603
G1 X72.388 Y77.057 E4.79895
G1 X72.388 Y77.768 E4.81230
G1 X63.612 Y86.544 E5.04522
G1 X63.612 Y87.255 E5.05856
G1 X72.388 Y78.479 E5.29149
G1 X72.388 Y79.190 E5.30483
G1 X63.612 Y87.966 E5.53776
G1 X63.612 Y88.677 E5.55110
G1 X72.388 Y79.901 E5.78403
G1 X72.388 Y80.612 E5.79737
G1 X63.612 Y89.388 E6.03029
G1 X63.612 Y90.099 E6.04364
G1 X72.388 Y81.323 E6.27656
G1 X72.388 Y82.034 E6.28991
G1 X63.612 Y90.810 E6.52283
G1 X63.612 Y91.521 E6.53618
G1 X72.388 Y82.745 E6.76910
G1 X72.388 Y83.456 E6.78245
G1 X63.612 Y92.232 E7.01537
G1 X63.612 Y92.943 E7.02871
G1 X72.388 Y84.167 E7.26164
G1 X72.388 Y84.878 E7.27498
G1 X63.612 Y93.654 E7.50791
G1 X63.612 Y94.365 E7.52125
G1 X72.388 Y85.589 E7.75418
G1 X72.388 Y86.300 E7.76752
G1 X63.612 Y95.076 E8.00044
G1 X63.612 Y95.787 E8.01379
G1 X72.388 Y87.011 E8.24671
G1 X72.388 Y87.722 E8.26006
G1 X63.612 Y96.498 E8.49298
G1 X63.612 Y97.209 E8.50633
G1 X72.388 Y88.433 E8.73925
G1 X72.388 Y89.144 E8.75260
G1 X63.612 Y97.920 E8.98552
G1 X63.855 Y98.388 E8.99542
G1 X72.388 Y89.855 E9.22189
G1 X72.388 Y90.566 E9.23524
G1 X64.566 Y98.388 E9.44284
G1 X65.277 Y98.388 E9.45618
G1 X72.388 Y91.277 E9.64491
G1 X72.388 Y91.988 E9.65825
G1 X65.988 Y98.388 E9.82811
G1 X66.699 Y98.388 E9.84146
G1 X72.388 Y92.699 E9.99244
G1 X72.388 Y93.410 E10.00578
G1 X67.410 Y98.388 E10.13790
G1 X68.121 Y98.388 E10.15124
G1 X72.388 Y94.121 E10.26448
G1 X72.388 Y94.832 E10.27782
G1 X68.832 Y98.388 E10.37219
G1 X69.543 Y98.388 E10.38554
G1 X72.388 Y95.543 E10.46103
G1 X72.388 Y96.254 E10.47438
G1 X70.254 Y98.388 E10.53100
G1 X70.965 Y98.388 E10.54434
G1 X72.388 Y96.965 E10.58209
G1 X72.388 Y97.676 E10.59544
G1 X71.676 Y98.388 E10.61432
G1 X72.388 Y98.387 E10.62766
G1 F1800.000 E9.42766
G92 E0
G1 X96.388 Y98.387 F7800.000
G1 F1800.000 E1.20000
G1 X95.676 Y98.388 F3600.000 E1.21335
G1 X96.388 Y97.676 E1.23223
G1 X96.388 Y96.965 E1.24557
G1 X94.965 Y98.388 E1.28332
G1 X94.254 Y98.388 E1.29667
G1 X96.388 Y96.254 E1.35329
G1 X96.388 Y95.543 E1.36663
G1 X93.543 Y98.388 E1.44213
G1 X92.832 Y98.388 E1.45547
G1 X96.388 Y94.832 E1.54984
G1 X96.388 Y94.121 E1.56318
G1 X92.121 Y98.388 E1.67642
G1 X91.410 Y98.388 E1.68977
G1 X96.388 Y93.410 E1.82188
G1 X96.388 Y92.699 E1.83522
G1 X90.699 Y98.388 E1.98621
G1 X89.988 Y98.388 E1.99955
G1 X96.388 Y91.988 E2.16941
G1 X96.388 Y91.277 E2.18275
G1 X89.277 Y98.388 E2.37148
G1 X88.566 Y98.388 E2.38483
G1 X96.388 Y90.566 E2.59243
G1 X96.388 Y89.855 E2.60577
G1 X87.855 Y98.388 E2.83225
G1 X87.612 Y97.920 E2.84214
G1 X96.388 Y89.144 E3.07507
G1 X96.388 Y88.433 E3.08841
G1 X87.612 Y97.209 E3.32134
G1 X87.612 Y96.498 E3.33468
G1 X96.388 Y87.722 E3.56761
G1 X96.388 Y87.011 E3.58095
G1 X87.612 Y95.787 E3.81387
G1 X87.612 Y95.076 E3.82722
G1 X96.388 Y86.300 E4.06014
G1 X96.388 Y85.589 E4.07349
G1 X87.612 Y94.365 E4.30641
G1 X87.612 Y93.654 E4.31976
G1 X96.388 Y84.878 E4.55268
G1 X96.388 Y84.167 E4.56603
G1 X87.612 Y92.943 E4.79895
G1 X87.612 Y92.232 E4.81229
G1 X96.388 Y83.456 E5.04522
G1 X96.388 Y82.745 E5.05856
G1 X87.612 Y91.521 E5.29149
G1 X87.612 Y90.810 E5.30483
G1 X96.388 Y82.034 E5.53776
G1 X96.388 Y81.323 E5.55110
G1 X87.612 Y90.099 E5.78403
G1 X87.612 Y89.388 E5.79737
G1 X96.388 Y80.612 E6.03029
G1 X96.388 Y79.901 E6.04364
G1 X87.612 Y88.677 E6.27656
G1 X87.612 Y87.966 E6.28991
G1 X96.388 Y79.190 E6.52283
G1 X96.388 Y78.479 E6.53618
G1 X87.612 Y87.255 E6.76910
G1 X87.612 Y86.544 E6.78245
G1 X96.388 Y77.768 E7.01537
G1 X96.388 Y77.057 E7.02871
G1 X87.612 Y85.833 E7.26164
G1 X87.612 Y85.122 E7.27498
G1 X96.388 Y76.346 E7.50791
G1 X96.388 Y75.635 E7.52125
G1 X87.612 Y84.411 E7.75418
G1 X87.612 Y83.700 E7.76752
G1 X96.388 Y74.924 E8.00044
G1 X96.388 Y74.213 E8.01379
G1 X87.612 Y82.989 E8.24671
G1 X87.612 Y82.278 E8.26006
