; generated by Slic3r 0.9.9 on 2013-07-06 at 15:32:19

; layer_height = 0.31
; perimeters = 3
; top_solid_layers = 3
; bottom_solid_layers = 3
; fill_density = 0.4
; perimeter_speed = 30
; infill_speed = 60
; travel_speed = 130
; nozzle_diameter = 0.5
; filament_diameter = 2.93
; extrusion_multiplier = 1
; perimeters extrusion width = 0.67mm
; infill extrusion width = 0.67mm
; solid infill extrusion width = 0.67mm
; top infill extrusion width = 0.67mm
; first layer extrusion width = 1.00mm

G21 ; set units to millimeters
M107
M190 S120 ; wait for bed temperature to be reached
M104 S240 ; set temperature
G28 ; home all axes
G1 Z5 F5000 ; lift nozzle
M109 S240 ; wait for temperature to be reached
G90 ; use absolute coordinates
G92 E0
M82 ; use absolute distances for extrusion
G1 F1800.000 E-1.00000
G92 E0
G1 Z-0.900 F7800.000
G1 X68.820 Y69.940
G1 F1800.000 E1.00000
G1 X69.450 Y69.420 F540.000 E1.05408
G1 X69.900 Y69.120 E1.08988
G1 X70.370 Y68.860 E1.12544
G1 X70.860 Y68.630 E1.16127
G1 X71.370 Y68.440 E1.19730
G1 X72.160 Y68.240 E1.25124
G1 X72.420 Y68.190 E1.26877
G1 X73.230 Y68.110 E1.32265
G1 X106.770 Y68.110 E3.54296
G1 X107.580 Y68.190 E3.59684
G1 X107.840 Y68.240 E3.61437
G1 X108.630 Y68.440 E3.66832
G1 X109.140 Y68.630 E3.70434
G1 X109.630 Y68.860 E3.74018
G1 X110.100 Y69.120 E3.77573
G1 X110.550 Y69.420 E3.81154
G1 X111.180 Y69.940 E3.86561
G1 X111.740 Y70.520 E3.91898
G1 X112.080 Y70.950 E3.95527
G1 X112.380 Y71.400 E3.99108
G1 X112.760 Y72.110 E4.04439
G1 X113.060 Y72.870 E4.09847
G1 X113.200 Y73.390 E4.13412
G1 X113.310 Y73.920 E4.16996
G1 X113.390 Y74.730 E4.22384
G1 X113.390 Y105.270 E6.24555
G1 X113.310 Y106.080 E6.29943
G1 X113.260 Y106.340 E6.31696
G1 X113.060 Y107.130 E6.37090
G1 X112.870 Y107.640 E6.40693
G1 X112.640 Y108.130 E6.44277
G1 X112.380 Y108.600 E6.47832
G1 X112.080 Y109.050 E6.51413
G1 X111.560 Y109.680 E6.56820
G1 X110.980 Y110.240 E6.62157
G1 X110.550 Y110.580 E6.65786
G1 X110.100 Y110.880 E6.69366
G1 X109.390 Y111.260 E6.74697
G1 X108.630 Y111.560 E6.80106
G1 X108.110 Y111.700 E6.83671
G1 X107.580 Y111.810 E6.87254
G1 X106.770 Y111.890 E6.92643
G1 X73.230 Y111.890 E9.14673
G1 X72.420 Y111.810 E9.20062
G1 X72.160 Y111.760 E9.21814
G1 X71.370 Y111.560 E9.27209
G1 X70.860 Y111.370 E9.30812
G1 X70.370 Y111.140 E9.34395
G1 X69.900 Y110.880 E9.37951
G1 X69.450 Y110.580 E9.41531
G1 X68.820 Y110.060 E9.46939
G1 X68.260 Y109.480 E9.52276
G1 X67.920 Y109.050 E9.55905
G1 X67.620 Y108.600 E9.59485
G1 X67.240 Y107.890 E9.64816
G1 X66.940 Y107.130 E9.70225
G1 X66.800 Y106.610 E9.73790
G1 X66.690 Y106.080 E9.77373
G1 X66.610 Y105.270 E9.82761
G1 X66.610 Y74.730 E11.84932
G1 X66.690 Y73.920 E11.90320
G1 X66.800 Y73.390 E11.93904
G1 X66.940 Y72.870 E11.97469
G1 X67.240 Y72.110 E12.02878
G1 X67.620 Y71.400 E12.08208
G1 X67.920 Y70.950 E12.11789
G1 X68.260 Y70.520 E12.15418
G1 X68.725 Y70.035 E12.19868
G1 F1800.000 E11.19868
G92 E0
G1 X75.732 Y77.232 F7800.000
G1 F1800.000 E1.00000
G1 X82.268 Y77.232 F540.000 E1.43271
G1 X82.268 Y102.768 E3.12319
G1 X75.732 Y102.768 E3.55590
G1 X75.732 Y77.366 E5.23752
G1 X74.839 Y76.339 F7800.000
G1 X83.161 Y76.339 F540.000 E5.78842
G1 X83.161 Y103.661 E7.59710
G1 X74.839 Y103.661 E8.14800
G1 X74.839 Y76.473 E9.94781
G1 X73.946 Y75.446 F7800.000
G1 X84.054 Y75.446 F378.000 E10.61690
G1 X84.054 Y104.554 E12.54377
G1 X73.946 Y104.554 E13.21286
G1 X73.946 Y75.580 E15.13086
G1 X74.719 Y75.893 F7800.000
G1 X81.621 Y77.879
G1 X80.339 Y77.879 F1080.000 E15.21705
G1 X81.621 Y79.161 E15.33893
G1 X81.621 Y80.443 E15.42510
G1 X79.057 Y77.879 E15.66884
G1 X77.775 Y77.879 E15.75501
G1 X81.621 Y81.725 E16.12062
G1 X81.621 Y83.007 E16.20679
G1 X76.493 Y77.879 E16.69426
G1 X76.379 Y79.046 E16.77311
G1 X81.621 Y84.289 E17.27146
G1 X81.621 Y85.571 E17.35763
G1 X76.379 Y80.328 E17.85597
G1 X76.379 Y81.610 E17.94214
G1 X81.621 Y86.853 E18.44049
G1 X81.621 Y88.134 E18.52666
G1 X76.379 Y82.892 E19.02500
G1 X76.379 Y84.174 E19.11117
G1 X81.621 Y89.416 E19.60952
G1 X81.621 Y90.698 E19.69569
G1 X76.379 Y85.456 E20.19404
G1 X76.379 Y86.738 E20.28021
G1 X81.621 Y91.980 E20.77855
G1 X81.621 Y93.262 E20.86472
G1 X76.379 Y88.020 E21.36307
G1 X76.379 Y89.302 E21.44924
G1 X81.621 Y94.544 E21.94759
G1 X81.621 Y95.826 E22.03376
G1 X76.379 Y90.584 E22.53210
G1 X76.379 Y91.866 E22.61827
G1 X81.621 Y97.108 E23.11662
G1 X81.621 Y98.390 E23.20279
G1 X76.379 Y93.147 E23.70114
G1 X76.379 Y94.429 E23.78731
G1 X81.621 Y99.672 E24.28565
G1 X81.621 Y100.954 E24.37182
G1 X76.379 Y95.711 E24.87017
G1 X76.379 Y96.993 E24.95634
G1 X81.507 Y102.121 E25.44381
G1 X80.225 Y102.121 E25.52998
G1 X76.379 Y98.275 E25.89558
G1 X76.379 Y99.557 E25.98175
G1 X78.943 Y102.121 E26.22550
G1 X77.661 Y102.121 E26.31167
G1 X76.379 Y100.839 E26.43355
G1 X76.379 Y102.121 E26.51973
G1 F1800.000 E25.51973
G92 E0
G1 X74.000 Y104.500 F7800.000
G1 X84.000 Y104.500
G1 X96.000 Y104.500
G1 X97.732 Y102.768
G1 F1800.000 E1.00000
G1 X97.732 Y77.232 F540.000 E2.69049
G1 X104.268 Y77.232 E3.12319
G1 X104.268 Y102.768 E4.81368
G1 X97.866 Y102.768 E5.23752
G1 X96.839 Y103.661 F7800.000
G1 X96.839 Y76.339 F540.000 E7.04620
G1 X105.161 Y76.339 E7.59710
G1 X105.161 Y103.661 E9.40578
G1 X96.973 Y103.661 E9.94781
G1 X95.946 Y104.554 F7800.000
G1 X95.946 Y75.446 F378.000 E11.87468
G1 X106.054 Y75.446 E12.54377
G1 X106.054 Y104.554 E14.47064
G1 X96.080 Y104.554 E15.13086
G1 X96.393 Y103.781 F7800.000
G1 X98.379 Y102.121
G1 X98.379 Y100.839 F1080.000 E15.21705
G1 X99.661 Y102.121 E15.33893
G1 X100.943 Y102.121 E15.42510
G1 X98.379 Y99.557 E15.66884
G1 X98.379 Y98.275 E15.75501
G1 X102.225 Y102.121 E16.12062
G1 X103.507 Y102.121 E16.20679
G1 X98.379 Y96.993 E16.69426
G1 X98.379 Y95.711 E16.78043
G1 X103.621 Y100.954 E17.27877
G1 X103.621 Y99.672 E17.36494
G1 X98.379 Y94.429 E17.86329
G1 X98.379 Y93.147 E17.94946
G1 X103.621 Y98.390 E18.44781
G1 X103.621 Y97.108 E18.53398
G1 X98.379 Y91.866 E19.03232
G1 X98.379 Y90.584 E19.11849
G1 X103.621 Y95.826 E19.61684
G1 X103.621 Y94.544 E19.70301
G1 X98.379 Y89.302 E20.20135
G1 X98.379 Y88.020 E20.28752
G1 X103.621 Y93.262 E20.78587
G1 X103.621 Y91.980 E20.87204
G1 X98.379 Y86.738 E21.37039
G1 X98.379 Y85.456 E21.45656
G1 X103.621 Y90.698 E21.95490
G1 X103.621 Y89.416 E22.04107
G1 X98.379 Y84.174 E22.53942
G1 X98.379 Y82.892 E22.62559
G1 X103.621 Y88.134 E23.12394
G1 X103.621 Y86.853 E23.21011
G1 X98.379 Y81.610 E23.70845
G1 X98.379 Y80.328 E23.79462
G1 X103.621 Y85.571 E24.29297
G1 X103.621 Y84.289 E24.37914
G1 X98.379 Y79.046 E24.87748
G1 X98.493 Y77.879 E24.95634
G1 X103.621 Y83.007 E25.44381
G1 X103.621 Y81.725 E25.52998
G1 X99.775 Y77.879 E25.89558
G1 X101.057 Y77.879 E25.98175
G1 X103.621 Y80.443 E26.22550
G1 X103.621 Y79.161 E26.31167
G1 X102.339 Y77.879 E26.43355
G1 X103.621 Y77.879 E26.51973
M106 S255
M104 S225 ; set temperature
M140 S100 ; set bed temperature
G1 F1800.000 E25.51973
G92 E0
G1 Z-0.590 F7800.000
G1 X106.000 Y75.500
G1 X96.000 Y75.500
G1 X84.000 Y75.500
G1 X82.917 Y76.583
G1 F1800.000 E1.00000
G1 X82.917 Y103.417 F1648.551 E1.78140
G1 X75.083 Y103.417 E2.00951
G1 X75.083 Y76.583 E2.79091
G1 X82.822 Y76.583 E3.01625
G1 X83.550 Y75.950 F7800.000
G1 X83.550 Y104.050 F1648.551 E3.83454
G1 X74.450 Y104.050 E4.09954
G1 X74.450 Y75.950 E4.91783
G1 X83.455 Y75.950 E5.18006
G1 X84.183 Y75.317 F7800.000
G1 X84.183 Y104.683 F1153.986 E6.03524
G1 X73.817 Y104.683 E6.33713
G1 X73.817 Y75.317 E7.19231
G1 X84.088 Y75.317 E7.49143
G1 X83.867 Y75.865 F7800.000
G1 X75.543 Y77.043
G1 X76.455 Y77.043 F3297.102 E7.51847
G1 X75.543 Y77.955 E7.55671
G1 X75.543 Y78.867 E7.58375
G1 X77.367 Y77.043 E7.66023
G1 X78.279 Y77.043 E7.68726
G1 X75.543 Y79.779 E7.80197
G1 X75.543 Y80.690 E7.82901
G1 X79.190 Y77.043 E7.98196
G1 X80.102 Y77.043 E8.00899
G1 X75.543 Y81.602 E8.20017
G1 X75.543 Y82.514 E8.22721
G1 X81.014 Y77.043 E8.45662
G1 X81.926 Y77.043 E8.48366
G1 X75.543 Y83.426 E8.75131
G1 X75.543 Y84.338 E8.77835
G1 X82.457 Y77.423 E9.06827
G1 X82.457 Y78.335 E9.09531
G1 X75.543 Y85.250 E9.38523
G1 X75.543 Y86.162 E9.41227
G1 X82.457 Y79.247 E9.70219
G1 X82.457 Y80.159 E9.72923
G1 X75.543 Y87.074 E10.01915
G1 X75.543 Y87.986 E10.04619
G1 X82.457 Y81.071 E10.33611
G1 X82.457 Y81.983 E10.36315
G1 X75.543 Y88.898 E10.65307
G1 X75.543 Y89.810 E10.68011
G1 X82.457 Y82.895 E10.97003
G1 X82.457 Y83.807 E10.99706
G1 X75.543 Y90.722 E11.28699
G1 X75.543 Y91.634 E11.31402
G1 X82.457 Y84.719 E11.60395
G1 X82.457 Y85.631 E11.63098
G1 X75.543 Y92.546 E11.92091
G1 X75.543 Y93.457 E11.94794
G1 X82.457 Y86.543 E12.23787
G1 X82.457 Y87.454 E12.26490
G1 X75.543 Y94.369 E12.55483
G1 X75.543 Y95.281 E12.58186
G1 X82.457 Y88.366 E12.87179
G1 X82.457 Y89.278 E12.89882
G1 X75.543 Y96.193 E13.18875
G1 X75.543 Y97.105 E13.21578
G1 X82.457 Y90.190 E13.50571
G1 X82.457 Y91.102 E13.53274
G1 X75.543 Y98.017 E13.82267
G1 X75.543 Y98.929 E13.84970
G1 X82.457 Y92.014 E14.13963
G1 X82.457 Y92.926 E14.16666
G1 X75.543 Y99.841 E14.45659
G1 X75.543 Y100.753 E14.48362
G1 X82.457 Y93.838 E14.77355
G1 X82.457 Y94.750 E14.80058
G1 X75.543 Y101.665 E15.09051
G1 X75.543 Y102.577 E15.11754
G1 X82.457 Y95.662 E15.40747
G1 X82.457 Y96.574 E15.43450
G1 X76.074 Y102.957 E15.70215
G1 X76.986 Y102.957 E15.72919
G1 X82.457 Y97.486 E15.95861
G1 X82.457 Y98.398 E15.98564
G1 X77.898 Y102.957 E16.17682
G1 X78.810 Y102.957 E16.20386
G1 X82.457 Y99.310 E16.35681
G1 X82.457 Y100.221 E16.38384
G1 X79.721 Y102.957 E16.49856
G1 X80.633 Y102.957 E16.52559
G1 X82.457 Y101.133 E16.60207
G1 X82.457 Y102.045 E16.62911
G1 X81.545 Y102.957 E16.66735
G1 X82.457 Y102.957 E16.69439
G1 F1800.000 E15.69439
G92 E0
G1 X84.000 Y104.500 F7800.000
G1 X96.000 Y104.500
G1 X97.083 Y103.417
G1 F1800.000 E1.00000
G1 X97.083 Y76.583 F1648.551 E1.78140
G1 X104.917 Y76.583 E2.00951
G1 X104.917 Y103.417 E2.79091
G1 X97.178 Y103.417 E3.01625
G1 X96.450 Y104.050 F7800.000
G1 X96.450 Y75.950 F1648.551 E3.83454
G1 X105.550 Y75.950 E4.09954
G1 X105.550 Y104.050 E4.91783
G1 X96.545 Y104.050 E5.18006
G1 X95.817 Y104.683 F7800.000
G1 X95.817 Y75.317 F1153.986 E6.03524
G1 X106.183 Y75.317 E6.33713
G1 X106.183 Y104.683 E7.19231
G1 X95.912 Y104.683 E7.49143
G1 X96.133 Y104.135 F7800.000
G1 X104.457 Y102.957
G1 X103.545 Y102.957 F3297.102 E7.51847
G1 X104.457 Y102.045 E7.55671
G1 X104.457 Y101.133 E7.58375
G1 X102.633 Y102.957 E7.66023
G1 X101.721 Y102.957 E7.68726
G1 X104.457 Y100.221 E7.80198
G1 X104.457 Y99.310 E7.82901
G1 X100.810 Y102.957 E7.98196
G1 X99.898 Y102.957 E8.00900
G1 X104.457 Y98.398 E8.20018
G1 X104.457 Y97.486 E8.22722
G1 X98.986 Y102.957 E8.45663
G1 X98.074 Y102.957 E8.48367
G1 X104.457 Y96.574 E8.75132
G1 X104.457 Y95.662 E8.77836
G1 X97.543 Y102.577 E9.06828
G1 X97.543 Y101.665 E9.09532
G1 X104.457 Y94.750 E9.38524
G1 X104.457 Y93.838 E9.41228
G1 X97.543 Y100.753 E9.70220
G1 X97.543 Y99.841 E9.72924
G1 X104.457 Y92.926 E10.01916
G1 X104.457 Y92.014 E10.04620
G1 X97.543 Y98.929 E10.33612
G1 X97.543 Y98.017 E10.36316
G1 X104.457 Y91.102 E10.65308
G1 X104.457 Y90.190 E10.68012
G1 X97.543 Y97.105 E10.97004
G1 X97.543 Y96.193 E10.99708
G1 X104.457 Y89.278 E11.28700
G1 X104.457 Y88.366 E11.31403
G1 X97.543 Y95.281 E11.60396
G1 X97.543 Y94.369 E11.63099
G1 X104.457 Y87.454 E11.92092
G1 X104.457 Y86.543 E11.94795
G1 X97.543 Y93.457 E12.23788
G1 X97.543 Y92.546 E12.26491
G1 X104.457 Y85.631 E12.55484
G1 X104.457 Y84.719 E12.58187
G1 X97.543 Y91.634 E12.87180
G1 X97.543 Y90.722 E12.89883
G1 X104.457 Y83.807 E13.18876
G1 X104.457 Y82.895 E13.21579
G1 X97.543 Y89.810 E13.50572
G1 X97.543 Y88.898 E13.53275
G1 X104.457 Y81.983 E13.82268
G1 X104.457 Y81.071 E13.84971
G1 X97.543 Y87.986 E14.13964
G1 X97.543 Y87.074 E14.16667
G1 X104.457 Y80.159 E14.45660
G1 X104.457 Y79.247 E14.48363
G1 X97.543 Y86.162 E14.77356
G1 X97.543 Y85.250 E14.80059
G1 X104.457 Y78.335 E15.09052
G1 X104.457 Y77.423 E15.11755
G1 X97.543 Y84.338 E15.40748
G1 X97.543 Y83.426 E15.43451
G1 X103.926 Y77.043 E15.70216
G1 X103.014 Y77.043 E15.72920
G1 X97.543 Y82.514 E15.95861
G1 X97.543 Y81.602 E15.98565
G1 X102.102 Y77.043 E16.17683
G1 X101.190 Y77.043 E16.20387
G1 X97.543 Y80.690 E16.35681
G1 X97.543 Y79.779 E16.38385
G1 X100.279 Y77.043 E16.49856
G1 X99.367 Y77.043 E16.52560
G1 X97.543 Y78.867 E16.60207
G1 X97.543 Y77.955 E16.62911
G1 X98.455 Y77.043 E16.66735
G1 X97.543 Y77.043 E16.69439
G1 F1800.000 E15.69439
G92 E0
G1 Z-0.280 F7800.000
G1 X96.000 Y75.500
G1 X84.000 Y75.500
G1 X82.917 Y76.583
G1 F1800.000 E1.00000
G1 X82.917 Y103.417 F1646.274 E1.78140
G1 X75.083 Y103.417 E2.00951
G1 X75.083 Y99.492 E2.12379
G1 X75.522 Y98.881 E2.14570
G1 X75.522 Y96.120 E2.22611
G1 X75.083 Y95.508 E2.24804
G1 X75.083 Y84.492 E2.56883
G1 X75.522 Y83.881 E2.59074
G1 X75.522 Y81.119 E2.67117
G1 X75.083 Y80.508 E2.69307
G1 X75.083 Y76.583 E2.80736
G1 X82.822 Y76.583 E3.03270
G1 X83.550 Y75.950 F7800.000
G1 X83.550 Y104.050 F1646.274 E3.85099
G1 X74.450 Y104.050 E4.11599
G1 X74.450 Y99.288 E4.25465
G1 X74.889 Y98.677 E4.27656
G1 X74.889 Y96.323 E4.34510
G1 X74.450 Y95.712 E4.36702
G1 X74.450 Y84.288 E4.69969
G1 X74.889 Y83.677 E4.72160
G1 X74.889 Y81.323 E4.79015
G1 X74.450 Y80.712 E4.81206
G1 X74.450 Y75.950 E4.95073
G1 X83.455 Y75.950 E5.21295
G1 X84.183 Y75.317 F7800.000
G1 X84.183 Y104.683 F1152.392 E6.06814
G1 X73.817 Y104.683 E6.37002
G1 X73.817 Y99.084 E6.53307
G1 X74.255 Y98.473 E6.55498
G1 X74.255 Y96.527 E6.61166
G1 X73.817 Y95.916 E6.63357
G1 X73.817 Y84.084 E6.97810
G1 X74.255 Y83.473 E7.00001
G1 X74.255 Y81.527 E7.05670
G1 X73.817 Y80.916 E7.07861
G1 X73.817 Y75.317 E7.24165
G1 X84.088 Y75.317 E7.54077
G1 X83.867 Y75.865 F7800.000
G1 X82.457 Y77.043
G1 X82.457 Y77.955 F3292.547 E7.56781
G1 X81.545 Y77.043 E7.60605
G1 X80.633 Y77.043 E7.63309
G1 X82.457 Y78.867 E7.70957
G1 X82.457 Y79.778 E7.73660
G1 X79.721 Y77.043 E7.85131
G1 X78.810 Y77.043 E7.87835
G1 X82.457 Y80.690 E8.03130
G1 X82.457 Y81.602 E8.05833
G1 X77.898 Y77.043 E8.24951
G1 X76.986 Y77.043 E8.27655
G1 X82.457 Y82.514 E8.50597
G1 X82.457 Y83.426 E8.53300
G1 X76.074 Y77.043 E8.80065
G1 X75.543 Y77.423 E8.82003
G1 X82.457 Y84.338 E9.10995
G1 X82.457 Y85.250 E9.13699
G1 X75.543 Y78.335 E9.42691
G1 X75.543 Y79.247 E9.45395
G1 X82.457 Y86.162 E9.74387
G1 X82.457 Y87.074 E9.77091
G1 X75.543 Y80.159 E10.06083
G1 X75.981 Y81.510 E10.10294
G1 X82.457 Y87.986 E10.37446
G1 X82.457 Y88.898 E10.40150
G1 X75.981 Y82.422 E10.67302
G1 X75.981 Y83.334 E10.70006
G1 X82.457 Y89.810 E10.97159
G1 X82.457 Y90.722 E10.99862
G1 X75.891 Y84.155 E11.27395
G1 X75.543 Y84.719 E11.29359
G1 X82.457 Y91.634 E11.58352
G1 X82.457 Y92.546 E11.61055
G1 X75.543 Y85.631 E11.90048
G1 X75.543 Y86.543 E11.92751
G1 X82.457 Y93.457 E12.21744
G1 X82.457 Y94.369 E12.24447
G1 X75.543 Y87.454 E12.53440
G1 X75.543 Y88.366 E12.56143
G1 X82.457 Y95.281 E12.85136
G1 X82.457 Y96.193 E12.87839
G1 X75.543 Y89.278 E13.16832
G1 X75.543 Y90.190 E13.19535
G1 X82.457 Y97.105 E13.48528
G1 X82.457 Y98.017 E13.51231
G1 X75.543 Y91.102 E13.80224
G1 X75.543 Y92.014 E13.82927
G1 X82.457 Y98.929 E14.11920
G1 X82.457 Y99.841 E14.14623
G1 X75.543 Y92.926 E14.43616
G1 X75.543 Y93.838 E14.46319
G1 X82.457 Y100.753 E14.75312
G1 X82.457 Y101.665 E14.78015
G1 X75.543 Y94.750 E15.07008
G1 X75.981 Y96.101 E15.11218
G1 X82.457 Y102.577 E15.38371
G1 X81.926 Y102.957 E15.40308
G1 X75.981 Y97.013 E15.65234
G1 X75.981 Y97.924 E15.67937
G1 X81.014 Y102.957 E15.89039
G1 X80.102 Y102.957 E15.91743
G1 X75.981 Y98.836 E16.09021
G1 X75.681 Y99.448 E16.11041
G1 X79.190 Y102.957 E16.25757
G1 X78.279 Y102.957 E16.28460
G1 X75.543 Y100.221 E16.39932
G1 X75.543 Y101.133 E16.42635
G1 X77.367 Y102.957 E16.50283
G1 X76.455 Y102.957 E16.52987
G1 X75.543 Y102.045 E16.56811
G1 X75.543 Y102.957 E16.59515
G1 F1800.000 E15.59515
G92 E0
G1 X74.000 Y104.500 F7800.000
G1 X84.000 Y104.500
G1 X96.000 Y104.500
G1 X97.083 Y103.417
G1 F1800.000 E1.00000
G1 X97.083 Y76.583 F1646.274 E1.78140
G1 X104.917 Y76.583 E2.00951
G1 X104.917 Y80.508 E2.12379
G1 X104.478 Y81.119 E2.14571
G1 X104.478 Y83.881 E2.22613
G1 X104.917 Y84.492 E2.24804
G1 X104.917 Y95.508 E2.56883
G1 X104.478 Y96.119 E2.59074
G1 X104.478 Y98.881 E2.67116
G1 X104.917 Y99.492 E2.69308
