; generated by Slic3r 0.9.9 on 2013-07-09 at 21:31:23

; layer_height = 0.25
; perimeters = 3
; top_solid_layers = 3
; bottom_solid_layers = 3
; fill_density = 0.4
; perimeter_speed = 30
; infill_speed = 60
; travel_speed = 100  
; nozzle_diameter = 0.5
; filament_diameter = 2.93
; extrusion_multiplier = 1
; perimeters extrusion width = 0.84mm
; infill extrusion width = 0.84mm
; solid infill extrusion width = 0.84mm
; top infill extrusion width = 0.84mm
; first layer extrusion width = 0.80mm

G21 ; set units to millimeters
M107
M190 S120 ; wait for bed temperature to be reached
M104 S240 ; set temperature
G28 ; home all axes
G1 Z5 F5000 ; lift nozzle
M109 S240 ; wait for temperature to be reached
G90 ; use absolute coordinates
G92 E0
M82 ; use absolute distances for extrusion
G1 F1800.000 E-1.00000
G92 E0
G1 Z-1.000 F6000.000
G1 X77.513 Y50.690
G1 F1800.000 E1.00000
G1 X77.843 Y50.220 F540.000 E1.02506
G1 X78.203 Y49.780 E1.04987
G1 X78.403 Y49.570 E1.06253
G1 X78.813 Y49.170 E1.08752
G1 X79.483 Y48.640 E1.12481
G1 X79.963 Y48.330 E1.14974
G1 X80.463 Y48.050 E1.17475
G1 X80.723 Y47.930 E1.18725
G1 X81.253 Y47.720 E1.21213
G1 X81.533 Y47.630 E1.22496
G1 X82.363 Y47.420 E1.26232
G1 X82.923 Y47.330 E1.28708
G1 X83.493 Y47.280 E1.31205
G1 X96.063 Y47.280 E1.86061
G1 X96.353 Y47.300 E1.87329
G1 X97.193 Y47.410 E1.91026
G1 X97.473 Y47.470 E1.92276
G1 X98.023 Y47.620 E1.94764
G1 X98.553 Y47.810 E1.97221
G1 X99.073 Y48.040 E1.99702
G1 X99.573 Y48.310 E2.02182
G1 X99.823 Y48.460 E2.03454
G1 X100.513 Y48.960 E2.07173
G1 X100.933 Y49.340 E2.09645
G1 X101.523 Y49.960 E2.13380
G1 X101.863 Y50.410 E2.15841
G1 X102.183 Y50.890 E2.18359
G1 X102.453 Y51.380 E2.20800
G1 X102.693 Y51.900 E2.23300
G1 X102.883 Y52.430 E2.25757
G1 X103.043 Y52.980 E2.28256
G1 X103.193 Y53.820 E2.31980
G1 X103.253 Y54.670 E2.35699
G1 X103.683 Y95.160 E4.12408
G1 X103.683 Y125.530 E5.44944
G1 X103.633 Y126.100 E5.47441
G1 X103.543 Y126.660 E5.49916
G1 X103.413 Y127.220 E5.52425
G1 X103.243 Y127.770 E5.54937
G1 X102.913 Y128.560 E5.58674
G1 X102.483 Y129.300 E5.62409
G1 X102.153 Y129.770 E5.64915
G1 X101.793 Y130.210 E5.67396
G1 X101.393 Y130.620 E5.69896
G1 X101.183 Y130.820 E5.71161
G1 X100.513 Y131.350 E5.74889
G1 X100.033 Y131.660 E5.77383
G1 X99.533 Y131.940 E5.79884
G1 X98.743 Y132.270 E5.83620
G1 X98.193 Y132.440 E5.86132
G1 X97.353 Y132.620 E5.89881
G1 X96.503 Y132.710 E5.93612
G1 X83.933 Y132.710 E6.48467
G1 X83.363 Y132.660 E6.50965
G1 X82.803 Y132.580 E6.53433
G1 X82.243 Y132.450 E6.55942
G1 X81.703 Y132.280 E6.58413
G1 X81.173 Y132.070 E6.60901
G1 X80.663 Y131.820 E6.63379
G1 X80.423 Y131.680 E6.64592
G1 X80.173 Y131.530 E6.65864
G1 X79.483 Y131.030 E6.69583
G1 X78.863 Y130.450 E6.73288
G1 X78.473 Y130.030 E6.75789
G1 X78.303 Y129.810 E6.77002
G1 X77.813 Y129.100 E6.80767
G1 X77.673 Y128.860 E6.81980
G1 X77.303 Y128.090 E6.85708
G1 X77.113 Y127.560 E6.88165
G1 X76.953 Y127.010 E6.90665
G1 X76.803 Y126.170 E6.94388
G1 X76.743 Y125.320 E6.98107
G1 X76.313 Y84.830 E8.74817
G1 X76.313 Y54.460 E10.07352
G1 X76.403 Y53.610 E10.11082
G1 X76.513 Y53.050 E10.13573
G1 X76.663 Y52.500 E10.16061
G1 X76.753 Y52.220 E10.17344
G1 X76.963 Y51.690 E10.19832
G1 X77.083 Y51.430 E10.21082
G1 X77.455 Y50.784 E10.24336
G1 X78.093 Y51.150 F6000.000
G1 X78.563 Y50.490 F540.000 E10.27872
G1 X78.923 Y50.080 E10.30253
G1 X79.523 Y49.530 E10.33805
G1 X79.953 Y49.210 E10.36144
G1 X80.413 Y48.920 E10.38517
G1 X80.893 Y48.660 E10.40899
G1 X81.143 Y48.550 E10.42091
G1 X81.913 Y48.280 E10.45652
G1 X82.703 Y48.100 E10.49188
G1 X82.973 Y48.060 E10.50379
G1 X83.783 Y48.010 E10.53921
G1 X95.783 Y48.010 E11.06289
G1 X96.593 Y48.060 E11.09831
G1 X97.123 Y48.150 E11.12177
G1 X97.643 Y48.280 E11.14516
G1 X98.403 Y48.550 E11.18036
G1 X99.133 Y48.900 E11.21569
G1 X99.583 Y49.190 E11.23905
G1 X100.023 Y49.510 E11.26279
G1 X100.423 Y49.870 E11.28628
G1 X100.803 Y50.250 E11.30973
G1 X101.143 Y50.670 E11.33331
G1 X101.453 Y51.110 E11.35680
G1 X101.723 Y51.580 E11.38046
G1 X101.963 Y52.060 E11.40388
G1 X102.153 Y52.560 E11.42722
G1 X102.313 Y53.080 E11.45096
G1 X102.463 Y53.870 E11.48605
G1 X102.523 Y54.680 E11.52150
G1 X102.953 Y95.170 E13.28860
G1 X102.943 Y125.510 E14.61264
G1 X102.903 Y126.050 E14.63627
G1 X102.813 Y126.590 E14.66016
G1 X102.683 Y127.110 E14.68356
G1 X102.513 Y127.630 E14.70743
G1 X102.303 Y128.130 E14.73110
G1 X102.043 Y128.610 E14.75492
G1 X101.753 Y129.070 E14.77865
G1 X101.433 Y129.500 E14.80204
G1 X101.073 Y129.910 E14.82585
G1 X100.683 Y130.280 E14.84931
G1 X100.263 Y130.620 E14.87290
G1 X99.813 Y130.930 E14.89674
G1 X99.103 Y131.330 E14.93231
G1 X98.853 Y131.440 E14.94423
G1 X98.343 Y131.630 E14.96798
G1 X97.823 Y131.780 E14.99160
G1 X97.023 Y131.930 E15.02712
G1 X96.213 Y131.980 E15.06253
G1 X84.213 Y131.980 E15.58622
G1 X83.403 Y131.930 E15.62163
G1 X82.613 Y131.780 E15.65672
G1 X81.843 Y131.540 E15.69192
G1 X81.343 Y131.330 E15.71559
G1 X80.863 Y131.090 E15.73901
G1 X80.413 Y130.800 E15.76237
G1 X79.973 Y130.480 E15.78611
G1 X79.573 Y130.120 E15.80960
G1 X79.193 Y129.740 E15.83305
G1 X78.853 Y129.320 E15.85663
G1 X78.403 Y128.650 E15.89185
G1 X78.033 Y127.930 E15.92718
G1 X77.843 Y127.430 E15.95052
G1 X77.683 Y126.910 E15.97427
G1 X77.533 Y126.120 E16.00936
G1 X77.473 Y125.310 E16.04480
G1 X77.043 Y84.820 E17.81190
G1 X77.043 Y54.750 E19.12417
G1 X77.093 Y53.940 E19.15958
G1 X77.183 Y53.400 E19.18347
G1 X77.313 Y52.880 E19.20686
G1 X77.483 Y52.360 E19.23074
G1 X77.693 Y51.860 E19.25441
G1 X78.036 Y51.244 E19.28516
G1 F1800.000 E18.28516
G92 E0
G1 X82.541 Y91.204 F6000.000
G1 F1800.000 E1.00000
G1 X97.893 Y91.204 F540.000 E1.66995
G1 X100.263 Y93.574 E1.81623
G1 X100.263 Y126.926 E3.27171
G1 X97.893 Y129.296 E3.41798
G1 X82.541 Y129.296 E4.08793
G1 X80.171 Y126.926 E4.23420
G1 X80.171 Y93.574 E5.68968
G1 X82.463 Y91.282 E5.83114
G1 F1800.000 E4.83114
G92 E0
G1 X81.783 Y50.750 F6000.000
G1 X82.107 Y88.796
G1 F1800.000 E1.00000
G1 X79.737 Y86.426 F540.000 E1.14627
G1 X79.737 Y53.074 E2.60175
G1 X82.107 Y50.704 E2.74802
G1 X97.459 Y50.704 E3.41798
G1 X99.829 Y53.074 E3.56425
G1 X99.829 Y86.426 E5.01973
G1 X97.459 Y88.796 E5.16600
G1 X82.218 Y88.796 E5.83114
G1 F1800.000 E4.83114
G92 E0
G1 X81.783 Y50.750 F6000.000
G1 X82.846 Y91.940
G1 F1800.000 E1.00000
G1 X97.588 Y91.940 F540.000 E1.64336
G1 X99.527 Y93.879 E1.76304
G1 X99.527 Y126.621 E3.19192
G1 X97.588 Y128.560 E3.31160
G1 X82.846 Y128.560 E3.95496
G1 X80.906 Y126.621 E4.07464
G1 X80.906 Y93.879 E5.50352
G1 X82.767 Y92.018 E5.61838
G1 F1800.000 E4.61838
G92 E0
G1 X81.783 Y50.750 F6000.000
G1 X82.412 Y88.060
G1 F1800.000 E1.00000
G1 X80.473 Y86.121 F540.000 E1.11968
G1 X80.473 Y53.379 E2.54856
G1 X82.412 Y51.440 E2.66824
G1 X97.154 Y51.440 E3.31160
G1 X99.094 Y53.379 E3.43128
G1 X99.094 Y86.121 E4.86016
G1 X97.154 Y88.060 E4.97984
G1 X82.523 Y88.060 E5.61838
G1 F1800.000 E4.61838
G92 E0
G1 X81.783 Y50.750 F6000.000
G1 X83.150 Y92.675
G1 F1800.000 E1.00000
G1 X97.283 Y92.675 F540.000 E1.61677
G1 X98.791 Y94.184 E1.70985
G1 X98.791 Y126.316 E3.11214
G1 X97.283 Y127.825 E3.20522
G1 X83.150 Y127.825 E3.82199
G1 X81.642 Y126.316 E3.91507
G1 X81.642 Y94.184 E5.31736
G1 X83.072 Y92.753 E5.40562
G1 F1800.000 E4.40562
G92 E0
G1 X81.783 Y50.750 F6000.000
G1 X82.717 Y87.325
G1 F1800.000 E1.00000
G1 X81.209 Y85.816 F540.000 E1.09308
G1 X81.209 Y53.684 E2.49537
G1 X82.717 Y52.175 E2.58845
G1 X96.850 Y52.175 E3.20522
G1 X98.358 Y53.684 E3.29830
G1 X98.358 Y85.816 E4.70059
G1 X96.850 Y87.325 E4.79367
G1 X82.827 Y87.325 E5.40563
G1 F1800.000 E4.40563
G92 E0
G1 X81.783 Y50.750 F6000.000
G1 X83.455 Y93.411
G1 F1800.000 E1.00000
G1 X96.978 Y93.411 F540.000 E1.59017
G1 X98.056 Y94.488 E1.65666
G1 X98.056 Y126.012 E3.03235
G1 X96.978 Y127.089 E3.09884
G1 X83.455 Y127.089 E3.68901
G1 X82.378 Y126.012 E3.75550
G1 X82.378 Y94.488 E5.13120
G1 X83.377 Y93.489 E5.19287
G1 F1800.000 E4.19287
G92 E0
G1 X81.783 Y50.750 F6000.000
G1 X83.022 Y86.589
G1 F1800.000 E1.00000
G1 X81.944 Y85.512 F540.000 E1.06649
G1 X81.944 Y53.988 E2.44218
G1 X83.022 Y52.911 E2.50867
G1 X96.545 Y52.911 E3.09884
G1 X97.622 Y53.988 E3.16533
G1 X97.622 Y85.512 E4.54102
G1 X96.545 Y86.589 E4.60751
G1 X83.132 Y86.589 E5.19287
G1 F1800.000 E4.19287
G92 E0
G1 X81.783 Y50.750 F6000.000
G1 X83.760 Y94.147
G1 F1800.000 E1.00000
G1 X96.674 Y94.147 F540.000 E1.56358
G1 X97.320 Y94.793 E1.60347
G1 X97.320 Y125.707 E2.95257
G1 X96.674 Y126.353 E2.99246
G1 X83.760 Y126.353 E3.55604
G1 X83.113 Y125.707 E3.59593
G1 X83.113 Y94.793 E4.94503
G1 X83.682 Y94.225 E4.98011
G1 F1800.000 E3.98011
G92 E0
G1 X81.783 Y50.750 F6000.000
G1 X83.326 Y85.853
G1 F1800.000 E1.00000
G1 X82.680 Y85.207 F540.000 E1.03989
G1 X82.680 Y54.293 E2.38899
G1 X83.326 Y53.647 E2.42889
G1 X96.240 Y53.647 E2.99246
G1 X96.887 Y54.293 E3.03235
G1 X96.887 Y85.207 E4.38146
G1 X96.240 Y85.853 E4.42135
G1 X83.437 Y85.853 E4.98011
G1 F1800.000 E3.98011
G92 E0
G1 X81.783 Y50.750 F6000.000
G1 X84.064 Y94.882
G1 F1800.000 E1.00000
G1 X96.369 Y94.882 F540.000 E1.53698
G1 X96.584 Y95.098 E1.55028
G1 X96.584 Y125.402 E2.87279
G1 X96.369 Y125.618 E2.88608
G1 X84.064 Y125.618 E3.42306
G1 X83.849 Y125.402 E3.43636
G1 X83.849 Y95.098 E4.75887
G1 X83.986 Y94.960 E4.76735
G1 F1800.000 E3.76735
G92 E0
G1 X81.783 Y50.750 F6000.000
G1 X83.631 Y85.118
G1 F1800.000 E1.00000
G1 X83.416 Y84.902 F540.000 E1.01330
G1 X83.416 Y54.598 E2.33580
G1 X83.631 Y54.382 E2.34910
G1 X95.936 Y54.382 E2.88608
G1 X96.151 Y54.598 E2.89938
G1 X96.151 Y84.902 E4.22189
G1 X95.936 Y85.118 E4.23519
G1 X83.741 Y85.118 E4.76735
G1 X84.151 Y84.382 F6000.000
G1 X84.151 Y55.118 F378.000 E6.04446
G1 X95.416 Y55.118 E6.53604
G1 X95.416 Y84.382 E7.81315
G1 X84.261 Y84.382 E8.29991
G1 X84.519 Y83.745 F6000.000
G1 X84.887 Y83.647
G1 X84.887 Y55.853 F540.000 E9.51282
G1 X94.680 Y55.853 E9.94019
G1 X94.680 Y83.647 E11.15309
G1 X84.997 Y83.647 E11.57565
G1 X85.622 Y82.911 F6000.000
G1 X85.622 Y56.589 F540.000 E12.72435
G1 X93.944 Y56.589 E13.08752
G1 X93.944 Y82.911 E14.23622
G1 X85.733 Y82.911 E14.59457
G1 X86.156 Y82.378 F6000.000
G1 X86.156 Y81.329 F1080.000 E14.64072
G1 X87.205 Y82.378 E14.70598
G1 X88.253 Y82.378 E14.75211
G1 X86.156 Y80.280 E14.88262
G1 X86.156 Y79.231 E14.92876
G1 X89.302 Y82.378 E15.12451
G1 X90.351 Y82.378 E15.17065
G1 X86.156 Y78.183 E15.43165
G1 X86.156 Y77.134 E15.47779
G1 X91.399 Y82.378 E15.80404
G1 X92.448 Y82.378 E15.85017
G1 X86.156 Y76.085 E16.24167
G1 X86.156 Y75.036 E16.28780
G1 X93.411 Y82.292 E16.73921
G1 X93.411 Y81.243 E16.78534
G1 X86.156 Y73.988 E17.23675
G1 X86.156 Y72.939 E17.28289
G1 X93.411 Y80.194 E17.73429
G1 X93.411 Y79.146 E17.78043
G1 X86.156 Y71.890 E18.23183
G1 X86.156 Y70.842 E18.27797
G1 X93.411 Y78.097 E18.72937
G1 X93.411 Y77.048 E18.77551
G1 X86.156 Y69.793 E19.22691
G1 X86.156 Y68.744 E19.27305
G1 X93.411 Y76.000 E19.72445
G1 X93.411 Y74.951 E19.77059
G1 X86.156 Y67.695 E20.22199
G1 X86.156 Y66.647 E20.26813
G1 X93.411 Y73.902 E20.71953
G1 X93.411 Y72.853 E20.76567
G1 X86.156 Y65.598 E21.21707
G1 X86.156 Y64.549 E21.26321
G1 X93.411 Y71.805 E21.71461
G1 X93.411 Y70.756 E21.76075
G1 X86.156 Y63.500 E22.21215
G1 X86.156 Y62.452 E22.25829
G1 X93.411 Y69.707 E22.70969
G1 X93.411 Y68.658 E22.75583
G1 X86.156 Y61.403 E23.20724
G1 X86.156 Y60.354 E23.25337
G1 X93.411 Y67.610 E23.70478
G1 X93.411 Y66.561 E23.75091
G1 X86.156 Y59.306 E24.20232
G1 X86.156 Y58.257 E24.24845
G1 X93.411 Y65.512 E24.69986
G1 X93.411 Y64.464 E24.74599
G1 X86.156 Y57.208 E25.19740
G1 X87.119 Y57.122 E25.23993
G1 X93.411 Y63.415 E25.63142
G1 X93.411 Y62.366 E25.67756
G1 X88.167 Y57.122 E26.00381
G1 X89.216 Y57.122 E26.04994
G1 X93.411 Y61.317 E26.31094
G1 X93.411 Y60.269 E26.35708
G1 X90.265 Y57.122 E26.55283
G1 X91.313 Y57.122 E26.59897
G1 X93.411 Y59.220 E26.72947
G1 X93.411 Y58.171 E26.77561
G1 X92.362 Y57.122 E26.84087
G1 X93.411 Y57.122 E26.88701
G1 F1800.000 E25.88701
G92 E0
G1 X98.783 Y53.507 F6000.000
G1 X98.783 Y85.993
G1 X97.459 Y92.250
G1 X95.849 Y95.618
G1 F1800.000 E1.00000
G1 X95.849 Y124.882 F378.000 E2.27711
G1 X84.584 Y124.882 E2.76869
G1 X84.584 Y95.618 E4.04580
G1 X95.739 Y95.618 E4.53256
G1 X95.481 Y96.255 F6000.000
G1 X95.113 Y96.353
G1 X95.113 Y124.147 F540.000 E5.74546
G1 X85.320 Y124.147 E6.17284
G1 X85.320 Y96.353 E7.38574
G1 X95.003 Y96.353 E7.80830
G1 X94.378 Y97.089 F6000.000
G1 X94.378 Y123.411 F540.000 E8.95700
G1 X86.056 Y123.411 E9.32017
G1 X86.056 Y97.089 E10.46887
G1 X94.267 Y97.089 E10.82722
G1 X93.844 Y97.622 F6000.000
G1 X92.795 Y97.622 F1080.000 E10.87337
G1 X93.844 Y98.671 E10.93862
G1 X93.844 Y99.720 E10.98476
G1 X91.747 Y97.622 E11.11527
G1 X90.698 Y97.622 E11.16140
G1 X93.844 Y100.769 E11.35716
G1 X93.844 Y101.817 E11.40329
G1 X89.649 Y97.622 E11.66429
G1 X88.601 Y97.622 E11.71043
G1 X93.844 Y102.866 E12.03668
G1 X93.844 Y103.915 E12.08281
G1 X87.552 Y97.622 E12.47431
G1 X86.589 Y97.708 E12.51684
G1 X93.844 Y104.964 E12.96824
G1 X93.844 Y106.012 E13.01438
G1 X86.589 Y98.757 E13.46578
G1 X86.589 Y99.805 E13.51192
G1 X93.844 Y107.061 E13.96332
G1 X93.844 Y108.110 E14.00946
G1 X86.589 Y100.854 E14.46086
G1 X86.589 Y101.903 E14.50700
G1 X93.844 Y109.158 E14.95840
G1 X93.844 Y110.207 E15.00454
G1 X86.589 Y102.952 E15.45595
G1 X86.589 Y104.000 E15.50208
G1 X93.844 Y111.256 E15.95349
G1 X93.844 Y112.305 E15.99962
G1 X86.589 Y105.049 E16.45103
G1 X86.589 Y106.098 E16.49716
G1 X93.844 Y113.353 E16.94857
G1 X93.844 Y114.402 E16.99470
G1 X86.589 Y107.147 E17.44611
G1 X86.589 Y108.195 E17.49224
G1 X93.844 Y115.451 E17.94365
G1 X93.844 Y116.500 E17.98978
G1 X86.589 Y109.244 E18.44119
G1 X86.589 Y110.293 E18.48733
G1 X93.844 Y117.548 E18.93873
G1 X93.844 Y118.597 E18.98487
G1 X86.589 Y111.342 E19.43627
G1 X86.589 Y112.390 E19.48241
G1 X93.844 Y119.646 E19.93381
G1 X93.844 Y120.694 E19.97995
G1 X86.589 Y113.439 E20.43135
G1 X86.589 Y114.488 E20.47749
G1 X93.844 Y121.743 E20.92889
G1 X93.844 Y122.792 E20.97503
G1 X86.589 Y115.536 E21.42643
G1 X86.589 Y116.585 E21.47257
G1 X92.881 Y122.878 E21.86406
G1 X91.833 Y122.878 E21.91020
G1 X86.589 Y117.634 E22.23645
G1 X86.589 Y118.683 E22.28259
G1 X90.784 Y122.878 E22.54359
G1 X89.735 Y122.878 E22.58972
G1 X86.589 Y119.731 E22.78548
G1 X86.589 Y120.780 E22.83161
G1 X88.687 Y122.878 E22.96212
G1 X87.638 Y122.878 E23.00826
G1 X86.589 Y121.829 E23.07352
G1 X86.589 Y122.878 E23.11966
M106 S255
M104 S225 ; set temperature
M140 S110 ; set bed temperature
G1 F1800.000 E22.11966
G92 E0
G1 Z-0.750 F6000.000
G1 X82.974 Y128.250
G1 X81.217 Y126.493
G1 X80.783 Y85.993
G1 X85.747 Y82.787
G1 F1800.000 E1.00000
G1 X85.747 Y56.713 F1524.655 E1.75927
G1 X93.820 Y56.713 E1.99436
G1 X93.820 Y82.787 E2.75363
G1 X85.865 Y82.787 E2.98529
G1 X84.961 Y83.572 F6000.000
G1 X84.961 Y55.928 F1524.655 E3.79031
G1 X94.605 Y55.928 E4.07114
G1 X94.605 Y83.572 E4.87616
G1 X85.079 Y83.572 E5.15356
G1 X84.176 Y84.357 F6000.000
G1 X84.176 Y55.143 F1067.258 E6.00432
G1 X95.391 Y55.143 E6.33090
G1 X95.391 Y84.357 E7.18165
G1 X84.294 Y84.357 E7.50480
G1 X84.569 Y83.677 F6000.000
G1 X93.251 Y82.217
G1 X92.112 Y82.217 F3049.310 E7.53877
G1 X93.251 Y81.079 E7.58681
G1 X93.251 Y79.941 E7.62077
G1 X90.974 Y82.217 E7.71684
G1 X89.836 Y82.217 E7.75080
G1 X93.251 Y78.803 E7.89491
G1 X93.251 Y77.664 E7.92887
G1 X88.698 Y82.217 E8.12100
G1 X87.560 Y82.217 E8.15496
G1 X93.251 Y76.526 E8.39513
G1 X93.251 Y75.388 E8.42909
G1 X86.421 Y82.217 E8.71728
G1 X86.316 Y81.184 E8.74826
G1 X93.251 Y74.250 E9.04090
G1 X93.251 Y73.112 E9.07486
G1 X86.316 Y80.046 E9.36750
G1 X86.316 Y78.908 E9.40146
G1 X93.251 Y71.974 E9.69410
G1 X93.251 Y70.835 E9.72806
G1 X86.316 Y77.770 E10.02070
G1 X86.316 Y76.632 E10.05466
G1 X93.251 Y69.697 E10.34730
G1 X93.251 Y68.559 E10.38126
G1 X86.316 Y75.494 E10.67389
G1 X86.316 Y74.355 E10.70786
G1 X93.251 Y67.421 E11.00049
G1 X93.251 Y66.283 E11.03446
G1 X86.316 Y73.217 E11.32709
G1 X86.316 Y72.079 E11.36106
G1 X93.251 Y65.145 E11.65369
G1 X93.251 Y64.006 E11.68765
G1 X86.316 Y70.941 E11.98029
G1 X86.316 Y69.803 E12.01425
G1 X93.251 Y62.868 E12.30689
G1 X93.251 Y61.730 E12.34085
G1 X86.316 Y68.665 E12.63349
G1 X86.316 Y67.526 E12.66745
G1 X93.251 Y60.592 E12.96009
