; generated by Slic3r 0.9.9 on 2013-07-09 at 22:26:51

; layer_height = 0.25
; perimeters = 3
; top_solid_layers = 3
; bottom_solid_layers = 3
; fill_density = 0.4
; perimeter_speed = 30
; infill_speed = 60
; travel_speed = 100  
; nozzle_diameter = 0.5
; filament_diameter = 2.93
; extrusion_multiplier = 1
; perimeters extrusion width = 0.84mm
; infill extrusion width = 0.84mm
; solid infill extrusion width = 0.84mm
; top infill extrusion width = 0.84mm
; first layer extrusion width = 1.00mm

G21 ; set units to millimeters
M107
M190 S115 ; wait for bed temperature to be reached
M104 S230 ; set temperature
G28 ; home all axes
G1 Z5 F5000 ; lift nozzle
M109 S230 ; wait for temperature to be reached
G90 ; use absolute coordinates
G92 E0
M82 ; use absolute distances for extrusion
G1 F1800.000 E-1.00000
G92 E0
G1 Z-0.900 F6000.000
G1 X66.490 Y69.490
G1 F1800.000 E1.00000
G1 X67.150 Y68.910 F540.000 E1.05816
G1 X67.610 Y68.570 E1.09603
G1 X68.360 Y68.120 E1.15393
G1 X68.890 Y67.860 E1.19301
G1 X69.710 Y67.560 E1.25081
G1 X70.550 Y67.350 E1.30813
G1 X71.130 Y67.260 E1.34699
G1 X72.000 Y67.210 E1.40467
G1 X108.290 Y67.220 E3.80703
G1 X108.870 Y67.260 E3.84551
G1 X109.450 Y67.350 E3.88437
G1 X110.020 Y67.480 E3.92307
G1 X110.840 Y67.750 E3.98022
G1 X111.110 Y67.860 E3.99952
G1 X111.640 Y68.120 E4.03860
G1 X112.140 Y68.410 E4.07686
G1 X112.390 Y68.570 E4.09651
G1 X113.080 Y69.100 E4.15411
G1 X113.300 Y69.290 E4.17335
G1 X113.710 Y69.700 E4.21174
G1 X114.090 Y70.150 E4.25073
G1 X114.430 Y70.610 E4.28859
G1 X114.880 Y71.360 E4.34649
G1 X115.140 Y71.890 E4.38557
G1 X115.440 Y72.710 E4.44338
G1 X115.650 Y73.550 E4.50069
G1 X115.740 Y74.130 E4.53955
G1 X115.790 Y75.000 E4.59724
G1 X115.780 Y105.290 E6.60240
G1 X115.740 Y105.870 E6.64088
G1 X115.650 Y106.450 E6.67974
G1 X115.520 Y107.020 E6.71844
G1 X115.250 Y107.840 E6.77559
G1 X115.140 Y108.110 E6.79489
G1 X114.880 Y108.640 E6.83397
G1 X114.590 Y109.140 E6.87224
G1 X114.430 Y109.390 E6.89188
G1 X113.900 Y110.080 E6.94948
G1 X113.710 Y110.300 E6.96872
G1 X113.300 Y110.710 E7.00711
G1 X112.850 Y111.090 E7.04610
G1 X112.390 Y111.430 E7.08396
G1 X111.640 Y111.880 E7.14186
G1 X111.110 Y112.140 E7.18094
G1 X110.290 Y112.440 E7.23875
G1 X109.450 Y112.650 E7.29606
G1 X108.870 Y112.740 E7.33492
G1 X108.000 Y112.790 E7.39261
G1 X71.710 Y112.780 E9.79496
G1 X71.130 Y112.740 E9.83345
G1 X70.550 Y112.650 E9.87230
G1 X69.980 Y112.520 E9.91100
G1 X69.160 Y112.250 E9.96815
G1 X68.890 Y112.140 E9.98745
G1 X68.360 Y111.880 E10.02653
G1 X67.860 Y111.590 E10.06480
G1 X67.610 Y111.430 E10.08445
G1 X66.920 Y110.900 E10.14204
G1 X66.700 Y110.710 E10.16129
G1 X66.290 Y110.300 E10.19967
G1 X65.910 Y109.850 E10.23866
G1 X65.570 Y109.390 E10.27653
G1 X65.120 Y108.640 E10.33443
G1 X64.860 Y108.110 E10.37351
G1 X64.560 Y107.290 E10.43131
G1 X64.350 Y106.450 E10.48863
G1 X64.260 Y105.870 E10.52748
G1 X64.210 Y105.000 E10.58517
G1 X64.220 Y74.710 E12.59033
G1 X64.260 Y74.130 E12.62882
G1 X64.410 Y73.270 E12.68661
G1 X64.650 Y72.430 E12.74444
G1 X64.860 Y71.890 E12.78280
G1 X65.120 Y71.360 E12.82188
G1 X65.570 Y70.610 E12.87978
G1 X65.910 Y70.150 E12.91764
G1 X66.398 Y69.587 E12.96695
G1 X66.940 Y70.320 F6000.000
G1 X67.520 Y69.760 F540.000 E13.02032
G1 X67.950 Y69.420 E13.05661
G1 X68.400 Y69.120 E13.09241
G1 X69.110 Y68.740 E13.14572
G1 X69.870 Y68.440 E13.19981
G1 X70.390 Y68.300 E13.23546
G1 X70.920 Y68.190 E13.27129
G1 X71.730 Y68.110 E13.32518
G1 X108.270 Y68.110 E15.74408
G1 X109.080 Y68.190 E15.79796
G1 X109.340 Y68.240 E15.81549
G1 X110.130 Y68.440 E15.86943
G1 X110.390 Y68.530 E15.88765
G1 X110.890 Y68.740 E15.92355
G1 X111.600 Y69.120 E15.97686
G1 X112.050 Y69.420 E16.01266
G1 X112.480 Y69.760 E16.04895
G1 X113.060 Y70.320 E16.10232
G1 X113.580 Y70.950 E16.15640
G1 X113.880 Y71.400 E16.19220
G1 X114.260 Y72.110 E16.24551
G1 X114.560 Y72.870 E16.29960
G1 X114.700 Y73.390 E16.33525
G1 X114.810 Y73.920 E16.37108
G1 X114.890 Y74.730 E16.42496
G1 X114.890 Y105.270 E18.44667
G1 X114.810 Y106.080 E18.50056
G1 X114.760 Y106.340 E18.51808
G1 X114.560 Y107.130 E18.57203
G1 X114.470 Y107.390 E18.59024
G1 X114.260 Y107.890 E18.62614
G1 X113.880 Y108.600 E18.67945
G1 X113.580 Y109.050 E18.71525
G1 X113.240 Y109.480 E18.75154
G1 X112.680 Y110.060 E18.80491
G1 X112.050 Y110.580 E18.85899
G1 X111.600 Y110.880 E18.89479
G1 X110.890 Y111.260 E18.94810
G1 X110.130 Y111.560 E19.00219
G1 X109.610 Y111.700 E19.03784
G1 X109.080 Y111.810 E19.07367
G1 X108.270 Y111.890 E19.12756
G1 X71.730 Y111.890 E21.54646
G1 X70.920 Y111.810 E21.60034
G1 X70.660 Y111.760 E21.61787
G1 X69.870 Y111.560 E21.67182
G1 X69.610 Y111.470 E21.69003
G1 X69.110 Y111.260 E21.72593
G1 X68.400 Y110.880 E21.77924
G1 X67.950 Y110.580 E21.81504
G1 X67.520 Y110.240 E21.85133
G1 X66.940 Y109.680 E21.90470
G1 X66.420 Y109.050 E21.95878
G1 X66.120 Y108.600 E21.99458
G1 X65.740 Y107.890 E22.04789
G1 X65.440 Y107.130 E22.10198
G1 X65.300 Y106.610 E22.13763
G1 X65.190 Y106.080 E22.17346
G1 X65.110 Y105.270 E22.22734
G1 X65.110 Y74.730 E24.24905
G1 X65.190 Y73.920 E24.30294
G1 X65.240 Y73.660 E24.32046
G1 X65.440 Y72.870 E24.37441
G1 X65.630 Y72.360 E24.41044
G1 X65.860 Y71.870 E24.44627
G1 X66.120 Y71.400 E24.48183
G1 X66.420 Y70.950 E24.51763
G1 X66.850 Y70.420 E24.56285
G1 F1800.000 E23.56285
G92 E0
G1 X91.983 Y73.336 F6000.000
G1 F1800.000 E1.00000
G1 X94.336 Y70.983 F540.000 E1.22030
G1 X109.664 Y70.983 E2.23499
G1 X112.017 Y73.336 E2.45530
G1 X112.017 Y106.664 E4.66156
G1 X109.664 Y109.017 E4.88187
G1 X94.336 Y109.017 E5.89656
G1 X91.983 Y106.664 E6.11686
G1 X91.983 Y73.470 E8.31426
G1 F1800.000 E7.31426
G92 E0
G1 X94.000 Y71.000 F6000.000
G1 X86.000 Y71.000
G1 X88.017 Y73.336
G1 F1800.000 E1.00000
G1 X88.017 Y106.664 F540.000 E3.20627
G1 X85.664 Y109.017 E3.42657
G1 X70.336 Y109.017 E4.44126
G1 X67.983 Y106.664 E4.66156
G1 X67.983 Y73.336 E6.86783
G1 X70.336 Y70.983 E7.08813
G1 X85.664 Y70.983 E8.10282
G1 X87.922 Y73.241 E8.31426
G1 F1800.000 E7.31426
G92 E0
G1 X86.000 Y71.000 F6000.000
G1 X94.000 Y71.000
G1 X92.876 Y73.706
G1 F1800.000 E1.00000
G1 X94.706 Y71.876 F540.000 E1.17135
G1 X109.294 Y71.876 E2.13708
G1 X111.124 Y73.706 E2.30843
G1 X111.124 Y106.294 E4.46574
G1 X109.294 Y108.124 E4.63709
G1 X94.706 Y108.124 E5.60282
G1 X92.876 Y106.294 E5.77417
G1 X92.876 Y73.840 E7.92261
G1 F1800.000 E6.92261
G92 E0
G1 X94.000 Y71.000 F6000.000
G1 X86.000 Y71.000
G1 X87.124 Y73.706
G1 F1800.000 E1.00000
G1 X87.124 Y106.294 F540.000 E3.15731
G1 X85.294 Y108.124 E3.32866
G1 X70.706 Y108.124 E4.29439
G1 X68.876 Y106.294 E4.46574
G1 X68.876 Y73.706 E6.62305
G1 X70.706 Y71.876 E6.79440
G1 X85.294 Y71.876 E7.76013
G1 X87.030 Y73.611 E7.92261
G1 F1800.000 E6.92261
G92 E0
G1 X86.000 Y71.000 F6000.000
G1 X94.000 Y71.000
G1 X93.768 Y74.076
G1 F1800.000 E1.00000
G1 X95.076 Y72.768 F540.000 E1.12239
G1 X108.924 Y72.768 E2.03917
G1 X110.232 Y74.076 E2.16156
G1 X110.232 Y105.924 E4.26991
G1 X108.924 Y107.232 E4.39230
G1 X95.076 Y107.232 E5.30908
G1 X93.768 Y105.924 E5.43147
G1 X93.768 Y74.209 E7.53096
G1 F1800.000 E6.53096
G92 E0
G1 X94.000 Y71.000 F6000.000
G1 X86.000 Y71.000
G1 X86.232 Y74.076
G1 F1800.000 E1.00000
G1 X86.232 Y105.924 F540.000 E3.10835
G1 X84.924 Y107.232 E3.23075
G1 X71.076 Y107.232 E4.14752
G1 X69.768 Y105.924 E4.26991
G1 X69.768 Y74.076 E6.37827
G1 X71.076 Y72.768 E6.50066
G1 X84.924 Y72.768 E7.41743
G1 X86.137 Y73.981 E7.53096
G1 F1800.000 E6.53096
G92 E0
G1 X86.000 Y71.000 F6000.000
G1 X94.000 Y71.000
G1 X94.661 Y74.445
G1 F1800.000 E1.00000
G1 X95.445 Y73.661 F540.000 E1.07343
G1 X108.555 Y73.661 E1.94125
G1 X109.339 Y74.445 E2.01469
G1 X109.339 Y105.555 E4.07409
G1 X108.555 Y106.339 E4.14752
G1 X95.445 Y106.339 E5.01534
G1 X94.661 Y105.555 E5.08878
G1 X94.661 Y74.579 E7.13931
G1 F1800.000 E6.13931
G92 E0
G1 X94.000 Y71.000 F6000.000
G1 X86.000 Y71.000
G1 X85.339 Y74.445
G1 F1800.000 E1.00000
G1 X85.339 Y105.555 F540.000 E3.05940
G1 X84.555 Y106.339 E3.13283
G1 X71.445 Y106.339 E4.00065
G1 X70.661 Y105.555 E4.07409
G1 X70.661 Y74.445 E6.13348
G1 X71.445 Y73.661 E6.20692
G1 X84.555 Y73.661 E7.07474
G1 X85.244 Y74.351 E7.13931
G1 F1800.000 E6.13931
G92 E0
G1 X86.000 Y71.000 F6000.000
G1 X94.000 Y71.000
G1 X95.554 Y74.815
G1 F1800.000 E1.00000
G1 X95.815 Y74.554 F540.000 E1.02448
G1 X108.185 Y74.554 E1.84334
G1 X108.446 Y74.815 E1.86782
G1 X108.446 Y105.185 E3.87826
G1 X108.185 Y105.446 E3.90274
G1 X95.815 Y105.446 E4.72160
G1 X95.554 Y105.185 E4.74608
G1 X95.554 Y74.949 E6.74766
G1 F1800.000 E5.74766
G92 E0
G1 X94.000 Y71.000 F6000.000
G1 X86.000 Y71.000
G1 X84.446 Y74.815
G1 F1800.000 E1.00000
G1 X84.446 Y105.185 F540.000 E3.01044
G1 X84.185 Y105.446 E3.03492
G1 X71.815 Y105.446 E3.85378
G1 X71.554 Y105.185 E3.87826
G1 X71.554 Y74.815 E5.88870
G1 X71.815 Y74.554 E5.91318
G1 X84.185 Y74.554 E6.73204
G1 X84.352 Y74.720 E6.74766
G1 X83.554 Y75.446 F6000.000
G1 X83.554 Y104.554 F378.000 E8.67453
G1 X72.446 Y104.554 E9.40982
G1 X72.446 Y75.446 E11.33668
G1 X83.420 Y75.446 E12.06311
G1 X83.107 Y76.219 F6000.000
G1 X82.661 Y76.339
G1 X82.661 Y103.661 F540.000 E13.87179
G1 X73.339 Y103.661 E14.48888
G1 X73.339 Y76.339 E16.29756
G1 X82.527 Y76.339 E16.90579
G1 X81.768 Y77.232 F6000.000
G1 X81.768 Y102.768 F540.000 E18.59628
G1 X74.232 Y102.768 E19.09519
G1 X74.232 Y77.232 E20.78567
G1 X81.634 Y77.232 E21.27572
G1 X81.121 Y77.879 F6000.000
G1 X81.121 Y79.149 F1080.000 E21.36033
G1 X79.851 Y77.879 E21.47998
G1 X78.581 Y77.879 E21.56458
G1 X81.121 Y80.419 E21.80388
G1 X81.121 Y81.690 E21.88848
G1 X77.310 Y77.879 E22.24741
G1 X76.040 Y77.879 E22.33201
G1 X81.121 Y82.960 E22.81059
G1 X81.121 Y84.230 E22.89518
G1 X74.879 Y77.988 E23.48316
G1 X74.879 Y79.258 E23.56775
G1 X81.121 Y85.500 E24.15572
G1 X81.121 Y86.770 E24.24032
G1 X74.879 Y80.528 E24.82829
G1 X74.879 Y81.798 E24.91289
G1 X81.121 Y88.040 E25.50086
G1 X81.121 Y89.311 E25.58546
G1 X74.879 Y83.068 E26.17343
G1 X74.879 Y84.338 E26.25803
G1 X81.121 Y90.581 E26.84600
G1 X81.121 Y91.851 E26.93060
G1 X74.879 Y85.609 E27.51857
G1 X74.879 Y86.879 E27.60317
G1 X81.121 Y93.121 E28.19114
G1 X81.121 Y94.391 E28.27573
G1 X74.879 Y88.149 E28.86371
G1 X74.879 Y89.419 E28.94830
G1 X81.121 Y95.662 E29.53627
G1 X81.121 Y96.932 E29.62087
G1 X74.879 Y90.689 E30.20884
G1 X74.879 Y91.960 E30.29344
G1 X81.121 Y98.202 E30.88141
G1 X81.121 Y99.472 E30.96601
G1 X74.879 Y93.230 E31.55398
G1 X74.879 Y94.500 E31.63858
G1 X81.121 Y100.742 E32.22655
G1 X81.121 Y102.012 E32.31115
G1 X74.879 Y95.770 E32.89912
G1 X74.879 Y97.040 E32.98372
G1 X79.960 Y102.121 E33.46229
G1 X78.690 Y102.121 E33.54689
G1 X74.879 Y98.310 E33.90583
G1 X74.879 Y99.581 E33.99042
G1 X77.419 Y102.121 E34.22972
G1 X76.149 Y102.121 E34.31432
G1 X74.879 Y100.851 E34.43398
G1 X74.879 Y102.121 E34.51859
G1 F1800.000 E33.51859
G92 E0
G1 X72.500 Y104.500 F6000.000
G1 X83.500 Y104.500
G1 X96.500 Y104.500
G1 X96.446 Y104.554
G1 F1800.000 E1.00000
G1 X96.446 Y75.446 F378.000 E2.92687
G1 X107.554 Y75.446 E3.66216
G1 X107.554 Y104.554 E5.58903
G1 X96.580 Y104.554 E6.31545
G1 X96.893 Y103.781 F6000.000
G1 X97.339 Y103.661
G1 X97.339 Y76.339 F540.000 E8.12413
G1 X106.661 Y76.339 E8.74123
G1 X106.661 Y103.661 E10.54990
G1 X97.473 Y103.661 E11.15814
G1 X98.232 Y102.768 F6000.000
G1 X98.232 Y77.232 F540.000 E12.84862
G1 X105.768 Y77.232 E13.34753
G1 X105.768 Y102.768 E15.03801
G1 X98.366 Y102.768 E15.52806
G1 X98.879 Y102.121 F6000.000
G1 X98.879 Y100.851 F1080.000 E15.61267
G1 X100.149 Y102.121 E15.73233
G1 X101.419 Y102.121 E15.81692
G1 X98.879 Y99.581 E16.05622
G1 X98.879 Y98.310 E16.14082
G1 X102.690 Y102.121 E16.49976
G1 X103.960 Y102.121 E16.58435
G1 X98.879 Y97.040 E17.06293
G1 X98.879 Y95.770 E17.14753
G1 X105.121 Y102.012 E17.73550
G1 X105.121 Y100.742 E17.82010
G1 X98.879 Y94.500 E18.40807
G1 X98.879 Y93.230 E18.49266
G1 X105.121 Y99.472 E19.08064
G1 X105.121 Y98.202 E19.16523
G1 X98.879 Y91.960 E19.75320
G1 X98.879 Y90.689 E19.83780
G1 X105.121 Y96.932 E20.42577
G1 X105.121 Y95.662 E20.51037
G1 X98.879 Y89.419 E21.09834
G1 X98.879 Y88.149 E21.18294
G1 X105.121 Y94.391 E21.77091
G1 X105.121 Y93.121 E21.85551
G1 X98.879 Y86.879 E22.44348
G1 X98.879 Y85.609 E22.52808
G1 X105.121 Y91.851 E23.11605
G1 X105.121 Y90.581 E23.20065
G1 X98.879 Y84.338 E23.78862
G1 X98.879 Y83.068 E23.87321
G1 X105.121 Y89.311 E24.46119
G1 X105.121 Y88.040 E24.54578
G1 X98.879 Y81.798 E25.13375
G1 X98.879 Y80.528 E25.21835
G1 X105.121 Y86.770 E25.80632
G1 X105.121 Y85.500 E25.89092
G1 X98.879 Y79.258 E26.47889
G1 X98.879 Y77.988 E26.56349
G1 X105.121 Y84.230 E27.15146
G1 X105.121 Y82.960 E27.23606
G1 X100.040 Y77.879 E27.71463
G1 X101.310 Y77.879 E27.79923
G1 X105.121 Y81.690 E28.15817
G1 X105.121 Y80.419 E28.24277
G1 X102.581 Y77.879 E28.48206
G1 X103.851 Y77.879 E28.56666
G1 X105.121 Y79.149 E28.68632
G1 X105.121 Y77.879 E28.77093
M106 S178
M104 S220 ; set temperature
M140 S110 ; set bed temperature
G1 F1800.000 E27.77093
G92 E0
G1 Z-0.650 F6000.000
G1 X107.500 Y75.500
G1 X96.500 Y75.500
G1 X83.500 Y75.500
G1 X82.037 Y76.963
G1 F1800.000 E1.00000
G1 X82.037 Y103.037 F1524.655 E1.75927
G1 X73.963 Y103.037 E1.99436
G1 X73.963 Y76.963 E2.75363
G1 X81.919 Y76.963 E2.98529
G1 X82.822 Y76.178 F6000.000
G1 X82.822 Y103.822 F1524.655 E3.79031
G1 X73.178 Y103.822 E4.07114
G1 X73.178 Y76.178 E4.87616
G1 X82.704 Y76.178 E5.15356
G1 X83.607 Y75.393 F6000.000
G1 X83.607 Y104.607 F1067.258 E6.00432
G1 X72.393 Y104.607 E6.33090
G1 X72.393 Y75.393 E7.18165
G1 X83.489 Y75.393 E7.50480
G1 X83.215 Y76.073 F6000.000
G1 X74.533 Y77.533
G1 X75.671 Y77.533 F3049.310 E7.53877
G1 X74.533 Y78.671 E7.58681
G1 X74.533 Y79.809 E7.62077
G1 X76.809 Y77.533 E7.71684
G1 X77.947 Y77.533 E7.75080
G1 X74.533 Y80.947 E7.89490
G1 X74.533 Y82.086 E7.92887
G1 X79.086 Y77.533 E8.12100
G1 X80.224 Y77.533 E8.15496
G1 X74.533 Y83.224 E8.39512
G1 X74.533 Y84.362 E8.42909
G1 X81.362 Y77.533 E8.71728
G1 X81.467 Y78.566 E8.74826
G1 X74.533 Y85.500 E9.04090
G1 X74.533 Y86.638 E9.07486
G1 X81.467 Y79.704 E9.36750
G1 X81.467 Y80.842 E9.40146
G1 X74.533 Y87.776 E9.69410
G1 X74.533 Y88.915 E9.72806
G1 X81.467 Y81.980 E10.02070
G1 X81.467 Y83.118 E10.05466
G1 X74.533 Y90.053 E10.34729
G1 X74.533 Y91.191 E10.38126
G1 X81.467 Y84.256 E10.67389
G1 X81.467 Y85.395 E10.70786
G1 X74.533 Y92.329 E11.00049
G1 X74.533 Y93.467 E11.03445
G1 X81.467 Y86.533 E11.32709
G1 X81.467 Y87.671 E11.36105
G1 X74.533 Y94.605 E11.65369
G1 X74.533 Y95.744 E11.68765
G1 X81.467 Y88.809 E11.98029
G1 X81.467 Y89.947 E12.01425
G1 X74.533 Y96.882 E12.30689
G1 X74.533 Y98.020 E12.34085
G1 X81.467 Y91.085 E12.63349
G1 X81.467 Y92.224 E12.66745
G1 X74.533 Y99.158 E12.96009
G1 X74.533 Y100.296 E12.99405
G1 X81.467 Y93.362 E13.28668
G1 X81.467 Y94.500 E13.32065
G1 X74.533 Y101.434 E13.61328
G1 X74.638 Y102.467 E13.64426
G1 X81.467 Y95.638 E13.93246
G1 X81.467 Y96.776 E13.96642
G1 X75.776 Y102.467 E14.20658
G1 X76.914 Y102.467 E14.24055
G1 X81.467 Y97.914 E14.43268
G1 X81.467 Y99.053 E14.46664
G1 X78.053 Y102.467 E14.61074
G1 X79.191 Y102.467 E14.64471
G1 X81.467 Y100.191 E14.74078
G1 X81.467 Y101.329 E14.77474
G1 X80.329 Y102.467 E14.82278
G1 X81.467 Y102.467 E14.85675
G1 F1800.000 E13.85675
G92 E0
G1 X83.500 Y104.500 F6000.000
G1 X96.500 Y104.500
G1 X97.963 Y103.037
G1 F1800.000 E1.00000
G1 X97.963 Y76.963 F1524.655 E1.75927
G1 X106.037 Y76.963 E1.99436
G1 X106.037 Y103.037 E2.75363
G1 X98.081 Y103.037 E2.98529
G1 X97.178 Y103.822 F6000.000
G1 X97.178 Y76.178 F1524.655 E3.79031
G1 X106.822 Y76.178 E4.07114
G1 X106.822 Y103.822 E4.87616
G1 X97.296 Y103.822 E5.15356
G1 X96.393 Y104.607 F6000.000
G1 X96.393 Y75.393 F1067.258 E6.00432
G1 X107.607 Y75.393 E6.33090
G1 X107.607 Y104.607 E7.18165
G1 X96.511 Y104.607 E7.50480
G1 X96.785 Y103.927 F6000.000
G1 X105.467 Y102.467
G1 X104.329 Y102.467 F3049.310 E7.53877
G1 X105.467 Y101.329 E7.58681
G1 X105.467 Y100.191 E7.62077
G1 X103.191 Y102.467 E7.71684
G1 X102.053 Y102.467 E7.75080
G1 X105.467 Y99.053 E7.89491
G1 X105.467 Y97.914 E7.92887
G1 X100.914 Y102.467 E8.12100
G1 X99.776 Y102.467 E8.15496
G1 X105.467 Y96.776 E8.39513
G1 X105.467 Y95.638 E8.42909
G1 X98.638 Y102.467 E8.71728
G1 X98.533 Y101.434 E8.74826
