; generated by Slic3r 0.9.9 on 2013-07-09 at 19:46:05

; layer_height = 0.31
; perimeters = 3
; top_solid_layers = 3
; bottom_solid_layers = 3
; fill_density = 0.4
; perimeter_speed = 30
; infill_speed = 60
; travel_speed = 100  
; nozzle_diameter = 0.5
; filament_diameter = 2.93
; extrusion_multiplier = 1
; perimeters extrusion width = 0.67mm
; infill extrusion width = 0.67mm
; solid infill extrusion width = 0.67mm
; top infill extrusion width = 0.67mm
; first layer extrusion width = 1.00mm

G21 ; set units to millimeters
M107
M190 S120 ; wait for bed temperature to be reached
M104 S240 ; set temperature
G28 ; home all axes
G1 Z5 F5000 ; lift nozzle
M109 S240 ; wait for temperature to be reached
G90 ; use absolute coordinates
G92 E0
M82 ; use absolute distances for extrusion
G1 F1800.000 E-1.00000
G92 E0
G1 Z-0.900 F6000.000
G1 X65.910 Y52.150
G1 F1800.000 E1.00000
G1 X66.490 Y51.490 F540.000 E1.05816
G1 X66.920 Y51.100 E1.09659
G1 X67.610 Y50.570 E1.15419
G1 X68.360 Y50.120 E1.21209
G1 X68.890 Y49.860 E1.25117
G1 X69.710 Y49.560 E1.30897
G1 X70.550 Y49.350 E1.36629
G1 X71.130 Y49.260 E1.40515
G1 X72.000 Y49.210 E1.46283
G1 X108.000 Y49.210 E3.84599
G1 X108.870 Y49.260 E3.90368
G1 X109.450 Y49.350 E3.94253
G1 X110.020 Y49.480 E3.98123
G1 X110.570 Y49.650 E4.01934
G1 X111.110 Y49.860 E4.05770
G1 X111.890 Y50.260 E4.11573
G1 X112.390 Y50.570 E4.15467
G1 X112.850 Y50.910 E4.19254
G1 X113.510 Y51.490 E4.25070
G1 X114.090 Y52.150 E4.30887
G1 X114.430 Y52.610 E4.34674
G1 X114.740 Y53.110 E4.38568
G1 X115.140 Y53.890 E4.44371
G1 X115.350 Y54.430 E4.48206
G1 X115.520 Y54.980 E4.52017
G1 X115.650 Y55.550 E4.55888
G1 X115.740 Y56.130 E4.59773
G1 X115.790 Y57.000 E4.65542
G1 X115.780 Y123.290 E9.04373
G1 X115.740 Y123.870 E9.08222
G1 X115.700 Y124.160 E9.10160
G1 X115.590 Y124.730 E9.14003
G1 X115.440 Y125.290 E9.17841
G1 X115.140 Y126.110 E9.23621
G1 X114.880 Y126.640 E9.27529
G1 X114.590 Y127.140 E9.31355
G1 X114.430 Y127.390 E9.33320
G1 X114.090 Y127.850 E9.37107
G1 X113.510 Y128.510 E9.42923
G1 X112.850 Y129.090 E9.48740
G1 X112.390 Y129.430 E9.52527
G1 X111.890 Y129.740 E9.56421
G1 X111.110 Y130.140 E9.62224
G1 X110.570 Y130.350 E9.66059
G1 X110.020 Y130.520 E9.69870
G1 X109.450 Y130.650 E9.73741
G1 X108.870 Y130.740 E9.77626
G1 X108.000 Y130.790 E9.83395
G1 X71.710 Y130.780 E12.23630
G1 X71.130 Y130.740 E12.27479
G1 X70.840 Y130.700 E12.29417
G1 X70.270 Y130.590 E12.33260
G1 X69.710 Y130.440 E12.37098
G1 X68.890 Y130.140 E12.42878
G1 X68.360 Y129.880 E12.46786
G1 X67.860 Y129.590 E12.50612
G1 X67.610 Y129.430 E12.52577
G1 X67.150 Y129.090 E12.56364
G1 X66.490 Y128.510 E12.62180
G1 X65.910 Y127.850 E12.67997
G1 X65.570 Y127.390 E12.71783
G1 X65.260 Y126.890 E12.75678
G1 X64.860 Y126.110 E12.81481
G1 X64.650 Y125.570 E12.85316
G1 X64.480 Y125.020 E12.89127
G1 X64.350 Y124.450 E12.92997
G1 X64.260 Y123.870 E12.96883
G1 X64.210 Y123.000 E13.02651
G1 X64.210 Y57.000 E17.39563
G1 X64.260 Y56.130 E17.45332
G1 X64.300 Y55.840 E17.47270
G1 X64.480 Y54.980 E17.53087
G1 X64.650 Y54.430 E17.56897
G1 X64.860 Y53.890 E17.60733
G1 X65.120 Y53.360 E17.64641
G1 X65.570 Y52.610 E17.70431
G1 X65.830 Y52.258 E17.73331
G1 X66.590 Y52.730 F6000.000
G1 X66.940 Y52.320 F540.000 E17.76900
G1 X67.520 Y51.760 E17.82237
G1 X67.950 Y51.420 E17.85866
G1 X68.170 Y51.270 E17.87629
G1 X68.400 Y51.120 E17.89446
G1 X68.870 Y50.860 E17.93002
G1 X69.610 Y50.530 E17.98366
G1 X69.870 Y50.440 E18.00187
G1 X70.390 Y50.300 E18.03752
G1 X70.920 Y50.190 E18.07335
G1 X71.730 Y50.110 E18.12723
G1 X108.270 Y50.110 E20.54614
G1 X109.080 Y50.190 E20.60002
G1 X109.610 Y50.300 E20.63585
G1 X110.130 Y50.440 E20.67150
G1 X110.890 Y50.740 E20.72559
G1 X111.600 Y51.120 E20.77890
G1 X112.050 Y51.420 E20.81470
G1 X112.680 Y51.940 E20.86878
G1 X113.240 Y52.520 E20.92215
G1 X113.580 Y52.950 E20.95844
G1 X113.880 Y53.400 E20.99424
G1 X114.260 Y54.110 E21.04755
G1 X114.560 Y54.870 E21.10164
G1 X114.700 Y55.390 E21.13729
G1 X114.810 Y55.920 E21.17312
G1 X114.890 Y56.730 E21.22700
G1 X114.890 Y123.270 E25.63187
G1 X114.810 Y124.080 E25.68575
G1 X114.700 Y124.610 E25.72159
G1 X114.560 Y125.130 E25.75724
G1 X114.260 Y125.890 E25.81132
G1 X113.880 Y126.600 E25.86463
G1 X113.580 Y127.050 E25.90044
G1 X113.060 Y127.680 E25.95451
G1 X112.480 Y128.240 E26.00788
G1 X112.050 Y128.580 E26.04417
G1 X111.600 Y128.880 E26.07998
G1 X110.890 Y129.260 E26.13328
G1 X110.130 Y129.560 E26.18737
G1 X109.610 Y129.700 E26.22302
G1 X109.080 Y129.810 E26.25886
G1 X108.270 Y129.890 E26.31274
G1 X71.730 Y129.890 E28.73164
G1 X70.920 Y129.810 E28.78552
G1 X70.390 Y129.700 E28.82136
G1 X69.870 Y129.560 E28.85701
G1 X69.110 Y129.260 E28.91109
G1 X68.400 Y128.880 E28.96440
G1 X67.950 Y128.580 E29.00021
G1 X67.320 Y128.060 E29.05428
G1 X66.760 Y127.480 E29.10765
G1 X66.420 Y127.050 E29.14394
G1 X66.120 Y126.600 E29.17975
G1 X65.740 Y125.890 E29.23305
G1 X65.440 Y125.130 E29.28714
G1 X65.300 Y124.610 E29.32279
G1 X65.190 Y124.080 E29.35863
G1 X65.110 Y123.270 E29.41251
G1 X65.110 Y56.730 E33.81737
G1 X65.190 Y55.920 E33.87126
G1 X65.240 Y55.660 E33.88878
G1 X65.440 Y54.870 E33.94273
G1 X65.530 Y54.610 E33.96094
G1 X65.740 Y54.110 E33.99684
G1 X65.990 Y53.630 E34.03267
G1 X66.270 Y53.170 E34.06832
G1 X66.508 Y52.836 E34.09548
G1 F1800.000 E33.09548
G92 E0
G1 X91.983 Y55.336 F6000.000
G1 F1800.000 E1.00000
G1 X94.336 Y52.983 F540.000 E1.22030
G1 X109.664 Y52.983 E2.23499
G1 X112.017 Y55.336 E2.45530
G1 X112.017 Y88.664 E4.66156
G1 X110.681 Y90.000 E4.78664
G1 X112.017 Y91.336 E4.91172
G1 X112.017 Y124.664 E7.11799
G1 X109.664 Y127.017 E7.33829
G1 X94.336 Y127.017 E8.35298
G1 X91.983 Y124.664 E8.57329
G1 X91.983 Y91.336 E10.77955
G1 X93.319 Y90.000 E10.90463
G1 X91.983 Y88.664 E11.02971
G1 X91.983 Y55.470 E13.22711
G1 F1800.000 E12.22711
G92 E0
G1 X94.000 Y55.000 F6000.000
G1 X86.000 Y55.000
G1 X88.017 Y55.336
G1 F1800.000 E1.00000
G1 X88.017 Y88.664 F540.000 E3.20627
G1 X86.681 Y90.000 E3.33135
G1 X88.017 Y91.336 E3.45643
G1 X88.017 Y124.664 E5.66269
G1 X85.664 Y127.017 E5.88300
G1 X70.336 Y127.017 E6.89769
G1 X67.983 Y124.664 E7.11799
G1 X67.983 Y91.336 E9.32426
G1 X69.319 Y90.000 E9.44934
G1 X67.983 Y88.664 E9.57441
G1 X67.983 Y55.336 E11.78068
G1 X70.336 Y52.983 E12.00099
G1 X85.664 Y52.983 E13.01567
G1 X87.922 Y55.241 E13.22711
G1 F1800.000 E12.22711
G92 E0
G1 X86.000 Y55.000 F6000.000
G1 X94.000 Y55.000
G1 X92.876 Y55.706
G1 F1800.000 E1.00000
G1 X94.706 Y53.876 F540.000 E1.17135
G1 X109.294 Y53.876 E2.13708
G1 X111.124 Y55.706 E2.30843
G1 X111.124 Y88.294 E4.46574
G1 X109.419 Y90.000 E4.62543
G1 X111.124 Y91.706 E4.78513
G1 X111.124 Y124.294 E6.94244
G1 X109.294 Y126.124 E7.11379
G1 X94.706 Y126.124 E8.07952
G1 X92.876 Y124.294 E8.25087
G1 X92.876 Y91.706 E10.40818
G1 X94.581 Y90.000 E10.56788
G1 X92.876 Y88.294 E10.72757
G1 X92.876 Y55.840 E12.87602
G1 F1800.000 E11.87602
G92 E0
G1 X94.000 Y55.000 F6000.000
G1 X86.000 Y55.000
G1 X87.124 Y55.706
G1 F1800.000 E1.00000
G1 X87.124 Y88.294 F540.000 E3.15731
G1 X85.419 Y90.000 E3.31701
G1 X87.124 Y91.706 E3.47670
G1 X87.124 Y124.294 E5.63401
G1 X85.294 Y126.124 E5.80536
G1 X70.706 Y126.124 E6.77109
G1 X68.876 Y124.294 E6.94244
G1 X68.876 Y91.706 E9.09975
G1 X70.581 Y90.000 E9.25945
G1 X68.876 Y88.294 E9.41915
G1 X68.876 Y55.706 E11.57646
G1 X70.706 Y53.876 E11.74780
G1 X85.294 Y53.876 E12.71354
G1 X87.030 Y55.611 E12.87602
G1 F1800.000 E11.87602
G92 E0
G1 X86.000 Y55.000 F6000.000
G1 X94.000 Y89.000
G1 X95.076 Y90.768
G1 F1800.000 E1.00000
G1 X108.924 Y90.768 F540.000 E1.91678
G1 X110.232 Y92.076 E2.03917
G1 X110.232 Y123.924 E4.14752
G1 X108.924 Y125.232 E4.26991
G1 X95.076 Y125.232 E5.18669
G1 X93.768 Y123.924 E5.30908
G1 X93.768 Y92.076 E7.41743
G1 X94.981 Y90.863 E7.53096
G1 F1800.000 E6.53096
G92 E0
G1 X94.000 Y89.000 F6000.000
G1 X86.000 Y89.000
G1 X86.232 Y92.076
G1 F1800.000 E1.00000
G1 X86.232 Y123.924 F540.000 E3.10835
G1 X84.924 Y125.232 E3.23075
G1 X71.076 Y125.232 E4.14752
G1 X69.768 Y123.924 E4.26991
G1 X69.768 Y92.076 E6.37827
G1 X71.076 Y90.768 E6.50066
G1 X84.924 Y90.768 E7.41743
G1 X86.137 Y91.981 E7.53096
G1 F1800.000 E6.53096
G92 E0
G1 X86.000 Y89.000 F6000.000
G1 X94.000 Y89.000
G1 X93.768 Y87.924
G1 F1800.000 E1.00000
G1 X93.768 Y56.076 F540.000 E3.10835
G1 X95.076 Y54.768 E3.23075
G1 X108.924 Y54.768 E4.14752
G1 X110.232 Y56.076 E4.26991
G1 X110.232 Y87.924 E6.37827
G1 X108.924 Y89.232 E6.50066
G1 X95.076 Y89.232 E7.41743
G1 X93.863 Y88.019 E7.53096
G1 F1800.000 E6.53096
G92 E0
G1 X94.000 Y89.000 F6000.000
G1 X86.000 Y89.000
G1 X86.232 Y87.924
G1 F1800.000 E1.00000
G1 X84.924 Y89.232 F540.000 E1.12239
G1 X71.076 Y89.232 E2.03917
G1 X69.768 Y87.924 E2.16156
G1 X69.768 Y56.076 E4.26991
G1 X71.076 Y54.768 E4.39230
G1 X84.924 Y54.768 E5.30908
G1 X86.232 Y56.076 E5.43147
G1 X86.232 Y87.791 E7.53096
G1 F1800.000 E6.53096
G92 E0
G1 X86.000 Y89.000 F6000.000
G1 X94.000 Y89.000
G1 X94.661 Y92.445
G1 F1800.000 E1.00000
G1 X95.445 Y91.661 F540.000 E1.07343
G1 X108.555 Y91.661 E1.94125
G1 X109.339 Y92.445 E2.01469
G1 X109.339 Y123.555 E4.07409
G1 X108.555 Y124.339 E4.14752
G1 X95.445 Y124.339 E5.01534
G1 X94.661 Y123.555 E5.08878
G1 X94.661 Y92.579 E7.13931
G1 F1800.000 E6.13931
G92 E0
G1 X94.000 Y89.000 F6000.000
G1 X86.000 Y89.000
G1 X85.339 Y92.445
G1 F1800.000 E1.00000
G1 X85.339 Y123.555 F540.000 E3.05940
G1 X84.555 Y124.339 E3.13283
G1 X71.445 Y124.339 E4.00065
G1 X70.661 Y123.555 E4.07409
G1 X70.661 Y92.445 E6.13348
G1 X71.445 Y91.661 E6.20692
G1 X84.555 Y91.661 E7.07474
G1 X85.244 Y92.351 E7.13931
G1 F1800.000 E6.13931
G92 E0
G1 X86.000 Y89.000 F6000.000
G1 X94.661 Y87.555
G1 F1800.000 E1.00000
G1 X94.661 Y56.445 F540.000 E3.05940
G1 X95.445 Y55.661 E3.13283
G1 X108.555 Y55.661 E4.00065
G1 X109.339 Y56.445 E4.07409
G1 X109.339 Y87.555 E6.13348
G1 X108.555 Y88.339 E6.20692
G1 X95.445 Y88.339 E7.07474
G1 X94.756 Y87.649 E7.13931
G1 F1800.000 E6.13931
G92 E0
G1 X96.500 Y86.500 F6000.000
G1 X83.500 Y86.500
G1 X85.339 Y87.555
G1 F1800.000 E1.00000
G1 X84.555 Y88.339 F540.000 E1.07343
G1 X71.445 Y88.339 E1.94125
G1 X70.661 Y87.555 E2.01469
G1 X70.661 Y56.445 E4.07409
G1 X71.445 Y55.661 E4.14752
G1 X84.555 Y55.661 E5.01534
G1 X85.339 Y56.445 E5.08878
G1 X85.339 Y87.421 E7.13931
G1 F1800.000 E6.13931
G92 E0
G1 X83.500 Y86.500 F6000.000
G1 X95.554 Y92.815
G1 F1800.000 E1.00000
G1 X95.815 Y92.554 F540.000 E1.02448
G1 X108.185 Y92.554 E1.84334
G1 X108.446 Y92.815 E1.86782
G1 X108.446 Y123.185 E3.87826
G1 X108.185 Y123.446 E3.90274
G1 X95.815 Y123.446 E4.72160
G1 X95.554 Y123.185 E4.74608
G1 X95.554 Y92.949 E6.74766
G1 F1800.000 E5.74766
G92 E0
G1 X94.000 Y89.000 F6000.000
G1 X86.000 Y89.000
G1 X84.446 Y92.815
G1 F1800.000 E1.00000
G1 X84.446 Y123.185 F540.000 E3.01044
G1 X84.185 Y123.446 E3.03492
G1 X71.815 Y123.446 E3.85378
G1 X71.554 Y123.185 E3.87826
G1 X71.554 Y92.815 E5.88870
G1 X71.815 Y92.554 E5.91318
G1 X84.185 Y92.554 E6.73204
G1 X84.352 Y92.720 E6.74766
G1 F1800.000 E5.74766
G92 E0
G1 X86.000 Y89.000 F6000.000
G1 X95.554 Y87.185
G1 F1800.000 E1.00000
G1 X95.554 Y56.815 F540.000 E3.01044
G1 X95.815 Y56.554 E3.03492
G1 X108.185 Y56.554 E3.85378
G1 X108.446 Y56.815 E3.87826
G1 X108.446 Y87.185 E5.88870
G1 X108.185 Y87.446 E5.91318
G1 X95.815 Y87.446 E6.73204
G1 X95.648 Y87.280 E6.74766
G1 F1800.000 E5.74766
G92 E0
G1 X96.500 Y86.500 F6000.000
G1 X83.500 Y86.500
G1 X84.446 Y87.185
G1 F1800.000 E1.00000
G1 X84.185 Y87.446 F540.000 E1.02448
G1 X71.815 Y87.446 E1.84334
G1 X71.554 Y87.185 E1.86782
G1 X71.554 Y56.815 E3.87826
G1 X71.815 Y56.554 E3.90274
G1 X84.185 Y56.554 E4.72160
G1 X84.446 Y56.815 E4.74608
G1 X84.446 Y87.051 E6.74766
G1 F1800.000 E5.74766
G92 E0
G1 X83.554 Y93.446 F6000.000
G1 F1800.000 E1.00000
G1 X83.554 Y122.554 F378.000 E2.92687
G1 X72.446 Y122.554 E3.66216
G1 X72.446 Y93.446 E5.58903
G1 X83.420 Y93.446 E6.31545
G1 X83.107 Y94.219 F6000.000
G1 X82.661 Y94.339
G1 X82.661 Y121.661 F540.000 E8.12413
G1 X73.339 Y121.661 E8.74123
G1 X73.339 Y94.339 E10.54990
G1 X82.527 Y94.339 E11.15814
G1 X81.768 Y95.232 F6000.000
G1 X81.768 Y120.768 F540.000 E12.84862
G1 X74.232 Y120.768 E13.34753
G1 X74.232 Y95.232 E15.03801
G1 X81.634 Y95.232 E15.52806
G1 X81.121 Y95.879 F6000.000
G1 X81.121 Y97.149 F1080.000 E15.61267
G1 X79.851 Y95.879 E15.73233
G1 X78.581 Y95.879 E15.81692
G1 X81.121 Y98.419 E16.05622
G1 X81.121 Y99.690 E16.14082
G1 X77.310 Y95.879 E16.49975
G1 X76.040 Y95.879 E16.58435
G1 X81.121 Y100.960 E17.06293
G1 X81.121 Y102.230 E17.14753
G1 X74.879 Y95.988 E17.73550
G1 X74.879 Y97.258 E17.82009
G1 X81.121 Y103.500 E18.40807
G1 X81.121 Y104.770 E18.49266
G1 X74.879 Y98.528 E19.08063
G1 X74.879 Y99.798 E19.16523
G1 X81.121 Y106.040 E19.75320
G1 X81.121 Y107.311 E19.83780
G1 X74.879 Y101.068 E20.42577
G1 X74.879 Y102.338 E20.51037
G1 X81.121 Y108.581 E21.09834
G1 X81.121 Y109.851 E21.18294
G1 X74.879 Y103.609 E21.77091
G1 X74.879 Y104.879 E21.85551
G1 X81.121 Y111.121 E22.44348
G1 X81.121 Y112.391 E22.52808
G1 X74.879 Y106.149 E23.11605
G1 X74.879 Y107.419 E23.20064
G1 X81.121 Y113.662 E23.78862
G1 X81.121 Y114.932 E23.87321
G1 X74.879 Y108.689 E24.46118
G1 X74.879 Y109.960 E24.54578
G1 X81.121 Y116.202 E25.13375
G1 X81.121 Y117.472 E25.21835
G1 X74.879 Y111.230 E25.80632
G1 X74.879 Y112.500 E25.89092
G1 X81.121 Y118.742 E26.47889
G1 X81.121 Y120.012 E26.56349
G1 X74.879 Y113.770 E27.15146
G1 X74.879 Y115.040 E27.23606
G1 X79.960 Y120.121 E27.71463
G1 X78.690 Y120.121 E27.79923
G1 X74.879 Y116.310 E28.15817
G1 X74.879 Y117.581 E28.24277
G1 X77.419 Y120.121 E28.48206
G1 X76.149 Y120.121 E28.56666
G1 X74.879 Y118.851 E28.68632
G1 X74.879 Y120.121 E28.77093
G1 F1800.000 E27.77093
G92 E0
G1 X72.500 Y122.500 F6000.000
G1 X83.500 Y122.500
G1 X96.500 Y122.500
G1 X96.446 Y122.554
G1 F1800.000 E1.00000
G1 X96.446 Y93.446 F378.000 E2.92687
G1 X107.554 Y93.446 E3.66216
G1 X107.554 Y122.554 E5.58903
G1 X96.580 Y122.554 E6.31545
G1 X96.893 Y121.781 F6000.000
G1 X97.339 Y121.661
G1 X97.339 Y94.339 F540.000 E8.12413
G1 X106.661 Y94.339 E8.74123
G1 X106.661 Y121.661 E10.54990
G1 X97.473 Y121.661 E11.15814
G1 X98.232 Y120.768 F6000.000
G1 X98.232 Y95.232 F540.000 E12.84862
G1 X105.768 Y95.232 E13.34753
G1 X105.768 Y120.768 E15.03801
G1 X98.366 Y120.768 E15.52806
G1 X98.879 Y120.121 F6000.000
G1 X98.879 Y118.851 F1080.000 E15.61267
G1 X100.149 Y120.121 E15.73233
G1 X101.419 Y120.121 E15.81692
G1 X98.879 Y117.581 E16.05622
G1 X98.879 Y116.310 E16.14082
G1 X102.690 Y120.121 E16.49976
G1 X103.960 Y120.121 E16.58435
G1 X98.879 Y115.040 E17.06293
G1 X98.879 Y113.770 E17.14753
G1 X105.121 Y120.012 E17.73550
G1 X105.121 Y118.742 E17.82010
G1 X98.879 Y112.500 E18.40807
G1 X98.879 Y111.230 E18.49266
G1 X105.121 Y117.472 E19.08064
G1 X105.121 Y116.202 E19.16523
G1 X98.879 Y109.960 E19.75320
G1 X98.879 Y108.689 E19.83780
G1 X105.121 Y114.932 E20.42577
G1 X105.121 Y113.662 E20.51037
G1 X98.879 Y107.419 E21.09834
G1 X98.879 Y106.149 E21.18294
G1 X105.121 Y112.391 E21.77091
G1 X105.121 Y111.121 E21.85551
G1 X98.879 Y104.879 E22.44348
G1 X98.879 Y103.609 E22.52808
G1 X105.121 Y109.851 E23.11605
G1 X105.121 Y108.581 E23.20065
G1 X98.879 Y102.338 E23.78862
G1 X98.879 Y101.068 E23.87321
G1 X105.121 Y107.311 E24.46119
G1 X105.121 Y106.040 E24.54578
G1 X98.879 Y99.798 E25.13375
G1 X98.879 Y98.528 E25.21835
G1 X105.121 Y104.770 E25.80632
G1 X105.121 Y103.500 E25.89092
G1 X98.879 Y97.258 E26.47889
G1 X98.879 Y95.988 E26.56349
G1 X105.121 Y102.230 E27.15146
G1 X105.121 Y100.960 E27.23606
G1 X100.040 Y95.879 E27.71463
G1 X101.310 Y95.879 E27.79923
G1 X105.121 Y99.690 E28.15817
G1 X105.121 Y98.419 E28.24277
G1 X102.581 Y95.879 E28.48206
G1 X103.851 Y95.879 E28.56666
G1 X105.121 Y97.149 E28.68632
G1 X105.121 Y95.879 E28.77093
G1 F1800.000 E27.77093
G92 E0
G1 X109.243 Y90.000 F6000.000
G1 X70.757 Y90.000
G1 X69.000 Y91.757
G1 X70.757 Y90.000
G1 X83.554 Y86.554
G1 F1800.000 E1.00000
G1 X72.446 Y86.554 F378.000 E1.73529
G1 X72.446 Y57.446 E3.66216
G1 X83.554 Y57.446 E4.39745
G1 X83.554 Y86.420 E6.31545
G1 X82.781 Y86.107 F6000.000
G1 X82.661 Y85.661
G1 X73.339 Y85.661 F540.000 E6.93255
G1 X73.339 Y58.339 E8.74123
G1 X82.661 Y58.339 E9.35832
