; generated by Slic3r 0.9.9 on 2013-07-07 at 14:18:19

; layer_height = 0.31
; perimeters = 3
; top_solid_layers = 3
; bottom_solid_layers = 3
; fill_density = 0.4
; perimeter_speed = 30
; infill_speed = 60
; travel_speed = 100  
; nozzle_diameter = 0.5
; filament_diameter = 2.93
; extrusion_multiplier = 1
; perimeters extrusion width = 0.67mm
; infill extrusion width = 0.67mm
; solid infill extrusion width = 0.67mm
; top infill extrusion width = 0.67mm
; first layer extrusion width = 1.00mm

G21 ; set units to millimeters
M107
M190 S120 ; wait for bed temperature to be reached
M104 S240 ; set temperature
G28 ; home all axes
G1 Z5 F5000 ; lift nozzle
M109 S240 ; wait for temperature to be reached
G90 ; use absolute coordinates
G92 E0
M82 ; use absolute distances for extrusion
G1 F1800.000 E-1.00000
G92 E0
G1 Z-0.900 F6000.000
G1 X47.840 Y68.740
G1 F1800.000 E1.00000
G1 X48.320 Y68.430 F540.000 E1.03783
G1 X48.840 Y68.150 E1.07692
G1 X49.370 Y67.920 E1.11517
G1 X49.910 Y67.720 E1.15329
G1 X50.470 Y67.570 E1.19167
G1 X51.040 Y67.460 E1.23010
G1 X51.610 Y67.390 E1.26811
G1 X52.190 Y67.360 E1.30656
G1 X94.690 Y67.050 E4.12008
G1 X127.750 Y67.050 E6.30862
G1 X128.620 Y67.100 E6.36630
G1 X129.200 Y67.190 E6.40516
G1 X130.040 Y67.400 E6.46248
G1 X130.860 Y67.700 E6.52028
G1 X131.390 Y67.960 E6.55936
G1 X131.890 Y68.250 E6.59762
G1 X132.140 Y68.410 E6.61727
G1 X132.830 Y68.940 E6.67487
G1 X133.050 Y69.130 E6.69411
G1 X133.460 Y69.540 E6.73249
G1 X133.840 Y69.990 E6.77148
G1 X134.180 Y70.450 E6.80935
G1 X134.630 Y71.200 E6.86725
G1 X134.890 Y71.730 E6.90633
G1 X135.000 Y72.000 E6.92563
G1 X135.270 Y72.820 E6.98278
G1 X135.400 Y73.390 E7.02148
G1 X135.490 Y73.970 E7.06034
G1 X135.540 Y74.840 E7.11803
G1 X135.540 Y104.840 E9.10399
G1 X135.490 Y105.710 E9.16168
G1 X135.400 Y106.280 E9.19988
G1 X135.190 Y107.120 E9.25720
G1 X134.890 Y107.940 E9.31500
G1 X134.500 Y108.720 E9.37273
G1 X134.030 Y109.440 E9.42965
G1 X133.670 Y109.900 E9.46832
G1 X133.480 Y110.120 E9.48756
G1 X133.070 Y110.530 E9.52594
G1 X132.630 Y110.910 E9.56443
G1 X132.160 Y111.250 E9.60283
G1 X131.680 Y111.560 E9.64066
G1 X131.160 Y111.840 E9.67975
G1 X130.630 Y112.070 E9.71800
G1 X130.090 Y112.270 E9.75612
G1 X129.250 Y112.480 E9.81344
G1 X128.670 Y112.570 E9.85229
G1 X128.100 Y112.620 E9.89017
G1 X85.310 Y112.940 E12.72290
G1 X52.250 Y112.940 E14.91143
G1 X51.380 Y112.890 E14.96912
G1 X50.800 Y112.800 E15.00797
G1 X49.960 Y112.590 E15.06529
G1 X49.140 Y112.290 E15.12309
G1 X48.610 Y112.030 E15.16217
G1 X48.110 Y111.740 E15.20043
G1 X47.860 Y111.580 E15.22008
G1 X47.170 Y111.050 E15.27768
G1 X46.950 Y110.860 E15.29692
G1 X46.540 Y110.450 E15.33531
G1 X46.160 Y110.000 E15.37430
G1 X45.820 Y109.540 E15.41216
G1 X45.370 Y108.790 E15.47006
G1 X45.110 Y108.260 E15.50914
G1 X44.810 Y107.440 E15.56694
G1 X44.660 Y106.880 E15.60532
G1 X44.550 Y106.310 E15.64375
G1 X44.510 Y106.020 E15.66313
G1 X44.460 Y105.150 E15.72082
G1 X44.460 Y75.150 E17.70678
G1 X44.510 Y74.280 E17.76447
G1 X44.660 Y73.430 E17.82161
G1 X44.900 Y72.590 E17.87944
G1 X45.110 Y72.050 E17.91780
G1 X45.500 Y71.270 E17.97553
G1 X45.970 Y70.550 E18.03245
G1 X46.520 Y69.870 E18.09034
G1 X46.930 Y69.460 E18.12873
G1 X47.370 Y69.080 E18.16721
G1 X47.731 Y68.817 E18.19675
G1 X48.170 Y69.590 F6000.000
G1 X48.620 Y69.290 F540.000 E18.23255
G1 X49.090 Y69.020 E18.26843
G1 X49.580 Y68.800 E18.30399
G1 X50.080 Y68.610 E18.33940
G1 X50.860 Y68.400 E18.39287
G1 X51.390 Y68.310 E18.42846
G1 X51.930 Y68.260 E18.46436
G1 X94.700 Y67.950 E21.29576
G1 X128.020 Y67.950 E23.50150
G1 X128.830 Y68.030 E23.55538
G1 X129.360 Y68.140 E23.59122
G1 X129.880 Y68.280 E23.62686
G1 X130.640 Y68.580 E23.68095
G1 X131.350 Y68.960 E23.73426
G1 X131.800 Y69.260 E23.77007
G1 X132.230 Y69.600 E23.80635
G1 X132.810 Y70.160 E23.85973
G1 X133.330 Y70.790 E23.91380
G1 X133.630 Y71.240 E23.94961
G1 X133.890 Y71.710 E23.98516
G1 X134.220 Y72.450 E24.03880
G1 X134.310 Y72.710 E24.05701
G1 X134.510 Y73.500 E24.11096
G1 X134.560 Y73.760 E24.12849
G1 X134.620 Y74.300 E24.16445
G1 X134.640 Y74.570 E24.18238
G1 X134.640 Y105.110 E26.20409
G1 X134.600 Y105.650 E26.23993
G1 X134.560 Y105.910 E26.25735
G1 X134.390 Y106.700 E26.31084
G1 X134.220 Y107.220 E26.34706
G1 X134.020 Y107.710 E26.38209
G1 X133.640 Y108.430 E26.43599
G1 X133.340 Y108.880 E26.47179
G1 X133.010 Y109.300 E26.50715
G1 X132.640 Y109.700 E26.54322
G1 X132.250 Y110.060 E26.57835
G1 X132.040 Y110.240 E26.59666
G1 X131.610 Y110.550 E26.63176
G1 X130.910 Y110.970 E26.68580
G1 X130.420 Y111.190 E26.72135
G1 X129.920 Y111.380 E26.75676
G1 X129.140 Y111.590 E26.81023
G1 X128.610 Y111.680 E26.84582
G1 X128.070 Y111.730 E26.88172
G1 X85.300 Y112.040 E29.71312
G1 X51.980 Y112.040 E31.91886
G1 X51.170 Y111.960 E31.97274
G1 X50.640 Y111.850 E32.00858
G1 X50.120 Y111.710 E32.04423
G1 X49.360 Y111.410 E32.09832
G1 X48.650 Y111.030 E32.15162
G1 X48.200 Y110.730 E32.18743
G1 X47.770 Y110.390 E32.22372
G1 X47.570 Y110.210 E32.24153
G1 X47.010 Y109.630 E32.29490
G1 X46.670 Y109.200 E32.33119
G1 X46.520 Y108.980 E32.34881
G1 X46.240 Y108.520 E32.38446
G1 X45.990 Y108.040 E32.42029
G1 X45.690 Y107.280 E32.47438
G1 X45.550 Y106.760 E32.51003
G1 X45.440 Y106.230 E32.54586
G1 X45.360 Y105.420 E32.59974
G1 X45.360 Y74.880 E34.62145
G1 X45.400 Y74.340 E34.65730
G1 X45.490 Y73.810 E34.69289
G1 X45.610 Y73.290 E34.72822
G1 X45.690 Y73.030 E34.74622
G1 X45.980 Y72.280 E34.79945
G1 X46.360 Y71.560 E34.85335
G1 X46.660 Y71.110 E34.88915
G1 X47.170 Y70.490 E34.94230
G1 X47.550 Y70.110 E34.97787
G1 X48.063 Y69.671 E35.02259
G1 F1800.000 E34.02259
G92 E0
G1 X54.482 Y77.382 F6000.000
G1 F1800.000 E1.00000
G1 X61.018 Y77.382 F540.000 E1.43271
G1 X61.018 Y102.918 E3.12319
G1 X54.482 Y102.918 E3.55590
G1 X54.482 Y77.516 E5.23752
G1 X53.589 Y76.489 F6000.000
G1 X61.911 Y76.489 F540.000 E5.78842
G1 X61.911 Y103.811 E7.59710
G1 X53.589 Y103.811 E8.14800
G1 X53.589 Y76.623 E9.94781
G1 X52.696 Y75.596 F6000.000
G1 X62.804 Y75.596 F378.000 E10.61690
G1 X62.804 Y104.704 E12.54377
G1 X52.696 Y104.704 E13.21286
G1 X52.696 Y75.730 E15.13086
G1 X53.469 Y76.043 F6000.000
G1 X60.371 Y78.029
G1 X59.089 Y78.029 F1080.000 E15.21705
G1 X60.371 Y79.311 E15.33893
G1 X60.371 Y80.593 E15.42510
G1 X57.807 Y78.029 E15.66884
G1 X56.525 Y78.029 E15.75501
G1 X60.371 Y81.875 E16.12062
G1 X60.371 Y83.157 E16.20679
G1 X55.243 Y78.029 E16.69426
G1 X55.129 Y79.196 E16.77311
G1 X60.371 Y84.439 E17.27146
G1 X60.371 Y85.721 E17.35763
G1 X55.129 Y80.478 E17.85597
G1 X55.129 Y81.760 E17.94214
G1 X60.371 Y87.003 E18.44049
G1 X60.371 Y88.284 E18.52666
G1 X55.129 Y83.042 E19.02500
G1 X55.129 Y84.324 E19.11117
G1 X60.371 Y89.566 E19.60952
G1 X60.371 Y90.848 E19.69569
G1 X55.129 Y85.606 E20.19404
G1 X55.129 Y86.888 E20.28021
G1 X60.371 Y92.130 E20.77855
G1 X60.371 Y93.412 E20.86472
G1 X55.129 Y88.170 E21.36307
G1 X55.129 Y89.452 E21.44924
G1 X60.371 Y94.694 E21.94759
G1 X60.371 Y95.976 E22.03376
G1 X55.129 Y90.734 E22.53210
G1 X55.129 Y92.016 E22.61827
G1 X60.371 Y97.258 E23.11662
G1 X60.371 Y98.540 E23.20279
G1 X55.129 Y93.297 E23.70114
G1 X55.129 Y94.579 E23.78731
G1 X60.371 Y99.822 E24.28565
G1 X60.371 Y101.104 E24.37182
G1 X55.129 Y95.861 E24.87017
G1 X55.129 Y97.143 E24.95634
G1 X60.257 Y102.271 E25.44381
G1 X58.975 Y102.271 E25.52998
G1 X55.129 Y98.425 E25.89558
G1 X55.129 Y99.707 E25.98175
G1 X57.693 Y102.271 E26.22550
G1 X56.411 Y102.271 E26.31167
G1 X55.129 Y100.989 E26.43355
G1 X55.129 Y102.271 E26.51973
G1 F1800.000 E25.51973
G92 E0
G1 X52.750 Y104.650 F6000.000
G1 X62.750 Y104.650
G1 X74.750 Y104.650
G1 X76.482 Y102.918
G1 F1800.000 E1.00000
G1 X76.482 Y77.382 F540.000 E2.69049
G1 X83.018 Y77.382 E3.12319
G1 X83.018 Y102.918 E4.81368
G1 X76.616 Y102.918 E5.23752
G1 X75.589 Y103.811 F6000.000
G1 X75.589 Y76.489 F540.000 E7.04620
G1 X83.911 Y76.489 E7.59710
G1 X83.911 Y103.811 E9.40578
G1 X75.723 Y103.811 E9.94781
G1 X74.696 Y104.704 F6000.000
G1 X74.696 Y75.596 F378.000 E11.87468
G1 X84.804 Y75.596 E12.54377
G1 X84.804 Y104.704 E14.47064
G1 X74.830 Y104.704 E15.13086
G1 X75.143 Y103.931 F6000.000
G1 X77.129 Y102.271
G1 X77.129 Y100.989 F1080.000 E15.21705
G1 X78.411 Y102.271 E15.33893
G1 X79.693 Y102.271 E15.42510
G1 X77.129 Y99.707 E15.66884
G1 X77.129 Y98.425 E15.75501
G1 X80.975 Y102.271 E16.12062
G1 X82.257 Y102.271 E16.20679
G1 X77.129 Y97.143 E16.69426
G1 X77.129 Y95.861 E16.78043
G1 X82.371 Y101.104 E17.27877
G1 X82.371 Y99.822 E17.36494
G1 X77.129 Y94.579 E17.86329
G1 X77.129 Y93.297 E17.94946
G1 X82.371 Y98.540 E18.44781
G1 X82.371 Y97.258 E18.53398
G1 X77.129 Y92.016 E19.03232
G1 X77.129 Y90.734 E19.11849
G1 X82.371 Y95.976 E19.61684
G1 X82.371 Y94.694 E19.70301
G1 X77.129 Y89.452 E20.20135
G1 X77.129 Y88.170 E20.28752
G1 X82.371 Y93.412 E20.78587
G1 X82.371 Y92.130 E20.87204
G1 X77.129 Y86.888 E21.37039
G1 X77.129 Y85.606 E21.45656
G1 X82.371 Y90.848 E21.95490
G1 X82.371 Y89.566 E22.04107
G1 X77.129 Y84.324 E22.53942
G1 X77.129 Y83.042 E22.62559
G1 X82.371 Y88.284 E23.12394
G1 X82.371 Y87.003 E23.21011
G1 X77.129 Y81.760 E23.70845
G1 X77.129 Y80.478 E23.79462
G1 X82.371 Y85.721 E24.29297
G1 X82.371 Y84.439 E24.37914
G1 X77.129 Y79.196 E24.87748
G1 X77.243 Y78.029 E24.95634
G1 X82.371 Y83.157 E25.44381
G1 X82.371 Y81.875 E25.52998
G1 X78.525 Y78.029 E25.89558
G1 X79.807 Y78.029 E25.98175
G1 X82.371 Y80.593 E26.22550
G1 X82.371 Y79.311 E26.31167
G1 X81.089 Y78.029 E26.43355
G1 X82.371 Y78.029 E26.51973
G1 F1800.000 E25.51973
G92 E0
G1 X88.250 Y73.907 F6000.000
G1 X91.750 Y73.607
G1 X96.982 Y77.082
G1 F1800.000 E1.00000
G1 X103.518 Y77.082 F540.000 E1.43271
G1 X103.518 Y102.618 E3.12319
G1 X96.982 Y102.618 E3.55590
G1 X96.982 Y77.216 E5.23752
G1 X96.089 Y76.189 F6000.000
G1 X104.411 Y76.189 F540.000 E5.78842
G1 X104.411 Y103.511 E7.59710
G1 X96.089 Y103.511 E8.14800
G1 X96.089 Y76.323 E9.94781
G1 X95.196 Y75.296 F6000.000
G1 X105.304 Y75.296 F378.000 E10.61690
G1 X105.304 Y104.404 E12.54377
G1 X95.196 Y104.404 E13.21286
G1 X95.196 Y75.430 E15.13086
G1 X95.969 Y75.743 F6000.000
G1 X102.871 Y77.729
G1 X101.589 Y77.729 F1080.000 E15.21705
G1 X102.871 Y79.011 E15.33893
G1 X102.871 Y80.293 E15.42510
G1 X100.307 Y77.729 E15.66884
G1 X99.025 Y77.729 E15.75501
G1 X102.871 Y81.575 E16.12062
G1 X102.871 Y82.857 E16.20679
G1 X97.743 Y77.729 E16.69426
G1 X97.629 Y78.896 E16.77311
G1 X102.871 Y84.139 E17.27146
G1 X102.871 Y85.421 E17.35763
G1 X97.629 Y80.178 E17.85597
G1 X97.629 Y81.460 E17.94214
G1 X102.871 Y86.703 E18.44049
G1 X102.871 Y87.984 E18.52666
G1 X97.629 Y82.742 E19.02500
G1 X97.629 Y84.024 E19.11117
G1 X102.871 Y89.266 E19.60952
G1 X102.871 Y90.548 E19.69569
G1 X97.629 Y85.306 E20.19404
G1 X97.629 Y86.588 E20.28021
G1 X102.871 Y91.830 E20.77855
G1 X102.871 Y93.112 E20.86472
G1 X97.629 Y87.870 E21.36307
G1 X97.629 Y89.152 E21.44924
G1 X102.871 Y94.394 E21.94759
G1 X102.871 Y95.676 E22.03376
G1 X97.629 Y90.434 E22.53210
G1 X97.629 Y91.716 E22.61827
G1 X102.871 Y96.958 E23.11662
G1 X102.871 Y98.240 E23.20279
G1 X97.629 Y92.997 E23.70114
G1 X97.629 Y94.279 E23.78731
G1 X102.871 Y99.522 E24.28565
G1 X102.871 Y100.804 E24.37182
G1 X97.629 Y95.561 E24.87017
G1 X97.629 Y96.843 E24.95634
G1 X102.757 Y101.971 E25.44381
G1 X101.475 Y101.971 E25.52998
G1 X97.629 Y98.125 E25.89558
G1 X97.629 Y99.407 E25.98175
G1 X100.193 Y101.971 E26.22550
G1 X98.911 Y101.971 E26.31167
G1 X97.629 Y100.689 E26.43355
G1 X97.629 Y101.971 E26.51973
G1 F1800.000 E25.51973
G92 E0
G1 X95.250 Y104.350 F6000.000
G1 X105.250 Y104.350
G1 X117.250 Y104.350
G1 X118.982 Y102.618
G1 F1800.000 E1.00000
G1 X118.982 Y77.082 F540.000 E2.69049
G1 X125.518 Y77.082 E3.12319
G1 X125.518 Y102.618 E4.81368
G1 X119.116 Y102.618 E5.23752
G1 X118.089 Y103.511 F6000.000
G1 X118.089 Y76.189 F540.000 E7.04620
G1 X126.411 Y76.189 E7.59710
G1 X126.411 Y103.511 E9.40578
G1 X118.223 Y103.511 E9.94781
G1 X117.196 Y104.404 F6000.000
G1 X117.196 Y75.296 F378.000 E11.87468
G1 X127.304 Y75.296 E12.54377
G1 X127.304 Y104.404 E14.47064
G1 X117.330 Y104.404 E15.13086
G1 X117.643 Y103.631 F6000.000
G1 X119.629 Y101.971
G1 X119.629 Y100.689 F1080.000 E15.21705
G1 X120.911 Y101.971 E15.33893
G1 X122.193 Y101.971 E15.42510
G1 X119.629 Y99.407 E15.66884
G1 X119.629 Y98.125 E15.75501
G1 X123.475 Y101.971 E16.12062
G1 X124.757 Y101.971 E16.20679
G1 X119.629 Y96.843 E16.69426
G1 X119.629 Y95.561 E16.78043
G1 X124.871 Y100.804 E17.27877
G1 X124.871 Y99.522 E17.36494
G1 X119.629 Y94.279 E17.86329
G1 X119.629 Y92.997 E17.94946
G1 X124.871 Y98.240 E18.44781
G1 X124.871 Y96.958 E18.53398
G1 X119.629 Y91.716 E19.03232
G1 X119.629 Y90.434 E19.11849
G1 X124.871 Y95.676 E19.61684
G1 X124.871 Y94.394 E19.70301
G1 X119.629 Y89.152 E20.20135
G1 X119.629 Y87.870 E20.28752
G1 X124.871 Y93.112 E20.78587
G1 X124.871 Y91.830 E20.87204
G1 X119.629 Y86.588 E21.37039
G1 X119.629 Y85.306 E21.45656
G1 X124.871 Y90.548 E21.95490
G1 X124.871 Y89.266 E22.04107
G1 X119.629 Y84.024 E22.53942
G1 X119.629 Y82.742 E22.62559
G1 X124.871 Y87.984 E23.12394
G1 X124.871 Y86.703 E23.21011
G1 X119.629 Y81.460 E23.70845
G1 X119.629 Y80.178 E23.79462
G1 X124.871 Y85.421 E24.29297
G1 X124.871 Y84.139 E24.37914
G1 X119.629 Y78.896 E24.87748
G1 X119.743 Y77.729 E24.95634
G1 X124.871 Y82.857 E25.44381
G1 X124.871 Y81.575 E25.52998
G1 X121.025 Y77.729 E25.89558
G1 X122.307 Y77.729 E25.98175
G1 X124.871 Y80.293 E26.22550
G1 X124.871 Y79.011 E26.31167
G1 X123.589 Y77.729 E26.43355
G1 X124.871 Y77.729 E26.51973
M106 S255
M104 S225 ; set temperature
G1 F1800.000 E25.51973
G92 E0
G1 Z-0.590 F6000.000
G1 X130.750 Y73.607
G1 X128.993 Y71.850
G1 X93.507 Y71.850
G1 X51.007 Y72.150
G1 X61.667 Y76.733
G1 F1800.000 E1.00000
G1 X61.667 Y103.567 F1648.551 E1.78140
G1 X53.833 Y103.567 E2.00951
G1 X53.833 Y76.733 E2.79091
G1 X61.572 Y76.733 E3.01625
G1 X62.300 Y76.100 F6000.000
G1 X62.300 Y104.200 F1648.551 E3.83454
G1 X53.200 Y104.200 E4.09954
G1 X53.200 Y76.100 E4.91783
G1 X62.205 Y76.100 E5.18006
G1 X62.933 Y75.467 F6000.000
G1 X62.933 Y104.833 F1153.986 E6.03524
G1 X52.567 Y104.833 E6.33713
G1 X52.567 Y75.467 E7.19231
G1 X62.838 Y75.467 E7.49143
G1 X62.617 Y76.015 F6000.000
G1 X54.293 Y77.193
G1 X55.205 Y77.193 F3297.102 E7.51847
G1 X54.293 Y78.105 E7.55671
G1 X54.293 Y79.017 E7.58375
G1 X56.117 Y77.193 E7.66023
G1 X57.029 Y77.193 E7.68726
G1 X54.293 Y79.929 E7.80197
G1 X54.293 Y80.840 E7.82901
G1 X57.940 Y77.193 E7.98196
G1 X58.852 Y77.193 E8.00899
G1 X54.293 Y81.752 E8.20017
G1 X54.293 Y82.664 E8.22721
G1 X59.764 Y77.193 E8.45662
G1 X60.676 Y77.193 E8.48366
G1 X54.293 Y83.576 E8.75131
G1 X54.293 Y84.488 E8.77835
G1 X61.207 Y77.573 E9.06827
G1 X61.207 Y78.485 E9.09531
G1 X54.293 Y85.400 E9.38523
G1 X54.293 Y86.312 E9.41227
G1 X61.207 Y79.397 E9.70219
G1 X61.207 Y80.309 E9.72923
G1 X54.293 Y87.224 E10.01915
G1 X54.293 Y88.136 E10.04619
G1 X61.207 Y81.221 E10.33611
G1 X61.207 Y82.133 E10.36315
G1 X54.293 Y89.048 E10.65307
G1 X54.293 Y89.960 E10.68011
G1 X61.207 Y83.045 E10.97003
G1 X61.207 Y83.957 E10.99706
G1 X54.293 Y90.872 E11.28699
G1 X54.293 Y91.784 E11.31402
G1 X61.207 Y84.869 E11.60395
G1 X61.207 Y85.781 E11.63098
G1 X54.293 Y92.696 E11.92091
G1 X54.293 Y93.607 E11.94794
G1 X61.207 Y86.693 E12.23787
G1 X61.207 Y87.604 E12.26490
G1 X54.293 Y94.519 E12.55483
G1 X54.293 Y95.431 E12.58186
G1 X61.207 Y88.516 E12.87179
G1 X61.207 Y89.428 E12.89882
G1 X54.293 Y96.343 E13.18875
G1 X54.293 Y97.255 E13.21578
G1 X61.207 Y90.340 E13.50571
G1 X61.207 Y91.252 E13.53274
G1 X54.293 Y98.167 E13.82267
G1 X54.293 Y99.079 E13.84970
G1 X61.207 Y92.164 E14.13963
G1 X61.207 Y93.076 E14.16666
G1 X54.293 Y99.991 E14.45659
G1 X54.293 Y100.903 E14.48362
G1 X61.207 Y93.988 E14.77355
G1 X61.207 Y94.900 E14.80058
G1 X54.293 Y101.815 E15.09051
G1 X54.293 Y102.727 E15.11754
G1 X61.207 Y95.812 E15.40747
G1 X61.207 Y96.724 E15.43450
G1 X54.824 Y103.107 E15.70215
G1 X55.736 Y103.107 E15.72919
G1 X61.207 Y97.636 E15.95861
G1 X61.207 Y98.548 E15.98564
G1 X56.648 Y103.107 E16.17682
G1 X57.560 Y103.107 E16.20386
G1 X61.207 Y99.460 E16.35681
G1 X61.207 Y100.371 E16.38384
G1 X58.471 Y103.107 E16.49856
G1 X59.383 Y103.107 E16.52559
G1 X61.207 Y101.283 E16.60207
