; generated by Slic3r 0.9.9 on 2013-07-09 at 20:17:00

; layer_height = 0.31
; perimeters = 3
; top_solid_layers = 3
; bottom_solid_layers = 3
; fill_density = 0.4
; perimeter_speed = 30
; infill_speed = 60
; travel_speed = 100  
; nozzle_diameter = 0.5
; filament_diameter = 2.93
; extrusion_multiplier = 1
; perimeters extrusion width = 0.67mm
; infill extrusion width = 0.67mm
; solid infill extrusion width = 0.67mm
; top infill extrusion width = 0.67mm
; first layer extrusion width = 1.00mm

G21 ; set units to millimeters
M107
M190 S120 ; wait for bed temperature to be reached
M104 S240 ; set temperature
G28 ; home all axes
G1 Z5 F5000 ; lift nozzle
M109 S240 ; wait for temperature to be reached
G90 ; use absolute coordinates
G92 E0
M82 ; use absolute distances for extrusion
G1 F1800.000 E-1.00000
G92 E0
G1 Z-0.900 F6000.000
G1 X68.923 Y69.357
G1 F1800.000 E1.00000
G1 X69.583 Y68.777 F540.000 E1.05816
G1 X70.043 Y68.437 E1.09603
G1 X70.793 Y67.987 E1.15393
G1 X71.323 Y67.727 E1.19301
G1 X71.863 Y67.517 E1.23137
G1 X72.413 Y67.347 E1.26948
G1 X72.983 Y67.217 E1.30818
G1 X73.563 Y67.127 E1.34703
G1 X74.433 Y67.077 E1.40472
G1 X86.433 Y67.077 E2.19911
G1 X105.953 Y67.347 E3.49143
G1 X106.243 Y67.367 E3.51067
G1 X106.813 Y67.447 E3.54878
G1 X107.383 Y67.557 E3.58721
G1 X107.663 Y67.627 E3.60631
G1 X108.483 Y67.907 E3.66367
G1 X109.013 Y68.147 E3.70219
G1 X109.763 Y68.567 E3.75909
G1 X110.233 Y68.897 E3.79711
G1 X110.903 Y69.457 E3.85491
G1 X111.303 Y69.867 E3.89283
G1 X111.683 Y70.307 E3.93132
G1 X112.023 Y70.777 E3.96972
G1 X112.463 Y71.517 E4.02671
G1 X112.713 Y72.037 E4.06491
G1 X113.013 Y72.847 E4.12209
G1 X113.213 Y73.687 E4.17925
G1 X113.303 Y74.267 E4.21810
G1 X113.353 Y75.127 E4.27513
G1 X113.343 Y105.417 E6.28029
G1 X113.303 Y105.997 E6.31878
G1 X113.153 Y106.857 E6.37657
G1 X112.913 Y107.697 E6.43440
G1 X112.703 Y108.237 E6.47276
G1 X112.443 Y108.767 E6.51184
G1 X111.993 Y109.517 E6.56974
G1 X111.653 Y109.977 E6.60760
G1 X111.073 Y110.637 E6.66577
G1 X110.413 Y111.217 E6.72393
G1 X109.953 Y111.557 E6.76180
G1 X109.203 Y112.007 E6.81970
G1 X108.673 Y112.267 E6.85878
G1 X108.133 Y112.477 E6.89713
G1 X107.583 Y112.647 E6.93524
G1 X107.013 Y112.777 E6.97394
G1 X106.433 Y112.867 E7.01280
G1 X105.563 Y112.917 E7.07049
G1 X93.563 Y112.917 E7.86487
G1 X74.043 Y112.647 E9.15720
G1 X73.753 Y112.627 E9.17644
G1 X73.183 Y112.547 E9.21454
G1 X72.613 Y112.437 E9.25297
G1 X72.333 Y112.367 E9.27208
G1 X71.513 Y112.087 E9.32944
G1 X70.983 Y111.847 E9.36795
G1 X70.233 Y111.427 E9.42486
G1 X69.763 Y111.097 E9.46287
G1 X69.093 Y110.537 E9.52068
G1 X68.693 Y110.127 E9.55860
G1 X68.313 Y109.687 E9.59709
G1 X67.973 Y109.217 E9.63549
G1 X67.533 Y108.477 E9.69248
G1 X67.283 Y107.957 E9.73067
G1 X66.983 Y107.147 E9.78785
G1 X66.783 Y106.307 E9.84502
G1 X66.693 Y105.727 E9.88387
G1 X66.643 Y104.867 E9.94090
G1 X66.653 Y74.577 E11.94606
G1 X66.693 Y73.997 E11.98455
G1 X66.843 Y73.137 E12.04234
G1 X67.083 Y72.297 E12.10017
G1 X67.293 Y71.757 E12.13852
G1 X67.553 Y71.227 E12.17760
G1 X68.003 Y70.477 E12.23550
G1 X68.343 Y70.017 E12.27337
G1 X68.831 Y69.454 E12.32268
G1 X69.373 Y70.187 F6000.000
G1 X69.953 Y69.627 F540.000 E12.37605
G1 X70.383 Y69.287 E12.41234
G1 X70.833 Y68.987 E12.44814
G1 X71.543 Y68.607 E12.50145
G1 X72.303 Y68.307 E12.55554
G1 X72.823 Y68.167 E12.59119
G1 X73.353 Y68.057 E12.62702
G1 X74.163 Y67.977 E12.68090
G1 X86.523 Y67.977 E13.49912
G1 X105.933 Y68.247 E14.78416
G1 X106.483 Y68.297 E14.82072
G1 X107.023 Y68.387 E14.85696
G1 X107.553 Y68.527 E14.89325
G1 X108.333 Y68.817 E14.94834
G1 X108.583 Y68.927 E14.96642
G1 X109.063 Y69.187 E15.00256
G1 X109.523 Y69.487 E15.03891
G1 X109.963 Y69.817 E15.07532
G1 X110.373 Y70.187 E15.11188
G1 X110.753 Y70.587 E15.14841
G1 X111.253 Y71.237 E15.20269
G1 X111.683 Y71.947 E15.25764
G1 X111.803 Y72.197 E15.27600
G1 X112.013 Y72.707 E15.31251
G1 X112.193 Y73.227 E15.34894
G1 X112.263 Y73.487 E15.36676
G1 X112.323 Y73.757 E15.38507
G1 X112.403 Y74.307 E15.42186
G1 X112.453 Y74.847 E15.45777
G1 X112.453 Y105.397 E17.48014
G1 X112.373 Y106.207 E17.53402
G1 X112.323 Y106.467 E17.55155
G1 X112.123 Y107.257 E17.60549
G1 X111.933 Y107.767 E17.64152
G1 X111.703 Y108.257 E17.67735
G1 X111.443 Y108.727 E17.71291
G1 X111.143 Y109.177 E17.74871
G1 X110.623 Y109.807 E17.80279
G1 X110.043 Y110.367 E17.85616
G1 X109.613 Y110.707 E17.89245
G1 X109.163 Y111.007 E17.92825
G1 X108.453 Y111.387 E17.98156
G1 X107.693 Y111.687 E18.03565
G1 X107.173 Y111.827 E18.07130
G1 X106.643 Y111.937 E18.10713
G1 X105.833 Y112.017 E18.16102
G1 X93.473 Y112.017 E18.97923
G1 X74.063 Y111.747 E20.26428
G1 X73.513 Y111.697 E20.30083
G1 X72.973 Y111.607 E20.33708
G1 X72.443 Y111.467 E20.37336
G1 X71.663 Y111.177 E20.42845
G1 X71.413 Y111.067 E20.44653
G1 X70.933 Y110.807 E20.48267
G1 X70.473 Y110.507 E20.51903
G1 X70.033 Y110.177 E20.55544
G1 X69.623 Y109.807 E20.59199
G1 X69.243 Y109.407 E20.62852
G1 X68.743 Y108.757 E20.68281
G1 X68.313 Y108.047 E20.73775
G1 X68.193 Y107.797 E20.75611
G1 X67.983 Y107.287 E20.79262
G1 X67.803 Y106.767 E20.82905
G1 X67.733 Y106.507 E20.84687
G1 X67.673 Y106.237 E20.86518
G1 X67.593 Y105.687 E20.90198
G1 X67.543 Y105.147 E20.93788
G1 X67.543 Y74.597 E22.96025
G1 X67.623 Y73.787 E23.01413
G1 X67.673 Y73.527 E23.03166
G1 X67.873 Y72.737 E23.08561
G1 X68.063 Y72.227 E23.12163
G1 X68.293 Y71.737 E23.15747
G1 X68.553 Y71.267 E23.19302
G1 X68.853 Y70.817 E23.22883
G1 X69.284 Y70.286 E23.27405
G1 F1800.000 E22.27405
G92 E0
G1 X70.416 Y73.203 F6000.000
G1 F1800.000 E1.00000
G1 X72.769 Y70.850 F540.000 E1.22030
G1 X88.097 Y70.850 E2.23499
G1 X90.133 Y72.886 E2.42561
G1 X91.903 Y71.116 E2.59125
G1 X107.231 Y71.116 E3.60594
G1 X109.584 Y73.469 E3.82625
G1 X109.584 Y106.797 E6.03251
G1 X107.231 Y109.150 E6.25282
G1 X91.903 Y109.150 E7.26751
G1 X89.867 Y107.114 E7.45812
G1 X88.097 Y108.884 E7.62377
G1 X72.769 Y108.884 E8.63846
G1 X70.416 Y106.531 E8.85876
G1 X70.416 Y73.337 E11.05616
G1 F1800.000 E10.05616
G92 E0
G1 X72.433 Y70.867 F6000.000
G1 X88.433 Y70.867
G1 X90.442 Y73.839
G1 F1800.000 E1.00000
G1 X92.272 Y72.009 F540.000 E1.17135
G1 X106.861 Y72.009 E2.13708
G1 X108.691 Y73.839 E2.30843
G1 X108.691 Y106.428 E4.46574
G1 X106.861 Y108.258 E4.63709
G1 X92.272 Y108.258 E5.60282
G1 X90.442 Y106.428 E5.77417
G1 X90.442 Y73.973 E7.92261
G1 X89.558 Y73.572 F6000.000
G1 X89.558 Y106.161 F540.000 E10.07992
G1 X87.728 Y107.991 E10.25127
G1 X73.139 Y107.991 E11.21700
G1 X71.309 Y106.161 E11.38835
G1 X71.309 Y73.572 E13.54566
G1 X73.139 Y71.742 E13.71701
G1 X87.728 Y71.742 E14.68274
G1 X89.463 Y73.478 E14.84522
G1 F1800.000 E13.84522
G92 E0
G1 X88.433 Y70.867 F6000.000
G1 X91.335 Y74.209
G1 F1800.000 E1.00000
G1 X92.642 Y72.902 F540.000 E1.12239
G1 X106.491 Y72.902 E2.03917
G1 X107.798 Y74.209 E2.16156
G1 X107.798 Y106.058 E4.26991
G1 X106.491 Y107.365 E4.39230
G1 X92.642 Y107.365 E5.30908
G1 X91.335 Y106.058 E5.43147
G1 X91.335 Y74.343 E7.53096
G1 F1800.000 E6.53096
G92 E0
G1 X88.433 Y70.867 F6000.000
G1 X88.665 Y73.942
G1 F1800.000 E1.00000
G1 X88.665 Y105.791 F540.000 E3.10835
G1 X87.358 Y107.098 E3.23075
G1 X73.509 Y107.098 E4.14752
G1 X72.202 Y105.791 E4.26991
G1 X72.202 Y73.942 E6.37827
G1 X73.509 Y72.635 E6.50066
G1 X87.358 Y72.635 E7.41743
G1 X88.570 Y73.848 E7.53096
G1 F1800.000 E6.53096
G92 E0
G1 X88.433 Y70.867 F6000.000
G1 X92.228 Y74.579
G1 F1800.000 E1.00000
G1 X93.012 Y73.794 F540.000 E1.07343
G1 X106.121 Y73.794 E1.94125
G1 X106.906 Y74.579 E2.01469
G1 X106.906 Y105.688 E4.07409
G1 X106.121 Y106.472 E4.14752
G1 X93.012 Y106.472 E5.01534
G1 X92.228 Y105.688 E5.08878
G1 X92.228 Y74.713 E7.13931
G1 F1800.000 E6.13931
G92 E0
G1 X88.433 Y70.867 F6000.000
G1 X87.772 Y74.312
G1 F1800.000 E1.00000
G1 X87.772 Y105.421 F540.000 E3.05940
G1 X86.988 Y106.206 E3.13283
G1 X73.879 Y106.206 E4.00065
G1 X73.094 Y105.421 E4.07409
G1 X73.094 Y74.312 E6.13348
G1 X73.879 Y73.528 E6.20692
G1 X86.988 Y73.528 E7.07474
G1 X87.678 Y74.217 E7.13931
G1 F1800.000 E6.13931
G92 E0
G1 X88.433 Y70.867 F6000.000
G1 X93.120 Y74.948
G1 F1800.000 E1.00000
G1 X93.382 Y74.687 F540.000 E1.02448
G1 X105.752 Y74.687 E1.84334
G1 X106.013 Y74.948 E1.86782
G1 X106.013 Y105.318 E3.87826
G1 X105.752 Y105.580 E3.90274
G1 X93.382 Y105.580 E4.72160
G1 X93.120 Y105.318 E4.74608
G1 X93.120 Y75.082 E6.74766
G1 F1800.000 E5.74766
G92 E0
G1 X88.433 Y70.867 F6000.000
G1 X86.880 Y74.682
G1 F1800.000 E1.00000
G1 X86.880 Y105.052 F540.000 E3.01044
G1 X86.618 Y105.313 E3.03492
G1 X74.248 Y105.313 E3.85378
G1 X73.987 Y105.052 E3.87826
G1 X73.987 Y74.682 E5.88870
G1 X74.248 Y74.420 E5.91318
G1 X86.618 Y74.420 E6.73204
G1 X86.785 Y74.587 E6.74766
G1 X85.987 Y75.313 F6000.000
G1 X85.987 Y104.420 F378.000 E8.67453
G1 X74.880 Y104.420 E9.40982
G1 X74.880 Y75.313 E11.33668
G1 X85.853 Y75.313 E12.06311
G1 X85.541 Y76.086 F6000.000
G1 X85.094 Y76.206
G1 X85.094 Y103.528 F540.000 E13.87179
G1 X75.772 Y103.528 E14.48888
G1 X75.772 Y76.206 E16.29756
G1 X84.960 Y76.206 E16.90579
G1 X84.202 Y77.098 F6000.000
G1 X84.202 Y102.635 F540.000 E18.59628
G1 X76.665 Y102.635 E19.09519
G1 X76.665 Y77.098 E20.78567
G1 X84.068 Y77.098 E21.27572
G1 X83.554 Y77.745 F6000.000
G1 X83.554 Y79.016 F1080.000 E21.36033
G1 X82.284 Y77.745 E21.47998
G1 X81.014 Y77.745 E21.56458
G1 X83.554 Y80.286 E21.80388
G1 X83.554 Y81.556 E21.88848
G1 X79.744 Y77.745 E22.24741
G1 X78.474 Y77.745 E22.33201
G1 X83.554 Y82.826 E22.81059
G1 X83.554 Y84.097 E22.89518
G1 X77.312 Y77.854 E23.48316
G1 X77.312 Y79.124 E23.56775
G1 X83.554 Y85.367 E24.15572
G1 X83.554 Y86.637 E24.24032
G1 X77.312 Y80.395 E24.82829
G1 X77.312 Y81.665 E24.91289
G1 X83.554 Y87.907 E25.50086
G1 X83.554 Y89.177 E25.58546
G1 X77.312 Y82.935 E26.17343
G1 X77.312 Y84.205 E26.25803
G1 X83.554 Y90.447 E26.84600
G1 X83.554 Y91.718 E26.93060
G1 X77.312 Y85.475 E27.51857
G1 X77.312 Y86.745 E27.60317
G1 X83.554 Y92.988 E28.19114
G1 X83.554 Y94.258 E28.27573
G1 X77.312 Y88.016 E28.86371
G1 X77.312 Y89.286 E28.94830
G1 X83.554 Y95.528 E29.53627
G1 X83.554 Y96.798 E29.62087
G1 X77.312 Y90.556 E30.20884
G1 X77.312 Y91.826 E30.29344
G1 X83.554 Y98.069 E30.88141
G1 X83.554 Y99.339 E30.96601
G1 X77.312 Y93.096 E31.55398
G1 X77.312 Y94.367 E31.63858
G1 X83.554 Y100.609 E32.22655
G1 X83.554 Y101.879 E32.31115
G1 X77.312 Y95.637 E32.89912
G1 X77.312 Y96.907 E32.98372
G1 X82.393 Y101.988 E33.46229
G1 X81.123 Y101.988 E33.54689
G1 X77.312 Y98.177 E33.90583
G1 X77.312 Y99.447 E33.99042
G1 X79.853 Y101.988 E34.22972
G1 X78.583 Y101.988 E34.31432
G1 X77.312 Y100.717 E34.43398
G1 X77.312 Y101.988 E34.51859
G1 F1800.000 E33.51859
G92 E0
G1 X73.191 Y107.867 F6000.000
G1 X87.676 Y107.867
G1 X90.567 Y106.376
G1 X94.013 Y104.687
G1 F1800.000 E1.00000
G1 X94.013 Y75.580 F378.000 E2.92687
G1 X105.120 Y75.580 E3.66216
G1 X105.120 Y104.687 E5.58903
G1 X94.147 Y104.687 E6.31545
G1 X94.459 Y103.914 F6000.000
G1 X94.906 Y103.794
G1 X94.906 Y76.472 F540.000 E8.12413
G1 X104.228 Y76.472 E8.74123
G1 X104.228 Y103.794 E10.54990
G1 X95.040 Y103.794 E11.15814
G1 X95.798 Y102.902 F6000.000
G1 X95.798 Y77.365 F540.000 E12.84862
G1 X103.335 Y77.365 E13.34753
G1 X103.335 Y102.902 E15.03801
G1 X95.932 Y102.902 E15.52806
G1 X96.446 Y102.254 F6000.000
G1 X96.445 Y100.984 F1080.000 E15.61267
G1 X97.716 Y102.254 E15.73233
G1 X98.986 Y102.254 E15.81692
G1 X96.445 Y99.714 E16.05622
G1 X96.445 Y98.444 E16.14082
G1 X100.256 Y102.254 E16.49976
G1 X101.526 Y102.254 E16.58435
G1 X96.445 Y97.174 E17.06293
G1 X96.445 Y95.903 E17.14753
G1 X102.688 Y102.146 E17.73550
G1 X102.688 Y100.876 E17.82010
G1 X96.445 Y94.633 E18.40807
G1 X96.445 Y93.363 E18.49266
G1 X102.688 Y99.605 E19.08064
G1 X102.688 Y98.335 E19.16523
G1 X96.445 Y92.093 E19.75320
G1 X96.445 Y90.823 E19.83780
G1 X102.688 Y97.065 E20.42577
G1 X102.688 Y95.795 E20.51037
G1 X96.445 Y89.553 E21.09834
G1 X96.445 Y88.282 E21.18294
G1 X102.688 Y94.525 E21.77091
G1 X102.688 Y93.254 E21.85551
G1 X96.445 Y87.012 E22.44348
G1 X96.445 Y85.742 E22.52808
G1 X102.688 Y91.984 E23.11605
G1 X102.688 Y90.714 E23.20065
G1 X96.445 Y84.472 E23.78862
G1 X96.445 Y83.202 E23.87321
G1 X102.688 Y89.444 E24.46119
G1 X102.688 Y88.174 E24.54578
G1 X96.445 Y81.931 E25.13375
G1 X96.445 Y80.661 E25.21835
G1 X102.688 Y86.904 E25.80632
G1 X102.688 Y85.633 E25.89092
G1 X96.445 Y79.391 E26.47889
G1 X96.445 Y78.121 E26.56349
G1 X102.688 Y84.363 E27.15146
G1 X102.688 Y83.093 E27.23606
G1 X97.607 Y78.012 E27.71463
G1 X98.877 Y78.012 E27.79923
G1 X102.688 Y81.823 E28.15817
G1 X102.688 Y80.553 E28.24277
G1 X100.147 Y78.012 E28.48206
G1 X101.417 Y78.012 E28.56666
G1 X102.688 Y79.283 E28.68632
G1 X102.688 Y78.012 E28.77093
M106 S255
M104 S225 ; set temperature
M140 S110 ; set bed temperature
G1 F1800.000 E27.77093
G92 E0
G1 Z-0.590 F6000.000
G1 X106.809 Y72.133
G1 X87.676 Y71.867
G1 X84.850 Y76.450
G1 F1800.000 E1.00000
G1 X84.850 Y103.283 F1756.271 E1.78140
G1 X76.017 Y103.283 E2.03863
G1 X76.017 Y76.450 E2.82003
G1 X84.755 Y76.450 E3.07449
G1 X85.483 Y75.817 F6000.000
G1 X85.483 Y103.917 F1756.271 E3.89279
G1 X75.383 Y103.917 E4.18690
G1 X75.383 Y75.817 E5.00520
G1 X85.388 Y75.817 E5.29655
G1 X86.117 Y75.183 F6000.000
G1 X86.117 Y104.550 F1229.390 E6.15173
G1 X74.750 Y104.550 E6.48273
G1 X74.750 Y75.183 E7.33792
G1 X86.022 Y75.183 E7.66616
G1 X85.800 Y75.732 F6000.000
G1 X76.476 Y76.909
G1 X76.476 Y77.824 F3512.543 E7.69334
G1 X77.390 Y76.909 E7.73178
G1 X78.305 Y76.909 E7.75896
G1 X76.476 Y78.738 E7.83583
G1 X76.476 Y79.652 E7.86301
G1 X79.219 Y76.909 E7.97832
G1 X80.133 Y76.909 E8.00550
G1 X76.476 Y80.567 E8.15924
G1 X76.476 Y81.481 E8.18642
G1 X81.048 Y76.909 E8.37860
G1 X81.962 Y76.909 E8.40578
G1 X76.476 Y82.395 E8.63639
G1 X76.476 Y83.310 E8.66357
G1 X82.876 Y76.909 E8.93262
G1 X83.791 Y76.909 E8.95980
G1 X76.476 Y84.224 E9.26728
G1 X76.476 Y85.138 E9.29446
G1 X84.391 Y77.223 E9.62718
G1 X84.391 Y78.138 E9.65435
G1 X76.476 Y86.052 E9.98707
G1 X76.476 Y86.967 E10.01425
G1 X84.391 Y79.052 E10.34697
G1 X84.391 Y79.966 E10.37414
G1 X76.476 Y87.881 E10.70686
G1 X76.476 Y88.795 E10.73404
G1 X84.391 Y80.880 E11.06676
G1 X84.391 Y81.795 E11.09393
G1 X76.476 Y89.710 E11.42665
G1 X76.476 Y90.624 E11.45383
G1 X84.391 Y82.709 E11.78655
G1 X84.391 Y83.623 E11.81372
G1 X76.476 Y91.538 E12.14644
G1 X76.476 Y92.453 E12.17362
G1 X84.391 Y84.538 E12.50634
G1 X84.391 Y85.452 E12.53351
G1 X76.476 Y93.367 E12.86623
G1 X76.476 Y94.281 E12.89341
G1 X84.391 Y86.366 E13.22612
G1 X84.391 Y87.281 E13.25330
G1 X76.476 Y95.196 E13.58602
G1 X76.476 Y96.110 E13.61320
G1 X84.391 Y88.195 E13.94591
G1 X84.391 Y89.109 E13.97309
G1 X76.476 Y97.024 E14.30581
G1 X76.476 Y97.938 E14.33299
G1 X84.391 Y90.024 E14.66570
G1 X84.391 Y90.938 E14.69288
G1 X76.476 Y98.853 E15.02560
G1 X76.476 Y99.767 E15.05278
G1 X84.391 Y91.852 E15.38549
G1 X84.391 Y92.767 E15.41267
G1 X76.476 Y100.681 E15.74539
G1 X76.476 Y101.596 E15.77256
G1 X84.391 Y93.681 E16.10528
G1 X84.391 Y94.595 E16.13246
G1 X76.476 Y102.510 E16.46518
G1 X77.076 Y102.824 E16.48531
G1 X84.391 Y95.509 E16.79280
G1 X84.391 Y96.424 E16.81998
G1 X77.990 Y102.824 E17.08903
G1 X78.905 Y102.824 E17.11620
G1 X84.391 Y97.338 E17.34682
G1 X84.391 Y98.252 E17.37400
G1 X79.819 Y102.824 E17.56618
G1 X80.733 Y102.824 E17.59336
G1 X84.391 Y99.167 E17.74710
G1 X84.391 Y100.081 E17.77428
G1 X81.648 Y102.824 E17.88959
G1 X82.562 Y102.824 E17.91677
G1 X84.391 Y100.995 E17.99365
G1 X84.391 Y101.910 E18.02083
G1 X83.476 Y102.824 E18.05927
G1 X84.391 Y102.824 E18.08645
G1 F1800.000 E17.08645
G92 E0
G1 X89.433 Y106.109 F6000.000
G1 X90.567 Y106.376
G1 X95.150 Y103.550
G1 F1800.000 E1.00000
G1 X95.150 Y76.717 F1756.271 E1.78140
G1 X103.983 Y76.717 E2.03863
G1 X103.983 Y103.550 E2.82003
G1 X95.245 Y103.550 E3.07449
G1 X94.517 Y104.183 F6000.000
G1 X94.517 Y76.083 F1756.271 E3.89279
G1 X104.617 Y76.083 E4.18690
G1 X104.617 Y104.183 E5.00520
G1 X94.612 Y104.183 E5.29655
G1 X93.883 Y104.817 F6000.000
G1 X93.883 Y75.450 F1229.390 E6.15173
G1 X105.250 Y75.450 E6.48273
G1 X105.250 Y104.817 E7.33792
G1 X93.978 Y104.817 E7.66616
G1 X94.200 Y104.268 F6000.000
G1 X103.524 Y103.091
G1 X102.610 Y103.091 F3512.543 E7.69334
G1 X103.524 Y102.176 E7.73178
