; generated by Slic3r 0.9.9 on 2013-07-06 at 17:40:53

; layer_height = 0.31
; perimeters = 3
; top_solid_layers = 3
; bottom_solid_layers = 3
; fill_density = 0.4
; perimeter_speed = 30
; infill_speed = 60
; travel_speed = 130
; nozzle_diameter = 0.5
; filament_diameter = 2.93
; extrusion_multiplier = 1
; perimeters extrusion width = 0.67mm
; infill extrusion width = 0.67mm
; solid infill extrusion width = 0.67mm
; top infill extrusion width = 0.67mm
; first layer extrusion width = 1.00mm

G21 ; set units to millimeters
M107
M190 S120 ; wait for bed temperature to be reached
M104 S240 ; set temperature
G28 ; home all axes
G1 Z5 F5000 ; lift nozzle
M109 S240 ; wait for temperature to be reached
G90 ; use absolute coordinates
G92 E0
M82 ; use absolute distances for extrusion
G1 F1800.000 E-1.00000
G92 E0
G1 Z-0.900 F7800.000
G1 X46.000 Y57.586
G1 F1800.000 E1.00000
G1 X49.180 Y55.266 F540.000 E1.26058
G1 X49.670 Y54.936 E1.29969
G1 X50.450 Y54.536 E1.35772
G1 X53.800 Y53.056 E1.60016
G1 X54.340 Y52.846 E1.63852
G1 X54.880 Y52.676 E1.67599
G1 X59.020 Y51.796 E1.95618
G1 X59.880 Y51.706 E2.01342
G1 X120.110 Y51.706 E6.00057
G1 X120.970 Y51.796 E6.05782
G1 X125.110 Y52.676 E6.33800
G1 X125.390 Y52.756 E6.35728
G1 X126.190 Y53.056 E6.41384
G1 X129.800 Y54.656 E6.67524
G1 X130.310 Y54.936 E6.71375
G1 X130.790 Y55.256 E6.75194
G1 X133.750 Y57.406 E6.99412
G1 X134.420 Y57.956 E7.05151
G1 X134.820 Y58.376 E7.08990
G1 X137.270 Y61.096 E7.33224
G1 X137.640 Y61.536 E7.37030
G1 X137.810 Y61.776 E7.38977
G1 X138.120 Y62.256 E7.42759
G1 X139.950 Y65.426 E7.66990
G1 X140.220 Y65.946 E7.70869
G1 X140.330 Y66.206 E7.72738
G1 X140.540 Y66.746 E7.76573
G1 X141.670 Y70.226 E8.00794
G1 X141.880 Y71.066 E8.06526
G1 X141.970 Y71.636 E8.10346
G1 X142.350 Y75.276 E8.34573
G1 X142.380 Y75.996 E8.39344
G1 X142.380 Y103.996 E10.24701
G1 X142.350 Y104.716 E10.29471
G1 X141.970 Y108.356 E10.53698
G1 X141.880 Y108.926 E10.57518
G1 X141.670 Y109.766 E10.63250
G1 X140.540 Y113.246 E10.87471
G1 X140.220 Y114.046 E10.93175
G1 X139.950 Y114.566 E10.97054
G1 X137.970 Y117.986 E11.23214
G1 X137.640 Y118.456 E11.27016
G1 X137.260 Y118.906 E11.30915
G1 X134.620 Y121.826 E11.56974
G1 X134.410 Y122.026 E11.58894
G1 X133.750 Y122.576 E11.64581
G1 X130.790 Y124.726 E11.88800
G1 X130.060 Y125.186 E11.94512
G1 X129.550 Y125.436 E11.98272
G1 X125.940 Y127.046 E12.24438
G1 X125.390 Y127.236 E12.28290
G1 X125.110 Y127.316 E12.30218
G1 X120.970 Y128.196 E12.58237
G1 X120.400 Y128.266 E12.62038
G1 X120.110 Y128.286 E12.63963
G1 X59.880 Y128.286 E16.62678
G1 X59.020 Y128.196 E16.68402
G1 X54.880 Y127.316 E16.96421
G1 X54.600 Y127.236 E16.98348
G1 X54.050 Y127.046 E17.02200
G1 X53.790 Y126.936 E17.04069
G1 X50.440 Y125.446 E17.28341
G1 X49.920 Y125.186 E17.32189
G1 X49.420 Y124.886 E17.36049
G1 X46.000 Y122.396 E17.64054
G1 X45.570 Y122.026 E17.67809
G1 X45.370 Y121.826 E17.69682
G1 X42.540 Y118.686 E17.97665
G1 X42.180 Y118.226 E18.01532
G1 X41.870 Y117.736 E18.05370
G1 X40.040 Y114.566 E18.29601
G1 X39.770 Y114.046 E18.33479
G1 X39.450 Y113.246 E18.39183
G1 X38.320 Y109.766 E18.63405
G1 X38.110 Y108.926 E18.69136
G1 X38.020 Y108.356 E18.72956
G1 X37.640 Y104.716 E18.97184
G1 X37.610 Y103.996 E19.01954
G1 X37.610 Y75.996 E20.87311
G1 X37.640 Y75.276 E20.92081
G1 X38.020 Y71.636 E21.16309
G1 X38.110 Y71.066 E21.20129
G1 X38.320 Y70.226 E21.25860
G1 X39.450 Y66.746 E21.50082
G1 X39.770 Y65.946 E21.55786
G1 X40.040 Y65.426 E21.59664
G1 X41.870 Y62.256 E21.83895
G1 X42.350 Y61.536 E21.89623
G1 X42.720 Y61.096 E21.93429
G1 X45.360 Y58.166 E22.19537
G1 X45.899 Y57.673 E22.24369
G1 F1800.000 E21.24369
G92 E0
G1 X110.641 Y89.209 F7800.000
G1 F1800.000 E1.00000
G1 X111.314 Y88.670 F540.000 E1.05708
G1 X112.198 Y88.405 E1.11819
G1 X113.218 Y88.351 E1.18579
G1 X114.276 Y88.567 E1.25729
G1 X115.288 Y89.137 E1.33420
G1 X115.580 Y89.730 E1.37794
G1 X115.385 Y90.289 E1.41711
G1 X115.243 Y90.447 E1.43116
G1 X115.745 Y91.450 E1.50543
G1 X116.490 Y92.630 E1.59783
G1 X118.211 Y95.070 E1.79544
G1 X119.381 Y96.509 E1.91825
G1 X119.969 Y97.381 E1.98789
G1 X120.275 Y98.341 E2.05458
G1 X120.041 Y99.149 E2.11028
G1 X119.319 Y99.496 E2.16332
G1 X118.596 Y99.526 E2.21125
G1 X117.915 Y99.394 E2.25714
G1 X117.116 Y98.776 E2.32400
G1 X116.438 Y98.064 E2.38912
G1 X115.737 Y97.220 E2.46171
G1 X115.346 Y98.238 E2.53388
G1 X114.914 Y98.864 E2.58424
G1 X114.148 Y99.040 E2.63624
G1 X113.413 Y98.846 E2.68659
G1 X112.769 Y98.439 E2.73698
G1 X112.275 Y97.852 E2.78775
G1 X112.101 Y97.177 E2.83395
G1 X112.146 Y95.618 E2.93718
G1 X112.311 Y94.286 E3.02605
G1 X112.344 Y93.871 E3.05358
G1 X112.475 Y93.415 E3.08501
G1 X112.643 Y93.192 E3.10350
G1 X111.386 Y91.387 E3.24912
G1 X110.615 Y90.060 E3.35069
G1 X110.637 Y89.343 E3.39821
G1 X110.273 Y88.429 F7800.000
G1 X110.689 Y87.678
G1 X94.977 Y88.448
G1 X91.604 Y88.684
G1 X90.257 Y89.591
G1 X89.475 Y92.048
G1 X89.739 Y96.060
G1 X89.409 Y94.277
G1 X89.666 Y96.091 F540.000 E3.51945
G1 X89.297 Y97.716 E3.62976
G1 X88.924 Y98.472 E3.68556
G1 X88.180 Y99.054 E3.74813
G1 X87.311 Y99.353 E3.80894
G1 X86.396 Y99.338 E3.86953
G1 X85.757 Y99.024 E3.91669
G1 X84.328 Y99.076 E4.01134
G1 X82.790 Y98.453 E4.12119
G1 X82.080 Y97.876 E4.18170
G1 X81.430 Y97.193 E4.24410
G1 X80.862 Y96.467 E4.30518
G1 X80.431 Y95.790 E4.35829
G1 X79.888 Y94.646 E4.44212
G1 X79.456 Y93.384 E4.53044
G1 X79.237 Y92.060 E4.61926
G1 X79.377 Y90.760 E4.70585
G1 X80.031 Y89.597 E4.79412
G1 X81.253 Y88.774 E4.89168
G1 X82.042 Y88.477 E4.94749
G1 X82.937 Y88.353 E5.00727
G1 X83.835 Y88.379 E5.06672
G1 X84.644 Y88.532 E5.12124
G1 X85.675 Y88.999 E5.19619
G1 X86.926 Y89.924 E5.29917
G1 X87.881 Y91.049 E5.39688
G1 X88.750 Y92.537 E5.51096
G1 X89.362 Y94.152 E5.62528
G1 X90.260 Y94.549 F7800.000
G1 X90.000 Y100.017
G1 X92.109 Y100.891 F540.000 E5.77643
G1 X92.983 Y103.000 E5.92757
G1 X92.109 Y105.109 E6.07872
G1 X90.000 Y105.983 E6.22986
G1 X87.891 Y105.109 E6.38100
G1 X87.017 Y103.000 E6.53215
G1 X87.891 Y100.891 E6.68330
G1 X89.876 Y100.068 E6.82558
G1 X90.543 Y99.309 F7800.000
G1 X92.342 Y97.823
G1 X91.743 Y97.193 F540.000 E6.88312
G1 X91.175 Y96.467 E6.94420
G1 X90.743 Y95.790 E6.99730
G1 X90.201 Y94.646 E7.08114
G1 X89.768 Y93.384 E7.16945
G1 X89.550 Y92.060 E7.25827
G1 X89.690 Y90.760 E7.34487
G1 X90.343 Y89.597 E7.43314
G1 X91.566 Y88.774 E7.53070
G1 X92.355 Y88.477 E7.58651
G1 X93.249 Y88.353 E7.64629
G1 X94.147 Y88.379 E7.70574
G1 X94.956 Y88.532 E7.76026
G1 X95.987 Y88.999 E7.83520
G1 X97.239 Y89.924 E7.93819
G1 X98.194 Y91.049 E8.03590
G1 X99.063 Y92.537 E8.14998
G1 X99.722 Y94.277 E8.27317
G1 X99.978 Y96.091 E8.39441
G1 X99.609 Y97.716 E8.50471
G1 X99.237 Y98.472 E8.56051
G1 X98.492 Y99.054 E8.62308
G1 X97.624 Y99.353 E8.68390
G1 X96.709 Y99.338 E8.74448
G1 X96.069 Y99.024 E8.79164
G1 X94.640 Y99.076 E8.88630
G1 X93.102 Y98.453 E8.99614
G1 X92.440 Y97.915 E9.05265
G1 X91.506 Y98.061 F7800.000
G1 X93.062 Y98.514
G1 X96.753 Y99.393
G1 X97.676 Y99.408
G1 X104.030 Y98.723
G1 X100.051 Y96.060
G1 X101.024 Y94.453
G1 X100.418 Y92.617 F540.000 E9.18060
G1 X99.958 Y90.774 E9.30632
G1 X100.000 Y90.524 E9.32315
G1 X99.842 Y89.992 E9.35984
G1 X100.232 Y88.956 E9.43316
G1 X101.153 Y88.422 E9.50366
G1 X102.224 Y88.348 E9.57472
G1 X103.003 Y88.630 E9.62954
G1 X103.273 Y88.543 E9.64832
G1 X103.638 Y88.519 E9.67249
G1 X105.630 Y88.689 E9.80488
G1 X107.240 Y89.420 E9.92191
G1 X108.374 Y90.489 E10.02506
G1 X109.001 Y91.690 E10.11474
G1 X109.067 Y92.880 E10.19368
G1 X108.329 Y93.770 E10.27016
G1 X109.012 Y94.299 E10.32735
G1 X109.635 Y94.947 E10.38682
G1 X110.113 Y95.693 E10.44553
G1 X110.283 Y96.504 E10.50039
G1 X110.085 Y97.269 E10.55267
G1 X109.649 Y97.897 E10.60328
G1 X109.102 Y98.400 E10.65246
G1 X108.359 Y98.885 E10.71117
G1 X106.960 Y99.230 E10.80658
G1 X105.487 Y99.151 E10.90422
G1 X104.074 Y98.663 E11.00321
G1 X102.916 Y97.764 E11.10025
G1 X101.836 Y96.212 E11.22541
G1 X101.080 Y94.574 E11.34485
G1 X100.143 Y94.304 F7800.000
G1 X100.051 Y96.060
G1 X99.904 Y90.811
G1 X100.149 Y88.774
G1 X107.557 Y85.811
G1 X107.997 Y86.477
G1 X107.565 Y85.659 F378.000 E11.40610
G1 X107.316 Y84.972 E11.45444
G1 X106.875 Y83.555 E11.55272
G1 X105.262 Y78.764 E11.88732
G1 X105.031 Y77.893 E11.94701
G1 X105.020 Y77.049 E12.00289
G1 X105.626 Y76.522 E12.05603
G1 X106.339 Y76.350 E12.10460
G1 X107.045 Y76.394 E12.15142
G1 X107.723 Y76.631 E12.19898
G1 X108.323 Y77.555 E12.27188
G1 X108.853 Y78.603 E12.34966
G1 X109.094 Y78.525 E12.36643
G1 X109.736 Y78.152 E12.41561
G1 X111.202 Y77.159 E12.53283
G1 X111.877 Y76.759 E12.58475
G1 X112.458 Y76.601 E12.62463
G1 X113.466 Y76.827 E12.69299
G1 X113.980 Y77.363 E12.74213
G1 X113.786 Y78.124 E12.79411
G1 X113.400 Y79.014 E12.85834
G1 X113.042 Y79.743 E12.91213
G1 X112.457 Y80.525 E12.97675
G1 X111.972 Y80.922 E13.01829
G1 X112.923 Y81.288 E13.08573
G1 X113.987 Y81.934 E13.16819
G1 X115.060 Y82.892 E13.26342
G1 X115.359 Y83.417 E13.30339
G1 X115.447 Y84.075 E13.34731
G1 X115.296 Y84.737 E13.39230
G1 X114.848 Y85.138 E13.43211
G1 X114.375 Y85.291 E13.46504
G1 X114.014 Y85.375 E13.48954
G1 X113.614 Y85.349 E13.51611
G1 X113.196 Y85.199 E13.54548
G1 X112.101 Y84.627 E13.62727
G1 X111.996 Y84.737 E13.63730
G1 X112.463 Y85.497 E13.69636
G1 X112.585 Y85.625 E13.70806
G1 X112.806 Y85.968 E13.73508
G1 X112.945 Y86.827 E13.79267
G1 X112.371 Y87.407 E13.84663
G1 X111.620 Y87.604 E13.89807
G1 X110.867 Y87.636 E13.94795
G1 X110.201 Y87.592 E13.99214
G1 X109.759 Y87.508 E14.02195
G1 X109.427 Y87.388 E14.04529
G1 X109.147 Y87.255 E14.06586
G1 X108.910 Y87.034 E14.08728
G1 X108.808 Y86.878 E14.09962
G1 X108.117 Y86.536 E14.15065
G1 X107.118 Y86.629 F7800.000
G1 X104.731 Y85.664
G1 X103.810 Y86.558 F378.000 E14.23556
G1 X102.345 Y86.968 E14.33632
G1 X100.808 Y86.916 E14.43808
G1 X99.407 Y86.524 E14.53441
G1 X98.259 Y85.977 E14.61858
G1 X97.102 Y85.055 E14.71653
G1 X96.046 Y83.848 E14.82269
G1 X95.209 Y82.408 E14.93294
G1 X94.718 Y80.785 E15.04518
G1 X94.710 Y79.070 E15.15869
G1 X95.063 Y77.906 E15.23923
G1 X95.763 Y77.105 E15.30965
G1 X96.678 Y76.644 E15.37750
G1 X97.719 Y76.404 E15.44824
G1 X98.734 Y76.352 E15.51553
G1 X99.763 Y76.486 E15.58419
G1 X100.728 Y76.758 E15.65057
G1 X101.587 Y77.128 E15.71245
G1 X101.947 Y77.361 E15.74090
G1 X102.305 Y77.640 E15.77094
G1 X102.612 Y78.124 E15.80883
G1 X102.390 Y78.720 E15.85096
G1 X102.171 Y78.845 E15.86765
G1 X102.171 Y79.484 E15.90995
G1 X101.539 Y79.935 E15.96135
G1 X100.589 Y80.032 E16.02454
G1 X99.998 Y79.863 E16.06529
G1 X99.599 Y79.667 E16.09465
G1 X99.171 Y79.576 E16.12363
G1 X98.999 Y79.600 E16.13513
G1 X98.791 Y79.685 E16.15000
G1 X98.636 Y79.826 E16.16387
G1 X98.545 Y80.028 E16.17856
G1 X98.540 Y80.342 E16.19932
G1 X98.655 Y80.867 E16.23494
G1 X98.951 Y81.517 E16.28221
G1 X99.474 Y82.240 E16.34125
G1 X99.891 Y82.679 E16.38137
G1 X100.202 Y82.938 E16.40816
G1 X100.444 Y83.086 E16.42694
G1 X100.960 Y83.330 E16.46475
G1 X100.980 Y82.306 E16.53259
G1 X102.172 Y81.845 E16.61720
G1 X102.874 Y81.920 E16.66393
G1 X103.528 Y82.129 E16.70933
G1 X104.125 Y82.494 E16.75569
G1 X104.563 Y83.037 E16.80187
G1 X104.973 Y84.424 E16.89761
G1 X104.756 Y85.533 E16.97243
G1 X105.118 Y86.469 F7800.000
G1 X104.842 Y85.730
G1 X100.149 Y88.774
G1 X94.730 Y85.097
G1 X94.675 Y85.111
G1 X94.278 Y85.725 F540.000 E17.02085
G1 X94.086 Y85.847 E17.03589
G1 X94.201 Y86.241 E17.06302
G1 X93.665 Y86.870 E17.11769
G1 X92.922 Y87.144 E17.17016
G1 X92.112 Y87.214 E17.22397
G1 X91.395 Y87.056 E17.27257
G1 X90.680 Y86.799 E17.32283
G1 X88.889 Y85.229 E17.48052
G1 X87.401 Y83.503 E17.63136
G1 X86.147 Y81.666 E17.77864
G1 X85.078 Y79.787 E17.92171
G1 X84.856 Y79.326 E17.95558
G1 X84.562 Y78.575 E18.00895
G1 X84.381 Y77.685 E18.06909
G1 X84.664 Y76.908 E18.12380
G1 X85.599 Y76.346 E18.19605
G1 X86.678 Y76.413 E18.26760
G1 X87.235 Y76.659 E18.30790
G1 X87.714 Y77.049 E18.34884
G1 X88.131 Y77.506 E18.38973
G1 X88.385 Y77.849 E18.41799
G1 X88.877 Y77.907 E18.45078
G1 X89.274 Y78.066 E18.47910
G1 X89.762 Y78.363 E18.51692
G1 X89.584 Y77.689 E18.56307
G1 X89.584 Y77.236 E18.59304
G1 X89.903 Y76.821 E18.62772
G1 X90.609 Y76.519 E18.67860
G1 X91.385 Y76.428 E18.73031
G1 X92.156 Y76.543 E18.78189
G1 X92.901 Y76.965 E18.83858
G1 X93.059 Y77.615 E18.88289
G1 X93.149 Y77.871 E18.90087
G1 X94.104 Y82.291 E19.20020
G1 X94.649 Y84.980 E19.38183
G1 X95.164 Y85.656 F7800.000
G1 X94.730 Y85.097
G1 X93.731 Y86.932
G1 X91.604 Y88.684
G1 X84.568 Y86.290
G1 X84.535 Y86.132
G1 X83.771 Y86.534 F540.000 E19.43896
G1 X82.917 Y86.534 E19.49549
G1 X82.005 Y86.264 E19.55844
G1 X81.154 Y85.690 E19.62642
G1 X80.591 Y84.813 E19.69538
G1 X80.164 Y83.671 E19.77611
G1 X79.800 Y84.726 E19.85002
G1 X79.305 Y85.860 E19.93188
G1 X78.357 Y86.181 E19.99816
G1 X77.555 Y85.967 E20.05308
G1 X76.918 Y85.452 E20.10728
G1 X76.417 Y84.796 E20.16195
G1 X76.027 Y84.082 E20.21581
G1 X75.749 Y83.408 E20.26406
G1 X75.262 Y82.024 E20.36116
G1 X74.762 Y80.384 E20.47472
G1 X74.339 Y78.764 E20.58554
G1 X74.100 Y77.441 E20.67453
G1 X74.076 Y76.808 E20.71648
G1 X74.676 Y76.415 E20.76399
G1 X75.323 Y76.349 E20.80699
G1 X75.988 Y76.473 E20.85178
G1 X76.624 Y76.793 E20.89895
G1 X77.287 Y77.618 E20.96899
G1 X77.568 Y78.049 E21.00302
G1 X77.792 Y78.546 E21.03911
G1 X77.901 Y78.536 E21.04630
G1 X78.123 Y77.647 E21.10695
G1 X78.448 Y76.942 E21.15839
G1 X78.993 Y76.565 E21.20221
G1 X79.593 Y76.525 E21.24203
G1 X80.024 Y76.553 E21.27058
G1 X80.458 Y76.687 E21.30065
G1 X81.013 Y76.958 E21.34152
G1 X81.566 Y77.558 E21.39557
G1 X82.105 Y78.637 E21.47542
G1 X83.719 Y82.704 E21.76510
G1 X84.222 Y83.722 E21.84022
G1 X84.461 Y84.345 E21.88438
G1 X84.477 Y84.916 E21.92221
G1 X84.428 Y85.247 E21.94437
G1 X84.519 Y85.999 E21.99451
G1 X84.841 Y86.939 F7800.000
G1 X74.213 Y85.723
G1 X73.741 Y86.392 F378.000 E22.04870
G1 X73.046 Y86.810 E22.10240
G1 X72.261 Y87.068 E22.15708
G1 X70.973 Y87.158 E22.24253
G1 X69.880 Y87.049 E22.31531
G1 X68.935 Y86.796 E22.38001
G1 X68.083 Y86.462 E22.44064
G1 X67.286 Y86.014 E22.50117
G1 X66.552 Y85.359 E22.56627
G1 X65.990 Y84.465 E22.63618
G1 X65.689 Y83.289 E22.71652
G1 X66.066 Y81.677 E22.82612
G1 X67.307 Y80.557 E22.93680
G1 X67.716 Y80.253 E22.97055
G1 X68.288 Y79.867 E23.01620
G1 X67.481 Y79.571 E23.07309
G1 X67.073 Y79.514 E23.10035
G1 X66.555 Y79.566 E23.13481
G1 X65.943 Y79.667 E23.17591
G1 X65.289 Y79.733 E23.21939
G1 X64.609 Y79.640 E23.26484
G1 X63.990 Y79.180 E23.31590
G1 X63.742 Y78.016 E23.39469
G1 X64.397 Y77.065 E23.47115
G1 X65.559 Y76.513 E23.55631
G1 X67.025 Y76.350 E23.65390
G1 X69.180 Y76.653 E23.79799
G1 X70.755 Y77.430 E23.91425
G1 X71.768 Y78.472 E24.01045
G1 X72.276 Y79.581 E24.09123
G1 X72.292 Y80.666 E24.16304
G1 X71.888 Y81.529 E24.22612
G1 X71.273 Y82.154 E24.28418
G1 X70.229 Y82.917 E24.36980
G1 X70.126 Y83.056 E24.38124
G1 X70.138 Y83.407 E24.40448
G1 X70.713 Y83.518 E24.44324
G1 X71.652 Y83.502 E24.50539
G1 X72.463 Y83.650 E24.55998
G1 X73.028 Y83.926 E24.60158
G1 X73.379 Y84.449 E24.64326
G1 X73.586 Y84.508 E24.65754
G1 X74.097 Y84.991 E24.70408
G1 X74.192 Y85.591 E24.74432
G1 X74.734 Y86.355 F7800.000
G1 X66.612 Y90.472
G1 X67.120 Y91.581 F378.000 E24.82510
G1 X67.136 Y92.666 E24.89691
G1 X66.732 Y93.529 E24.95999
G1 X66.116 Y94.153 E25.01805
G1 X65.072 Y94.917 E25.10367
G1 X64.970 Y95.056 E25.11510
G1 X64.982 Y95.407 E25.13835
G1 X65.557 Y95.518 E25.17710
G1 X66.496 Y95.502 E25.23926
G1 X67.307 Y95.650 E25.29386
G1 X67.871 Y95.926 E25.33544
G1 X68.222 Y96.449 E25.37713
G1 X68.430 Y96.508 E25.39141
G1 X68.941 Y96.991 E25.43794
G1 X69.057 Y97.723 E25.48705
G1 X68.585 Y98.392 E25.54123
G1 X67.889 Y98.810 E25.59494
G1 X67.105 Y99.068 E25.64962
G1 X65.817 Y99.158 E25.73507
G1 X64.723 Y99.049 E25.80784
G1 X63.779 Y98.796 E25.87254
G1 X62.926 Y98.462 E25.93317
G1 X62.130 Y98.014 E25.99370
G1 X61.396 Y97.359 E26.05881
G1 X60.834 Y96.465 E26.12871
G1 X60.532 Y95.289 E26.20905
G1 X60.910 Y93.677 E26.31865
G1 X62.151 Y92.557 E26.42933
G1 X62.560 Y92.253 E26.46308
G1 X63.132 Y91.867 E26.50873
G1 X62.325 Y91.571 E26.56562
G1 X61.917 Y91.514 E26.59288
G1 X61.399 Y91.566 E26.62734
G1 X60.786 Y91.667 E26.66844
G1 X60.133 Y91.733 E26.71192
G1 X59.453 Y91.640 E26.75737
G1 X58.834 Y91.180 E26.80843
