; generated by Slic3r 0.9.9 on 2013-07-11 at 18:04:40

; layer_height = 0.31
; perimeters = 3
; top_solid_layers = 3
; bottom_solid_layers = 3
; fill_density = 0.4
; perimeter_speed = 60
; infill_speed = 120
; travel_speed = 260
; nozzle_diameter = 0.5
; filament_diameter = 2.92
; extrusion_multiplier = 1
; perimeters extrusion width = 0.55mm
; infill extrusion width = 0.55mm
; solid infill extrusion width = 0.55mm
; top infill extrusion width = 0.55mm
; first layer extrusion width = 1.00mm

G21 ; set units to millimeters
M107
M190 S115 ; wait for bed temperature to be reached
M104 S230 ; set temperature
G28 ; home all axes
G1 Z5 F5000 ; lift nozzle
M109 S230 ; wait for temperature to be reached
G90 ; use absolute coordinates
G92 E0
M82 ; use absolute distances for extrusion
G1 F1800.000 E-1.40000
G92 E0
G1 Z-0.900 F15600.000
G1 X65.624 Y64.268
G1 F1800.000 E1.40000
G1 X66.024 Y63.898 F1080.000 E1.43632
G1 X66.664 Y63.408 E1.49004
G1 X67.134 Y63.118 E1.52685
G1 X67.614 Y62.878 E1.56262
G1 X68.114 Y62.668 E1.59877
G1 X68.894 Y62.428 E1.65316
G1 X69.434 Y62.318 E1.68990
G1 X69.974 Y62.258 E1.72611
G1 X70.244 Y62.238 E1.74416
G1 X89.754 Y62.238 E3.04456
G1 X90.574 Y62.328 E3.09954
G1 X91.384 Y62.508 E3.15484
G1 X92.164 Y62.778 E3.20986
G1 X92.904 Y63.148 E3.26501
G1 X93.144 Y63.288 E3.28353
G1 X93.594 Y63.608 E3.32033
G1 X94.234 Y64.138 E3.37572
G1 X94.794 Y64.748 E3.43091
G1 X94.964 Y64.958 E3.44892
G1 X95.284 Y65.418 E3.48627
G1 X95.564 Y65.888 E3.52273
G1 X95.804 Y66.388 E3.55970
G1 X96.244 Y67.648 E3.64865
G1 X96.394 Y68.278 E3.69182
G1 X96.514 Y69.248 E3.75697
G1 X96.514 Y100.838 E5.86253
G1 X96.434 Y101.658 E5.91745
G1 X96.324 Y102.198 E5.95418
G1 X96.174 Y102.718 E5.99025
G1 X95.874 Y103.488 E6.04533
G1 X95.474 Y104.208 E6.10023
G1 X95.334 Y104.438 E6.11818
G1 X95.004 Y104.878 E6.15484
G1 X94.834 Y105.088 E6.17285
G1 X94.454 Y105.488 E6.20962
G1 X93.834 Y106.028 E6.26442
G1 X93.004 Y106.618 E6.33230
G1 X92.514 Y106.908 E6.37025
G1 X92.004 Y107.158 E6.40811
G1 X91.204 Y107.448 E6.46482
G1 X90.654 Y107.588 E6.50265
G1 X90.374 Y107.638 E6.52161
G1 X89.524 Y107.728 E6.57858
G1 X70.454 Y107.728 E7.84965
G1 X70.164 Y107.708 E7.86903
G1 X69.594 Y107.638 E7.90731
G1 X68.744 Y107.438 E7.96551
G1 X68.194 Y107.248 E8.00429
G1 X67.674 Y107.008 E8.04247
G1 X67.164 Y106.728 E8.08125
G1 X66.684 Y106.408 E8.11970
G1 X66.084 Y105.968 E8.16929
G1 X65.874 Y105.788 E8.18773
G1 X65.264 Y105.198 E8.24429
G1 X64.734 Y104.538 E8.30071
G1 X64.434 Y104.058 E8.33844
G1 X64.164 Y103.568 E8.37573
G1 X63.844 Y102.778 E8.43254
G1 X63.684 Y102.238 E8.47008
G1 X63.624 Y101.968 E8.48851
G1 X63.534 Y101.408 E8.52632
G1 X63.484 Y100.848 E8.56379
G1 X63.484 Y69.268 E10.66869
G1 X63.504 Y68.958 E10.68940
G1 X63.584 Y68.358 E10.72974
G1 X63.644 Y68.068 E10.74948
G1 X63.944 Y67.038 E10.82099
G1 X64.234 Y66.278 E10.87521
G1 X64.484 Y65.788 E10.91187
G1 X64.764 Y65.328 E10.94777
G1 X65.084 Y64.888 E10.98403
G1 X65.532 Y64.365 E11.02992
G1 F1800.000 E9.62992
G92 E0
G1 X80.293 Y91.114 F15600.000
G1 F1800.000 E1.40000
G1 X82.183 Y90.122 F1080.000 E1.54228
G1 X84.317 Y90.122 E1.68455
G1 X86.207 Y91.114 E1.82683
G1 X87.420 Y92.871 E1.96911
G1 X87.677 Y94.990 E2.11137
G1 X86.920 Y96.986 E2.25365
G1 X85.323 Y98.401 E2.39592
G1 X83.250 Y98.912 E2.53820
G1 X81.177 Y98.401 E2.68047
G1 X79.580 Y96.986 E2.82275
G1 X78.823 Y94.990 E2.96502
G1 X79.080 Y92.871 E3.10730
G1 X80.217 Y91.224 E3.24064
G1 X80.185 Y90.228 F15600.000
G1 X79.073 Y89.738
G1 X77.361 Y92.219 F1080.000 E3.44157
G1 X76.997 Y95.211 E3.64251
G1 X78.288 Y98.615 E3.88512
G1 X72.607 Y98.615 E4.26380
G1 X72.607 Y71.365 E6.08008
G1 X87.393 Y71.365 E7.06565
G1 X87.393 Y89.720 E8.28909
G1 X84.757 Y88.337 E8.48751
G1 X81.743 Y88.337 E8.68845
G1 X79.192 Y89.676 E8.88047
G1 F1800.000 E7.48047
G92 E0
G1 X87.406 Y97.748 F15600.000
G1 F1800.000 E1.40000
G1 X88.286 Y96.968 F1080.000 E1.47838
G1 X88.286 Y99.508 E1.64763
G1 X85.420 Y99.508 E1.83867
G1 X87.306 Y97.837 E2.00659
G1 X88.032 Y92.186 F15600.000
G1 X86.817 Y90.426 F1080.000 E2.14915
G1 X84.537 Y89.229 E2.32075
G1 X81.963 Y89.229 E2.49236
G1 X79.683 Y90.426 E2.66397
G1 X78.220 Y92.545 E2.83557
G1 X77.910 Y95.101 E3.00718
G1 X78.823 Y97.508 E3.17878
G1 X81.080 Y99.508 E3.37977
G1 X71.714 Y99.508 E4.00406
G1 X71.714 Y70.472 E5.93935
G1 X88.286 Y70.472 E7.04392
G1 X88.286 Y92.107 E8.48594
G1 X88.160 Y92.146 E8.49474
G1 X89.179 Y100.400 F15600.000
G1 X70.821 Y100.400 F540.000 E9.71831
G1 X70.821 Y69.580 E11.77260
G1 X89.179 Y69.580 E12.99618
G1 X89.179 Y100.266 E15.04154
G1 X88.406 Y99.954 F15600.000
G1 X86.746 Y88.555
G1 X73.254 Y75.062 F2160.000 E16.32347
G1 X73.254 Y73.790 E16.40896
G1 X86.746 Y87.282 E17.69089
G1 X86.746 Y86.010 F15600.000
G1 X73.254 Y72.517 F2160.000 E18.97282
G1 X74.021 Y72.012 E19.03454
G1 X86.746 Y84.737 E20.24358
G1 X86.746 Y83.465 E20.32907
G1 X75.293 Y72.012 E21.41721
G1 X76.566 Y72.012 E21.50270
G1 X86.746 Y82.192 E22.46994
G1 X86.746 Y80.920 E22.55543
G1 X77.838 Y72.012 E23.40177
G1 X79.111 Y72.012 E23.48726
G1 X86.746 Y79.647 E24.21269
G1 X86.746 Y78.375 E24.29818
G1 X80.383 Y72.012 E24.90271
G1 X81.656 Y72.012 E24.98820
G1 X86.746 Y77.102 E25.47183
G1 X86.746 Y75.830 E25.55732
G1 X82.928 Y72.012 E25.92005
G1 X84.201 Y72.012 E26.00554
G1 X86.746 Y74.557 E26.24736
G1 X86.746 Y73.285 E26.33285
G1 X85.474 Y72.012 E26.45377
G1 X86.746 Y72.012 E26.53928
G1 X84.608 Y87.690 F15600.000
G1 X73.254 Y76.335 F2160.000 E27.61810
G1 X73.254 Y77.607 E27.70359
G1 X83.336 Y87.690 E28.66151
G1 X82.063 Y87.690 E28.74700
G1 X73.254 Y78.880 E29.58401
G1 X73.254 Y80.152 E29.66950
G1 X81.064 Y87.962 E30.41153
G1 X80.229 Y88.400 E30.47484
G1 X73.254 Y81.425 E31.13758
G1 X73.254 Y82.697 E31.22307
G1 X79.395 Y88.838 E31.80652
G1 X78.587 Y89.303 E31.86913
G1 X73.254 Y83.970 E32.37584
G1 X73.254 Y85.242 E32.46133
G1 X78.067 Y90.056 E32.91867
G1 X77.548 Y90.809 E32.98012
G1 X73.254 Y86.515 E33.38809
G1 X73.254 Y87.788 E33.47358
G1 X77.028 Y91.562 E33.83218
G1 X76.677 Y92.483 E33.89842
G1 X73.254 Y89.060 E34.22365
G1 X73.254 Y90.333 E34.30914
G1 X76.539 Y93.618 E34.62128
G1 X76.401 Y94.753 E34.69807
G1 X73.254 Y91.605 E34.99711
G1 X73.254 Y92.878 E35.08261
G1 X76.744 Y96.367 E35.41419
G1 X77.072 Y97.968 E35.52393
G1 X73.254 Y94.150 E35.88666
G1 X73.254 Y95.423 E35.97215
G1 X75.799 Y97.968 E36.21397
G1 X74.527 Y97.968 E36.29946
G1 X73.254 Y96.695 E36.42039
G1 X73.254 Y97.968 E36.50589
G1 X81.705 Y99.198 F15600.000
G1 X82.525 Y99.399 F720.000 E36.53344
G1 X82.880 Y99.754 E36.54985
G1 X83.308 Y99.563 E36.56514
G1 X83.498 Y99.754 E36.57394
G1 X83.804 Y99.441 E36.58822
G1 X84.117 Y99.754 E36.60267
G1 X84.468 Y99.487 E36.61708
G1 X84.300 Y99.319 E36.62486
G1 X84.796 Y99.197 E36.64155
G1 X87.773 Y96.559 F15600.000
G1 X88.123 Y96.250 F720.000 E36.65777
G1 X87.954 Y96.081 E36.66605
G1 X88.135 Y95.604 E36.68381
G1 X88.472 Y95.940 E36.70036
G1 X88.532 Y95.342 E36.72126
G1 X88.317 Y95.126 E36.73188
G1 X88.532 Y94.683 E36.74901
G1 X88.258 Y94.409 E36.76253
G1 X88.532 Y94.025 E36.77895
G1 X88.167 Y93.659 E36.79694
G1 X88.532 Y93.366 E36.81324
G1 X88.076 Y92.909 E36.83570
G1 X88.532 Y92.707 E36.85307
M106 S255
M104 S220 ; set temperature
M140 S110 ; set bed temperature
G1 F1800.000 E35.45307
G92 E0
G1 Z-0.590 F15600.000
G1 X87.769 Y92.738
G1 F1800.000 E1.40000
G1 X88.048 Y95.035 F1630.010 E1.45775
G1 X87.228 Y97.198 E1.51550
G1 X85.496 Y98.732 E1.57324
G1 X83.250 Y99.285 E1.63099
G1 X81.004 Y98.732 E1.68874
G1 X79.272 Y97.198 E1.74649
G1 X78.452 Y95.035 E1.80424
G1 X78.731 Y92.738 E1.86199
G1 X80.045 Y90.835 E1.91973
G1 X82.093 Y89.760 E1.97748
G1 X84.407 Y89.760 E2.03523
G1 X86.455 Y90.835 E2.09298
G1 X87.723 Y92.672 E2.14871
G1 X87.250 Y92.935 F15600.000
G1 X87.496 Y94.968 F1630.010 E2.19982
G1 X86.770 Y96.882 E2.25093
G1 X85.238 Y98.240 E2.30204
G1 X83.250 Y98.730 E2.35316
G1 X81.262 Y98.240 E2.40427
G1 X79.730 Y96.882 E2.45538
G1 X79.004 Y94.968 E2.50650
G1 X79.250 Y92.935 E2.55761
G1 X80.413 Y91.250 E2.60872
G1 X82.226 Y90.299 E2.65983
G1 X84.274 Y90.299 E2.71094
G1 X86.087 Y91.250 E2.76206
G1 X87.204 Y92.869 E2.81115
G1 X87.773 Y93.064 F15600.000
G1 X88.095 Y96.432
G1 X88.377 Y96.484 F1630.010 E2.81832
G1 X88.377 Y99.604 E2.89621
G1 X85.325 Y99.604 E2.97242
G1 X87.685 Y97.513 E3.05113
G1 X88.066 Y96.508 E3.07797
G1 X88.224 Y92.448 F15600.000
G1 X86.823 Y90.419 F1630.010 E3.13952
G1 X84.540 Y89.220 E3.20391
G1 X81.960 Y89.220 E3.26830
G1 X79.677 Y90.419 E3.33268
G1 X78.212 Y92.541 E3.39706
G1 X77.901 Y95.102 E3.46145
G1 X78.815 Y97.513 E3.52583
G1 X81.175 Y99.604 E3.60454
G1 X71.623 Y99.604 E3.84302
G1 X71.623 Y70.396 E4.57217
G1 X88.377 Y70.396 E4.99043
G1 X88.377 Y92.400 E5.53974
G1 X88.301 Y92.424 E5.54174
G1 X88.917 Y100.143 F15600.000
G1 X71.083 Y100.143 F1630.010 E5.98692
G1 X71.083 Y69.857 E6.74300
G1 X88.917 Y69.857 E7.18818
G1 X88.917 Y100.062 E7.94224
G1 X89.162 Y100.683 F15600.000
G1 X70.838 Y100.683 F815.005 E8.39970
G1 X70.544 Y100.469 E8.40875
G1 X70.544 Y69.649 E9.17814
G1 X70.652 Y69.317 E9.18685
G1 X89.348 Y69.317 E9.65358
G1 X89.456 Y69.649 E9.66229
G1 X89.456 Y100.469 E10.43168
G1 X89.228 Y100.635 E10.43872
G1 X88.802 Y100.282 F15600.000
G1 X80.145 Y99.213
G1 X79.732 Y98.848 F3260.021 E10.45275
G1 X79.367 Y99.213 E10.46591
G1 X79.320 Y98.482 E10.48456
G1 X78.589 Y99.213 E10.51087
G1 X77.811 Y99.213 E10.53068
G1 X78.907 Y98.117 E10.57015
G1 X78.495 Y97.752 E10.58418
G1 X77.033 Y99.213 E10.63681
G1 X76.255 Y99.213 E10.65661
G1 X78.276 Y97.193 E10.72936
G1 X78.062 Y96.629 E10.74472
G1 X75.478 Y99.213 E10.83777
G1 X74.700 Y99.213 E10.85757
G1 X77.848 Y96.065 E10.97094
G1 X77.634 Y95.501 E10.98629
G1 X73.922 Y99.213 E11.11996
G1 X73.144 Y99.213 E11.13976
G1 X77.542 Y94.816 E11.29811
G1 X77.649 Y93.930 E11.32081
G1 X72.366 Y99.213 E11.51104
G1 X72.014 Y98.788 E11.52510
G1 X77.757 Y93.045 E11.73190
G1 X78.303 Y91.720 E11.76838
G1 X72.014 Y98.010 E11.99486
G1 X72.014 Y97.233 E12.01466
G1 X87.986 Y81.260 E12.58979
G1 X87.986 Y82.037 E12.60960
G1 X80.455 Y89.569 E12.88079
G1 X81.972 Y88.829 E12.92377
G1 X87.986 Y82.815 E13.14032
G1 X87.986 Y83.593 E13.16013
G1 X82.750 Y88.829 E13.34867
G1 X83.528 Y88.829 E13.36848
G1 X87.986 Y84.371 E13.52901
G1 X87.986 Y85.149 E13.54882
G1 X84.306 Y88.829 E13.68135
G1 X84.929 Y88.983 E13.69771
G1 X87.986 Y85.926 E13.80778
G1 X87.986 Y86.704 E13.82758
G1 X85.440 Y89.251 E13.91929
G1 X85.950 Y89.519 E13.93396
G1 X87.986 Y87.482 E14.00730
G1 X87.986 Y88.260 E14.02710
G1 X86.460 Y89.787 E14.08208
G1 X86.970 Y90.054 E14.09674
G1 X87.986 Y89.038 E14.13335
G1 X87.986 Y89.816 E14.15315
G1 X87.333 Y90.469 E14.17669
G1 X87.651 Y90.929 E14.19093
G1 X87.986 Y90.593 E14.20302
G1 X87.986 Y80.482 F15600.000
G1 X72.014 Y96.455 F3260.021 E14.77815
G1 X72.014 Y95.677 E14.79796
G1 X87.986 Y79.704 E15.37309
G1 X87.986 Y78.926 E15.39289
G1 X72.014 Y94.899 E15.96803
G1 X72.014 Y94.121 E15.98783
G1 X87.986 Y78.148 E16.56296
G1 X87.986 Y77.371 E16.58277
G1 X72.014 Y93.344 E17.15790
G1 X72.014 Y92.566 E17.17770
G1 X87.986 Y76.593 E17.75283
G1 X87.986 Y75.815 E17.77264
G1 X72.014 Y91.788 E18.34777
G1 X72.014 Y91.010 E18.36757
G1 X87.986 Y75.037 E18.94270
G1 X87.986 Y74.259 E18.96251
G1 X72.014 Y90.232 E19.53764
G1 X72.014 Y89.454 E19.55744
G1 X87.986 Y73.481 E20.13258
G1 X87.986 Y72.704 E20.15238
G1 X72.014 Y88.677 E20.72751
G1 X72.014 Y87.899 E20.74731
G1 X87.986 Y71.926 E21.32245
G1 X87.986 Y71.148 E21.34225
G1 X72.014 Y87.121 E21.91738
G1 X72.014 Y86.343 E21.93719
G1 X87.570 Y70.787 E22.49732
G1 X86.792 Y70.787 E22.51712
G1 X72.014 Y85.565 E23.04925
G1 X72.014 Y84.788 E23.06905
G1 X86.014 Y70.787 E23.57317
G1 X85.236 Y70.787 E23.59298
G1 X72.014 Y84.010 E24.06909
G1 X72.014 Y83.232 E24.08889
G1 X84.459 Y70.787 E24.53700
G1 X83.681 Y70.787 E24.55680
G1 X72.014 Y82.454 E24.97691
G1 X72.014 Y81.676 E24.99671
G1 X82.903 Y70.787 E25.38880
G1 X82.125 Y70.787 E25.40861
G1 X72.014 Y80.898 E25.77270
G1 X72.014 Y80.121 E25.79250
G1 X81.347 Y70.787 E26.12858
G1 X80.570 Y70.787 E26.14838
G1 X72.014 Y79.343 E26.45646
G1 X72.014 Y78.565 E26.47626
G1 X79.792 Y70.787 E26.75633
G1 X79.014 Y70.787 E26.77614
G1 X72.014 Y77.787 E27.02820
G1 X72.014 Y77.009 E27.04800
G1 X78.236 Y70.787 E27.27206
G1 X77.458 Y70.787 E27.29186
G1 X72.014 Y76.232 E27.48791
G1 X72.014 Y75.454 E27.50772
G1 X76.681 Y70.787 E27.67576
G1 X75.903 Y70.787 E27.69556
G1 X72.014 Y74.676 E27.83560
G1 X72.014 Y73.898 E27.85540
G1 X75.125 Y70.787 E27.96743
G1 X74.347 Y70.787 E27.98724
G1 X72.014 Y73.120 E28.07126
G1 X72.014 Y72.343 E28.09106
G1 X73.569 Y70.787 E28.14708
G1 X72.791 Y70.787 E28.16689
G1 X72.014 Y71.565 E28.19490
G1 X72.014 Y70.787 E28.21470
G1 F1800.000 E26.81470
G92 E0
G1 X82.246 Y99.599 F15600.000
G1 F1800.000 E1.40000
G1 X82.245 Y99.599 F1086.674 E1.40000
G1 X83.400 Y99.764 F15600.000
G1 X83.115 Y99.643 F1086.674 E1.40409
G1 X84.608 Y99.512 F15600.000
G1 X84.606 Y99.513 F1086.674 E1.40414
G1 X86.355 Y99.213 F15600.000
G1 X87.986 Y98.398 F3260.021 E1.45281
G1 X87.171 Y99.213 E1.48360
G1 X87.986 Y99.213 E1.50537
G1 X88.372 Y95.929 F15600.000
G1 X88.372 Y95.929 F1086.674 E1.50538
G1 X88.537 Y94.896 F15600.000
G1 X88.371 Y94.549 F1086.674 E1.51183
G1 X88.537 Y94.384 E1.51577
G1 X88.316 Y94.092 E1.52191
G1 X88.372 Y93.185 F15600.000
G1 X88.372 Y93.185 F1086.674 E1.52191
G1 F1800.000 E0.12191
G92 E0
G1 Z-0.280 F15600.000
G1 X87.808 Y93.060
G1 F1800.000 E1.40000
G1 X88.048 Y95.035 F1638.384 E1.44967
G1 X87.228 Y97.198 E1.50742
G1 X85.496 Y98.732 E1.56516
G1 X83.250 Y99.285 E1.62291
G1 X81.004 Y98.732 E1.68066
G1 X79.272 Y97.198 E1.73841
G1 X78.452 Y95.035 E1.79616
G1 X78.731 Y92.738 E1.85391
G1 X80.045 Y90.835 E1.91165
G1 X82.093 Y89.760 E1.96940
G1 X84.407 Y89.760 E2.02715
G1 X86.455 Y90.835 E2.08490
G1 X87.769 Y92.738 E2.14265
G1 X87.798 Y92.979 E2.14871
G1 X87.273 Y93.125 F15600.000
G1 X87.496 Y94.968 F1638.384 E2.19506
G1 X86.770 Y96.882 E2.24617
G1 X85.238 Y98.240 E2.29728
G1 X83.250 Y98.730 E2.34840
G1 X81.262 Y98.240 E2.39951
G1 X79.730 Y96.882 E2.45062
G1 X79.004 Y94.968 E2.50173
G1 X79.250 Y92.935 E2.55284
G1 X80.413 Y91.250 E2.60396
G1 X82.226 Y90.299 E2.65507
G1 X84.274 Y90.299 E2.70618
G1 X86.087 Y91.250 E2.75729
G1 X87.250 Y92.935 E2.80841
G1 X87.263 Y93.044 E2.81115
G1 X87.769 Y93.336 F15600.000
G1 X88.095 Y96.432
G1 X88.377 Y96.484 F1638.384 E2.81832
G1 X88.377 Y99.604 E2.89621
G1 X85.325 Y99.604 E2.97242
G1 X87.685 Y97.513 E3.05113
G1 X88.066 Y96.508 E3.07797
G1 X88.224 Y92.448 F15600.000
G1 X86.823 Y90.419 F1638.384 E3.13952
G1 X84.540 Y89.220 E3.20391
G1 X81.960 Y89.220 E3.26830
G1 X79.677 Y90.419 E3.33268
G1 X78.212 Y92.541 E3.39706
G1 X77.901 Y95.102 E3.46145
G1 X78.815 Y97.513 E3.52584
G1 X81.175 Y99.604 E3.60455
G1 X71.623 Y99.604 E3.84302
G1 X71.623 Y70.396 E4.57217
G1 X88.377 Y70.396 E4.99043
G1 X88.377 Y92.400 E5.53974
G1 X88.301 Y92.424 E5.54174
G1 X88.917 Y100.143 F15600.000
G1 X71.083 Y100.143 F1638.384 E5.98692
G1 X71.083 Y69.857 E6.74300
G1 X88.917 Y69.857 E7.18818
G1 X88.917 Y100.062 E7.94224
G1 X89.162 Y100.683 F15600.000
G1 X70.838 Y100.683 F819.192 E8.39970
G1 X70.544 Y100.469 E8.40875
G1 X70.544 Y69.649 E9.17814
G1 X70.652 Y69.317 E9.18685
G1 X89.348 Y69.317 E9.65358
G1 X89.456 Y69.649 E9.66230
G1 X89.456 Y100.469 E10.43168
G1 X89.228 Y100.635 E10.43872
G1 X88.802 Y100.282 F15600.000
G1 X87.986 Y90.690
G1 X72.014 Y74.717 F3276.767 E11.00475
G1 X72.014 Y73.951 E11.02393
G1 X87.986 Y89.924 E11.58996
G1 X87.986 Y89.159 F15600.000
G1 X72.014 Y73.186 F3276.767 E12.15598
G1 X72.014 Y72.420 E12.17517
G1 X87.986 Y88.393 E12.74119
G1 X87.986 Y87.628 E12.76038
G1 X72.014 Y71.655 E13.32640
G1 X72.014 Y70.889 E13.34559
G1 X87.986 Y86.862 E13.91162
G1 X87.986 Y86.097 E13.93080
G1 X72.676 Y70.787 E14.47334
G1 X73.442 Y70.787 E14.49252
G1 X87.986 Y85.331 E15.00793
G1 X87.986 Y84.566 E15.02711
G1 X74.207 Y70.787 E15.51540
G1 X74.973 Y70.787 E15.53458
G1 X87.986 Y83.800 E15.99574
G1 X87.986 Y83.035 E16.01493
G1 X75.738 Y70.787 E16.44896
G1 X76.504 Y70.787 E16.46814
G1 X87.986 Y82.269 E16.87505
G1 X87.986 Y81.504 E16.89423
G1 X77.269 Y70.787 E17.27401
G1 X78.035 Y70.787 E17.29319
G1 X87.986 Y80.738 E17.64584
G1 X87.986 Y79.973 E17.66502
