; generated by Slic3r 0.9.9 on 2013-06-24 at 15:45:57

; layer_height = 0.4
; perimeters = 3
; top_solid_layers = 3
; bottom_solid_layers = 3
; fill_density = 0.4
; perimeter_speed = 30
; infill_speed = 60
; travel_speed = 130
; nozzle_diameter = 0.5
; filament_diameter = 3
; extrusion_multiplier = 1
; perimeters extrusion width = 0.53mm
; infill extrusion width = 0.53mm
; solid infill extrusion width = 0.53mm
; top infill extrusion width = 0.53mm
; first layer extrusion width = 1.00mm

G21 ; set units to millimeters
M107
M190 S120 ; wait for bed temperature to be reached
M104 S240 ; set temperature
G28 ; home all axes
G1 Z5 F5000 ; lift nozzle
M109 S240 ; wait for temperature to be reached
G90 ; use absolute coordinates
G92 E0
M82 ; use absolute distances for extrusion
G1 F1800.000 E-1.00000
G92 E0
G1 Z-3.300 F7800.000
G1 X51.050 Y22.432
G1 F1800.000 E1.00000
G1 X51.320 Y21.872 F540.000 E1.03926
G1 X51.640 Y21.342 E1.07835
G1 X52.720 Y19.722 E1.20130
G1 X53.080 Y19.232 E1.23969
G1 X53.480 Y18.772 E1.27818
G1 X53.690 Y18.562 E1.29694
G1 X54.150 Y18.162 E1.33543
G1 X54.640 Y17.802 E1.37382
G1 X56.510 Y16.562 E1.51551
G1 X56.770 Y16.412 E1.53446
G1 X57.580 Y16.032 E1.59096
G1 X58.440 Y15.762 E1.64788
G1 X60.910 Y15.272 E1.80689
G1 X61.720 Y15.192 E1.85828
G1 X118.260 Y15.192 E5.42853
G1 X118.800 Y15.232 E5.46272
G1 X121.540 Y15.762 E5.63895
G1 X122.400 Y16.032 E5.69587
G1 X123.220 Y16.412 E5.75294
G1 X123.480 Y16.562 E5.77189
G1 X125.350 Y17.802 E5.91358
G1 X125.840 Y18.162 E5.95197
G1 X126.300 Y18.562 E5.99046
G1 X126.510 Y18.772 E6.00922
G1 X126.910 Y19.232 E6.04771
G1 X127.270 Y19.722 E6.08610
G1 X128.350 Y21.342 E6.20905
G1 X128.670 Y21.872 E6.24814
G1 X128.810 Y22.152 E6.26791
G1 X129.060 Y22.722 E6.30721
G1 X129.330 Y23.622 E6.36654
G1 X139.390 Y67.422 E9.20433
G1 X139.530 Y68.252 E9.25748
G1 X139.850 Y71.362 E9.45490
G1 X139.880 Y72.072 E9.49978
G1 X139.890 Y128.272 E13.04856
G1 X139.800 Y129.092 E13.10065
G1 X139.300 Y131.592 E13.26164
G1 X139.010 Y132.482 E13.32075
G1 X138.750 Y133.042 E13.35973
G1 X127.670 Y152.542 E14.77596
G1 X125.950 Y155.502 E14.99214
G1 X125.440 Y156.212 E15.04734
G1 X122.950 Y158.972 E15.28206
G1 X122.530 Y159.362 E15.31826
G1 X122.070 Y159.722 E15.35514
G1 X119.530 Y161.562 E15.55319
G1 X119.060 Y161.882 E15.58910
G1 X118.560 Y162.152 E15.62498
G1 X115.180 Y163.672 E15.85900
G1 X114.620 Y163.862 E15.89634
G1 X114.340 Y163.942 E15.91473
G1 X110.710 Y164.712 E16.14905
G1 X109.850 Y164.802 E16.20365
G1 X70.140 Y164.802 E18.71116
G1 X69.280 Y164.712 E18.76576
G1 X65.930 Y164.002 E18.98200
G1 X65.370 Y163.862 E19.01845
G1 X64.820 Y163.672 E19.05519
G1 X61.680 Y162.282 E19.27203
G1 X61.170 Y162.022 E19.30817
G1 X60.670 Y161.722 E19.34499
G1 X57.910 Y159.712 E19.56059
G1 X57.240 Y159.172 E19.61493
G1 X56.840 Y158.752 E19.65156
G1 X54.550 Y156.212 E19.86751
G1 X54.370 Y155.982 E19.88595
G1 X53.890 Y155.262 E19.94059
G1 X52.320 Y152.542 E20.13891
G1 X41.240 Y133.042 E21.55514
G1 X41.100 Y132.752 E21.57547
G1 X40.870 Y132.172 E21.61487
G1 X40.690 Y131.562 E21.65503
G1 X40.190 Y129.062 E21.81602
G1 X40.150 Y128.802 E21.83263
G1 X40.110 Y128.262 E21.86682
G1 X40.110 Y72.072 E25.41497
G1 X40.140 Y71.362 E25.45984
G1 X40.460 Y68.252 E25.65726
G1 X40.600 Y67.422 E25.71042
G1 X50.660 Y23.622 E28.54820
G1 X50.830 Y23.022 E28.58758
G1 X50.999 Y22.556 E28.61890
G1 F1800.000 E27.61890
G92 E0
G1 X69.767 Y137.111 F7800.000
G1 F1800.000 E1.00000
G1 X72.759 Y136.747 F540.000 E1.19036
G1 X75.578 Y137.816 E1.38073
G1 X77.577 Y140.073 E1.57108
G1 X78.299 Y143.000 E1.76145
G1 X77.577 Y145.927 E1.95181
G1 X75.578 Y148.184 E2.14217
G1 X72.759 Y149.253 E2.33254
G1 X69.767 Y148.889 E2.52290
G1 X67.286 Y147.177 E2.71326
G1 X65.884 Y144.507 E2.90362
G1 X65.884 Y141.493 E3.09400
G1 X67.286 Y138.823 E3.28436
G1 X69.656 Y137.187 E3.46627
G1 X70.093 Y137.970 F7800.000
G1 X72.648 Y137.660 F540.000 E3.62884
G1 X75.056 Y138.573 E3.79142
G1 X76.763 Y140.500 E3.95399
G1 X77.379 Y143.000 E4.11657
G1 X76.763 Y145.500 E4.27914
G1 X75.056 Y147.427 E4.44171
G1 X72.648 Y148.340 E4.60429
G1 X70.093 Y148.030 E4.76687
G1 X67.974 Y146.567 E4.92944
G1 X66.777 Y144.287 E5.09202
G1 X66.777 Y141.713 E5.25460
G1 X67.974 Y139.433 E5.41717
G1 X69.982 Y138.046 E5.57129
G1 X70.419 Y138.830 F7800.000
G1 X72.538 Y138.573 F540.000 E5.70608
G1 X74.533 Y139.330 E5.84087
G1 X75.949 Y140.927 E5.97565
G1 X76.460 Y143.000 E6.11044
G1 X75.949 Y145.073 E6.24523
G1 X74.533 Y146.670 E6.38001
G1 X72.538 Y147.427 E6.51481
G1 X70.419 Y147.170 E6.64959
G1 X68.662 Y145.957 E6.78438
G1 X67.670 Y144.067 E6.91916
G1 X67.670 Y141.933 E7.05396
G1 X68.662 Y140.043 E7.18875
G1 X70.308 Y138.906 E7.31508
G1 X70.632 Y137.963 F7800.000
G1 X74.232 Y130.232
G1 X74.232 Y112.622 F540.000 E8.42705
G1 X74.551 Y112.537 E8.44792
G1 X76.157 Y115.319 E8.65081
G1 X83.583 Y137.597 E10.13362
G1 X84.477 Y140.348 E10.31629
G1 X84.756 Y143.000 E10.48469
G1 X84.477 Y145.652 E10.65308
G1 X83.653 Y148.188 E10.82147
G1 X82.320 Y150.498 E10.98986
G1 X80.535 Y152.480 E11.15825
G1 X78.378 Y154.047 E11.32664
G1 X75.942 Y155.132 E11.49503
G1 X73.333 Y155.686 E11.66343
G1 X70.667 Y155.686 E11.83182
G1 X68.058 Y155.132 E12.00022
G1 X65.622 Y154.047 E12.16860
G1 X63.465 Y152.480 E12.33699
G1 X61.680 Y150.498 E12.50538
G1 X60.343 Y148.181 E12.67432
G1 X54.360 Y130.232 E13.86904
G1 X74.098 Y130.232 E15.11542
G1 X74.768 Y105.768 F7800.000
G1 X72.732 Y105.768 F540.000 E15.24402
G1 X72.732 Y95.275 E15.90661
G1 X73.927 Y96.073 E15.99735
G1 X74.517 Y96.957 E16.06448
G1 X74.768 Y98.220 E16.14576
G1 X74.768 Y105.634 E16.61395
G1 X72.500 Y107.500 F7800.000
G1 X72.500 Y128.500
G1 X51.500 Y128.500
G1 X51.500 Y107.500
G1 X51.268 Y105.768
G1 X49.232 Y105.768 F540.000 E16.74255
G1 X49.232 Y98.220 E17.21920
G1 X49.483 Y96.957 E17.30047
G1 X50.073 Y96.073 E17.36760
G1 X51.268 Y95.275 E17.45834
G1 X51.268 Y105.634 E18.11248
G1 X50.661 Y106.661 F7800.000
G1 X50.661 Y129.339 F540.000 E19.54450
G1 X73.339 Y129.339 E20.97652
G1 X73.339 Y106.661 E22.40854
G1 X71.839 Y106.661 E22.50326
G1 X71.839 Y94.333 E23.28170
G1 X73.391 Y94.642 E23.38161
G1 X74.570 Y95.430 E23.47116
G1 X75.358 Y96.609 E23.56072
G1 X75.661 Y98.132 E23.65876
G1 X75.661 Y112.674 E24.57702
G1 X76.976 Y114.951 E24.74306
G1 X84.431 Y137.318 E26.23180
G1 X85.355 Y140.161 E26.42061
G1 X85.654 Y143.000 E26.60085
G1 X85.355 Y145.839 E26.78110
G1 X84.473 Y148.553 E26.96133
G1 X83.046 Y151.025 E27.14158
G1 X81.136 Y153.147 E27.32182
G1 X78.827 Y154.824 E27.50206
G1 X76.219 Y155.985 E27.68230
G1 X73.427 Y156.579 E27.86254
G1 X70.573 Y156.579 E28.04278
G1 X67.781 Y155.985 E28.22303
G1 X65.173 Y154.824 E28.40326
G1 X62.864 Y153.147 E28.58350
G1 X60.954 Y151.025 E28.76374
G1 X59.524 Y148.549 E28.94431
G1 X53.895 Y131.661 E30.06840
G1 X52.132 Y131.661 E30.17973
G1 X50.609 Y131.358 E30.27777
G1 X49.430 Y130.570 E30.36732
G1 X48.642 Y129.391 E30.45688
G1 X48.339 Y127.868 E30.55492
G1 X48.339 Y98.132 E32.43263
G1 X48.642 Y96.609 E32.53067
G1 X49.430 Y95.430 E32.62023
G1 X50.609 Y94.642 E32.70978
G1 X52.161 Y94.333 E32.80969
G1 X52.161 Y106.661 E33.58813
G1 X50.795 Y106.661 E33.67440
G1 X51.554 Y107.554 F7800.000
G1 X51.554 Y128.446 F378.000 E34.99368
G1 X72.446 Y128.446 E36.31296
G1 X72.446 Y107.554 E37.63224
G1 X70.946 Y107.554 E37.72696
G1 X70.946 Y93.446 E38.61777
G1 X71.956 Y93.446 E38.68153
G1 X73.739 Y93.801 E38.79633
G1 X75.214 Y94.786 E38.90831
G1 X76.199 Y96.261 E39.02029
G1 X76.554 Y98.044 E39.13510
G1 X76.554 Y112.435 E40.04380
G1 X77.794 Y114.583 E40.20045
G1 X85.279 Y137.038 E41.69512
G1 X86.233 Y139.975 E41.89006
G1 X86.551 Y143.000 E42.08215
G1 X86.233 Y146.025 E42.27425
G1 X86.199 Y146.130 E42.28118
G1 X85.293 Y148.918 E42.46633
G1 X83.772 Y151.553 E42.65843
G1 X81.737 Y153.814 E42.85052
G1 X79.276 Y155.602 E43.04261
G1 X76.497 Y156.839 E43.23469
G1 X73.521 Y157.471 E43.42679
G1 X70.479 Y157.471 E43.61888
G1 X67.503 Y156.839 E43.81097
G1 X64.724 Y155.602 E44.00306
G1 X62.263 Y153.814 E44.19515
G1 X60.228 Y151.553 E44.38724
G1 X58.706 Y148.917 E44.57944
G1 X53.252 Y132.554 E45.66860
G1 X52.044 Y132.554 E45.74486
G1 X50.261 Y132.199 E45.85966
G1 X48.786 Y131.214 E45.97164
G1 X47.801 Y129.739 E46.08362
G1 X47.446 Y127.956 E46.19843
G1 X47.446 Y98.044 E48.08724
G1 X47.801 Y96.261 E48.20205
G1 X48.786 Y94.786 E48.31403
G1 X50.261 Y93.801 E48.42601
G1 X52.044 Y93.446 E48.54082
G1 X53.054 Y93.446 E48.60457
G1 X53.054 Y107.554 E49.49539
G1 X51.688 Y107.554 E49.58165
G1 X50.661 Y107.554 F7800.000
G1 X51.500 Y107.500
G1 X51.500 Y128.500
G1 X72.500 Y128.500
G1 X76.502 Y112.407
G1 X75.561 Y115.575
G1 X74.879 Y116.159 F1080.000 E49.63844
G1 X76.193 Y117.473 E49.75610
G1 X76.826 Y119.371 E49.88272
G1 X74.879 Y117.424 E50.05700
G1 X74.879 Y118.689 E50.13708
G1 X77.459 Y121.269 E50.36798
G1 X78.091 Y123.167 E50.49460
G1 X74.879 Y119.955 E50.78213
G1 X74.879 Y121.220 E50.86220
G1 X78.724 Y125.065 E51.20636
G1 X79.357 Y126.963 E51.33297
G1 X74.879 Y122.485 E51.73375
G1 X74.879 Y123.751 E51.81382
G1 X79.989 Y128.861 E52.27122
G1 X80.622 Y130.759 E52.39784
G1 X74.879 Y125.016 E52.91186
G1 X74.879 Y126.281 E52.99193
G1 X81.255 Y132.657 E53.56258
G1 X81.887 Y134.555 E53.68919
G1 X74.879 Y127.546 E54.31646
G1 X74.879 Y128.812 E54.39654
G1 X82.520 Y136.453 E55.08043
G1 X83.146 Y138.344 E55.20649
G1 X74.879 Y130.077 E55.94639
G1 X74.415 Y130.879 E56.00500
G1 X83.755 Y140.218 E56.84089
G1 X83.968 Y141.697 E56.93546
G1 X73.150 Y130.879 E57.90371
G1 X71.885 Y130.879 E57.98379
G1 X84.096 Y143.090 E59.07670
G1 X83.976 Y144.235 E59.14956
G1 X70.619 Y130.879 E60.34495
G1 X75.613 Y137.138 F7800.000
G1 X69.354 Y130.879 F1080.000 E60.90512
G1 X68.089 Y130.879 E60.98520
G1 X73.575 Y136.365 E61.47618
G1 X72.118 Y136.173 E61.56915
G1 X66.824 Y130.879 E62.04302
G1 X65.558 Y130.879 E62.12310
G1 X70.990 Y136.310 E62.60923
G1 X69.861 Y136.447 E62.68116
G1 X64.293 Y130.879 E63.17955
G1 X63.028 Y130.879 E63.25963
G1 X69.001 Y136.853 E63.79429
G1 X68.253 Y137.369 E63.85185
G1 X61.762 Y130.879 E64.43276
G1 X60.497 Y130.879 E64.51284
G1 X67.504 Y137.886 E65.13999
G1 X66.769 Y138.416 E65.19736
G1 X59.232 Y130.879 E65.87192
G1 X57.966 Y130.879 E65.95200
G1 X66.333 Y139.245 E66.70082
G1 X65.898 Y140.075 E66.76013
G1 X56.701 Y130.879 E67.58322
G1 X55.436 Y130.879 E67.66330
G1 X65.462 Y140.905 E68.56066
G1 X65.237 Y141.946 E68.62803
G1 X55.801 Y132.509 E69.47263
G1 X56.433 Y134.407 E69.59924
G1 X65.237 Y143.211 E70.38722
G1 X65.237 Y144.476 E70.46729
G1 X57.066 Y136.305 E71.19865
G1 X66.425 Y146.929 F7800.000
G1 X57.699 Y138.203 F1080.000 E71.97963
G1 X58.331 Y140.101 E72.10624
G1 X73.269 Y155.038 E73.44317
G1 X72.004 Y155.039 E73.52320
G1 X58.964 Y141.999 E74.69033
G1 X59.597 Y143.897 E74.81694
G1 X70.739 Y155.039 E75.81420
G1 X69.133 Y154.699 E75.91808
G1 X60.229 Y145.795 E76.71500
G1 X60.862 Y147.692 E76.84161
G1 X67.219 Y154.050 E77.41059
G1 X63.900 Y151.996 E77.65757
G1 X67.845 Y148.349 F7800.000
G1 X74.312 Y154.816 F1080.000 E78.23639
G1 X75.356 Y154.595 E78.30391
G1 X70.376 Y149.615 E78.74958
G1 X71.816 Y149.790 E78.84138
G1 X76.293 Y154.267 E79.24207
G1 X77.169 Y153.877 E79.30272
G1 X73.105 Y149.813 E79.66642
G1 X74.023 Y149.466 E79.72851
G1 X78.044 Y153.487 E80.08847
G1 X78.779 Y152.956 E80.14581
G1 X74.940 Y149.118 E80.48937
G1 X75.857 Y148.770 E80.55146
G1 X79.511 Y152.424 E80.87851
G1 X80.218 Y151.865 E80.93551
G1 X76.487 Y148.134 E81.26947
G1 X77.081 Y147.463 E81.32620
G1 X80.817 Y151.199 E81.66062
G1 X81.417 Y150.533 E81.71732
G1 X77.675 Y146.792 E82.05219
G1 X78.210 Y146.062 E82.10949
G1 X81.966 Y149.817 E82.44560
G1 X82.429 Y149.015 E82.50422
G1 X78.461 Y145.046 E82.85939
G1 X78.711 Y144.031 E82.92555
G1 X82.892 Y148.213 E83.29977
G1 X83.257 Y147.313 E83.36124
G1 X78.961 Y143.016 E83.74577
G1 X78.558 Y141.348 E83.85441
G1 X83.568 Y146.358 E84.30280
G1 X83.855 Y145.380 E84.36730
G1 X77.613 Y139.138 E84.92597
G1 X50.707 Y130.286 F7800.000
G1 X52.043 Y130.285 F360.000 E85.01526
G1 X52.473 Y130.715 E85.05585
G1 X53.380 Y130.286 E85.12294
G1 X49.715 Y129.293 F7800.000
G1 X49.715 Y127.965 F360.000 E85.21116
G1 X49.285 Y127.535 E85.25150
G1 X49.715 Y126.637 E85.31766
G1 X49.285 Y126.207 E85.35801
G1 X49.715 Y125.309 E85.42417
G1 X49.285 Y124.879 E85.46451
G1 X49.715 Y123.980 E85.53068
G1 X49.285 Y123.551 E85.57102
G1 X49.715 Y122.652 E85.63719
G1 X49.285 Y122.223 E85.67753
G1 X49.715 Y121.324 E85.74370
G1 X49.285 Y120.895 E85.78404
G1 X49.715 Y119.996 E85.85021
G1 X49.285 Y119.567 E85.89055
G1 X49.715 Y118.668 E85.95671
G1 X49.285 Y118.238 E85.99705
G1 X49.715 Y117.340 E86.06322
G1 X49.285 Y116.910 E86.10356
G1 X49.715 Y116.012 E86.16973
G1 X49.285 Y115.582 E86.21007
G1 X49.715 Y114.683 E86.27624
G1 X49.285 Y114.254 E86.31658
G1 X49.715 Y113.355 E86.38275
G1 X49.285 Y112.926 E86.42309
G1 X49.715 Y112.027 E86.48925
G1 X49.285 Y111.598 E86.52959
G1 X49.715 Y110.699 E86.59576
G1 X49.285 Y110.270 E86.63610
G1 X49.715 Y109.371 E86.70227
G1 X49.285 Y108.942 E86.74261
G1 X49.715 Y108.043 E86.80878
G1 X49.285 Y107.613 E86.84912
G1 X49.714 Y106.714 E86.91529
G1 X50.178 Y104.822 F7800.000
G1 X50.322 Y103.491 F360.000 E87.01409
G1 X50.178 Y103.347 E87.02912
G1 X50.322 Y102.016 E87.12790
G1 X50.178 Y101.872 E87.14293
G1 X50.322 Y100.540 E87.24172
G1 X50.178 Y100.396 E87.25674
G1 X50.322 Y99.065 E87.35553
G1 X50.178 Y98.921 E87.37056
G1 X50.322 Y97.590 E87.46935
G1 X47.841 Y96.333 F7800.000
G1 X51.500 Y128.500
G1 X72.500 Y128.500
G1 X72.500 Y107.500
G1 X73.678 Y104.822
G1 X73.822 Y103.519 F360.000 E87.56415
G1 X73.678 Y103.375 E87.57889
G1 X73.822 Y102.073 E87.67368
G1 X73.678 Y101.929 E87.68841
G1 X73.822 Y100.627 E87.78320
G1 X73.678 Y100.483 E87.79794
G1 X73.822 Y99.180 E87.89273
G1 X73.678 Y99.036 E87.90746
G1 X73.678 Y97.590 E88.01209
G1 X74.285 Y111.628 F7800.000
G1 X74.715 Y110.722 F360.000 E88.07909
G1 X74.285 Y110.292 E88.11966
G1 X74.715 Y109.386 E88.18665
G1 X74.285 Y108.957 E88.22722
G1 X74.715 Y108.050 E88.29421
G1 X74.285 Y107.621 E88.33478
G1 X74.714 Y106.714 E88.40178
G1 X75.178 Y115.687 F7800.000
G1 X75.178 Y115.687 F360.000 E88.40180
G1 F1800.000 E87.40180
G92 E0
G1 X79.445 Y94.974 F7800.000
G1 X103.510 Y82.802
G1 X113.286 Y76.259
G1 F1800.000 E1.00000
G1 X111.884 Y73.590 F540.000 E1.19036
G1 X111.884 Y70.575 E1.38074
G1 X113.286 Y67.905 E1.57110
G1 X115.767 Y66.193 E1.76146
G1 X118.759 Y65.830 E1.95182
G1 X121.578 Y66.899 E2.14219
G1 X123.577 Y69.155 E2.33255
G1 X124.144 Y71.455 E2.48213
G1 X124.299 Y72.082 E2.52291
G1 X123.577 Y75.009 E2.71328
G1 X121.578 Y77.266 E2.90364
G1 X118.759 Y78.335 E3.09400
G1 X115.767 Y77.971 E3.28436
G1 X113.396 Y76.335 E3.46627
G1 X113.974 Y75.649 F7800.000
G1 X112.777 Y73.370 F540.000 E3.62884
G1 X112.777 Y70.795 E3.79143
G1 X113.974 Y68.515 E3.95400
G1 X116.093 Y67.053 E4.11658
G1 X118.648 Y66.742 E4.27915
G1 X121.056 Y67.655 E4.44173
G1 X122.763 Y69.582 E4.60430
G1 X123.277 Y71.669 E4.73999
G1 X123.379 Y72.082 E4.76688
G1 X122.763 Y74.582 E4.92945
G1 X121.056 Y76.509 E5.09202
G1 X118.648 Y77.422 E5.25460
G1 X116.093 Y77.112 E5.41717
G1 X114.084 Y75.725 E5.57129
G1 X114.662 Y75.040 F7800.000
G1 X113.670 Y73.150 F540.000 E5.70608
G1 X113.670 Y71.015 E5.84088
G1 X114.662 Y69.125 E5.97566
G1 X116.419 Y67.912 E6.11045
G1 X118.538 Y67.655 E6.24523
G1 X120.533 Y68.412 E6.38003
G1 X121.949 Y70.010 E6.51481
G1 X122.410 Y71.882 E6.63661
G1 X122.460 Y72.082 E6.64960
G1 X121.949 Y74.155 E6.78439
G1 X120.533 Y75.752 E6.91917
G1 X118.538 Y76.509 E7.05396
G1 X116.419 Y76.252 E7.18875
G1 X114.772 Y75.116 E7.31508
G1 X113.776 Y75.147 F7800.000
G1 X107.680 Y79.580
G1 X106.343 Y77.263 F540.000 E7.48401
G1 X100.360 Y59.314 E8.67873
G1 X120.232 Y59.314 E9.93357
G1 X120.232 Y41.704 E11.04555
G1 X120.551 Y41.619 E11.06641
G1 X122.157 Y44.401 E11.26930
G1 X129.583 Y66.679 E12.75212
G1 X130.477 Y69.430 E12.93479
G1 X130.756 Y72.082 E13.10318
G1 X130.477 Y74.734 E13.27158
G1 X129.653 Y77.270 E13.43996
G1 X128.320 Y79.580 E13.60836
G1 X126.535 Y81.562 E13.77675
G1 X124.378 Y83.129 E13.94514
G1 X121.942 Y84.214 E14.11353
G1 X119.333 Y84.768 E14.28193
G1 X116.667 Y84.768 E14.45031
G1 X114.058 Y84.214 E14.61871
G1 X111.622 Y83.129 E14.78710
