; generated by Slic3r 0.9.9 on 2013-07-10 at 22:33:05

; layer_height = 0.31
; perimeters = 3
; top_solid_layers = 3
; bottom_solid_layers = 3
; fill_density = 0.4
; perimeter_speed = 60
; infill_speed = 120
; travel_speed = 260
; nozzle_diameter = 0.5
; filament_diameter = 2.92
; extrusion_multiplier = 1
; perimeters extrusion width = 0.55mm
; infill extrusion width = 0.55mm
; solid infill extrusion width = 0.55mm
; top infill extrusion width = 0.55mm
; support material extrusion width = 0.55mm
; first layer extrusion width = 1.00mm

G21 ; set units to millimeters
M190 S115 ; wait for bed temperature to be reached
M104 S230 ; set temperature
G28 ; home all axes
G1 Z5 F5000 ; lift nozzle
M109 S230 ; wait for temperature to be reached
G90 ; use absolute coordinates
G92 E0
M82 ; use absolute distances for extrusion
G1 F1800.000 E-1.40000
G92 E0
G1 Z-0.900 F15600.000
G1 X70.267 Y66.636
G1 F1800.000 E1.40000
G1 X70.647 Y66.256 F1080.000 E1.43582
G1 X71.067 Y65.896 E1.47269
G1 X71.507 Y65.586 E1.50857
G1 X71.968 Y65.296 E1.54481
G1 X72.457 Y65.056 E1.58118
G1 X72.957 Y64.846 E1.61732
G1 X73.477 Y64.686 E1.65359
G1 X73.998 Y64.556 E1.68931
G1 X74.537 Y64.476 E1.72570
G1 X75.078 Y64.436 E1.76179
G1 X83.778 Y64.136 E2.34202
G1 X84.317 Y64.136 E2.37801
G1 X84.587 Y64.156 E2.39605
G1 X85.127 Y64.226 E2.43235
G1 X85.657 Y64.326 E2.46830
G1 X86.427 Y64.566 E2.52205
G1 X86.927 Y64.776 E2.55820
G1 X87.407 Y65.026 E2.59427
G1 X87.637 Y65.156 E2.61188
G1 X88.088 Y65.466 E2.64831
G1 X88.507 Y65.796 E2.68391
G1 X88.907 Y66.166 E2.72023
G1 X89.438 Y66.766 E2.77359
G1 X89.757 Y67.206 E2.80985
G1 X90.037 Y67.666 E2.84574
G1 X90.167 Y67.906 E2.86393
G1 X90.387 Y68.396 E2.89974
G1 X90.657 Y69.156 E2.95349
G1 X90.778 Y69.686 E2.98971
G1 X90.867 Y70.216 E3.02555
G1 X90.907 Y70.756 E3.06164
G1 X90.907 Y99.236 E4.95991
G1 X90.867 Y99.776 E4.99600
G1 X90.778 Y100.306 E5.03184
G1 X90.657 Y100.836 E5.06806
G1 X90.387 Y101.596 E5.12181
G1 X90.167 Y102.086 E5.15762
G1 X90.037 Y102.326 E5.17581
G1 X89.757 Y102.786 E5.21170
G1 X89.438 Y103.226 E5.24796
G1 X88.907 Y103.826 E5.30132
G1 X88.507 Y104.196 E5.33764
G1 X88.088 Y104.526 E5.37324
G1 X87.637 Y104.836 E5.40967
G1 X87.167 Y105.096 E5.44547
G1 X86.677 Y105.326 E5.48155
G1 X86.177 Y105.516 E5.51720
G1 X85.657 Y105.666 E5.55327
G1 X84.857 Y105.806 E5.60740
G1 X76.157 Y106.876 E6.19165
G1 X75.617 Y106.926 E6.22780
G1 X75.078 Y106.926 E6.26379
G1 X74.537 Y106.886 E6.29988
G1 X73.998 Y106.806 E6.33627
G1 X73.207 Y106.596 E6.39075
G1 X72.697 Y106.416 E6.42680
G1 X72.447 Y106.306 E6.44501
G1 X71.727 Y105.926 E6.49927
G1 X71.278 Y105.626 E6.53532
G1 X70.858 Y105.286 E6.57134
G1 X70.647 Y105.106 E6.58977
G1 X70.267 Y104.726 E6.62559
G1 X69.907 Y104.316 E6.66196
G1 X69.597 Y103.876 E6.69783
G1 X69.307 Y103.416 E6.73408
G1 X68.947 Y102.676 E6.78893
G1 X68.688 Y101.916 E6.84247
G1 X68.558 Y101.386 E6.87884
G1 X68.507 Y101.116 E6.89714
G1 X68.427 Y100.306 E6.95139
G1 X68.427 Y71.056 E8.90099
G1 X68.507 Y70.246 E8.95524
G1 X68.558 Y69.976 E8.97355
G1 X68.688 Y69.446 E9.00992
G1 X68.957 Y68.676 E9.06431
G1 X69.177 Y68.186 E9.10011
G1 X69.447 Y67.716 E9.13624
G1 X69.748 Y67.266 E9.17228
G1 X70.178 Y66.735 E9.21782
G1 F1800.000 E7.81782
G92 E0
G1 X63.635 Y60.580 F15600.000
G1 F1800.000 E1.40000
G1 X64.033 Y60.160 F1080.000 E1.43858
G1 X64.557 Y59.655 E1.48708
G1 X65.367 Y58.954 E1.55849
G1 X66.169 Y58.356 E1.62517
G1 X66.893 Y57.873 E1.68321
G1 X67.466 Y57.522 E1.72800
G1 X67.775 Y57.351 E1.75150
G1 X68.642 Y56.926 E1.81588
G1 X69.803 Y56.435 E1.89987
G1 X70.917 Y56.077 E1.97787
G1 X71.635 Y55.884 E2.02740
G1 X72.494 Y55.700 E2.08603
G1 X73.393 Y55.567 E2.14656
G1 X74.675 Y55.464 E2.23226
G1 X83.550 Y55.158 E2.82417
G1 X84.493 Y55.155 E2.88703
G1 X85.338 Y55.206 E2.94345
G1 X86.544 Y55.357 E3.02449
G1 X87.479 Y55.530 E3.08785
G1 X88.359 Y55.753 E3.14837
G1 X89.471 Y56.116 E3.22634
G1 X90.221 Y56.413 E3.28008
G1 X91.253 Y56.898 E3.35612
G1 X92.187 Y57.411 E3.42718
G1 X92.874 Y57.849 E3.48147
G1 X93.796 Y58.525 E3.55760
G1 X94.423 Y59.038 E3.61162
G1 X95.183 Y59.741 E3.68065
G1 X96.026 Y60.640 E3.76278
G1 X96.495 Y61.210 E3.81200
G1 X97.135 Y62.081 E3.88401
G1 X97.771 Y63.098 E3.96399
G1 X98.139 Y63.767 E4.01490
G1 X98.483 Y64.496 E4.06859
G1 X98.867 Y65.414 E4.13496
G1 X99.114 Y66.115 E4.18449
G1 X99.377 Y66.997 E4.24581
G1 X99.580 Y67.904 E4.30777
G1 X99.696 Y68.529 E4.35014
G1 X99.811 Y69.379 E4.40733
G1 X99.877 Y70.267 E4.46666
G1 X99.888 Y99.411 E6.40919
G1 X99.810 Y100.625 E6.49029
G1 X99.772 Y100.957 E6.51253
G1 X99.589 Y102.043 E6.58594
G1 X99.377 Y102.995 E6.65092
G1 X99.114 Y103.876 E6.71224
G1 X98.867 Y104.577 E6.76177
G1 X98.483 Y105.496 E6.82815
G1 X98.139 Y106.224 E6.88183
G1 X97.771 Y106.893 E6.93275
G1 X97.135 Y107.911 E7.01272
G1 X96.396 Y108.905 E7.09529
G1 X95.829 Y109.570 E7.15351
G1 X95.183 Y110.251 E7.21607
G1 X94.423 Y110.954 E7.28510
G1 X93.796 Y111.467 E7.33912
G1 X92.874 Y112.142 E7.41525
G1 X92.187 Y112.580 E7.46955
G1 X91.377 Y113.029 E7.53134
G1 X90.651 Y113.389 E7.58532
G1 X89.547 Y113.847 E7.66497
G1 X88.478 Y114.204 E7.74010
G1 X87.479 Y114.462 E7.80887
G1 X86.724 Y114.604 E7.86011
G1 X86.012 Y114.712 E7.90809
G1 X80.399 Y115.402 E8.28503
G1 X79.413 Y116.252 E8.37177
G1 X74.745 Y115.906 E8.68375
G1 X70.065 Y115.906 E8.99573
G1 X68.560 Y114.402 E9.13753
G1 X67.238 Y113.707 E9.23713
G1 X66.168 Y113.015 E9.32204
G1 X65.816 Y112.759 E9.35105
G1 X65.155 Y112.224 E9.40773
G1 X64.426 Y111.585 E9.47236
G1 X63.676 Y110.826 E9.54348
G1 X62.966 Y110.017 E9.61524
G1 X62.756 Y109.751 E9.63781
G1 X62.368 Y109.214 E9.68194
G1 X61.885 Y108.490 E9.73998
G1 X61.574 Y107.983 E9.77959
G1 X61.226 Y107.351 E9.82770
G1 X60.869 Y106.614 E9.88228
G1 X60.553 Y105.871 E9.93607
G1 X60.217 Y104.923 E10.00312
G1 X60.021 Y104.272 E10.04843
G1 X59.784 Y103.304 E10.11488
G1 X59.646 Y102.582 E10.16387
G1 X59.512 Y101.481 E10.23781
G1 X59.458 Y100.794 E10.28371
G1 X59.458 Y70.567 E12.29845
G1 X59.601 Y69.083 E12.39780
G1 X59.784 Y68.057 E12.46727
G1 X60.021 Y67.089 E12.53371
G1 X60.217 Y66.438 E12.57903
G1 X60.642 Y65.282 E12.66113
G1 X60.907 Y64.662 E12.70606
G1 X61.226 Y64.010 E12.75442
G1 X61.574 Y63.378 E12.80252
G1 X61.885 Y62.872 E12.84214
G1 X62.555 Y61.886 E12.92158
G1 X63.185 Y61.089 E12.98932
G1 X63.545 Y60.680 E13.02562
G1 X64.294 Y61.182 F15600.000
G1 X64.672 Y60.783 F1080.000 E13.06222
G1 X65.163 Y60.311 E13.10763
G1 X65.934 Y59.643 E13.17563
G1 X66.583 Y59.156 E13.22971
G1 X66.988 Y58.878 E13.26242
G1 X67.915 Y58.294 E13.33546
G1 X69.021 Y57.734 E13.41815
G1 X70.117 Y57.271 E13.49743
G1 X71.172 Y56.933 E13.57124
G1 X71.843 Y56.752 E13.61758
G1 X72.643 Y56.580 E13.67211
G1 X73.508 Y56.452 E13.73037
G1 X74.714 Y56.355 E13.81105
G1 X83.573 Y56.050 E14.40185
G1 X84.476 Y56.048 E14.46208
G1 X85.264 Y56.096 E14.51465
G1 X86.404 Y56.239 E14.59125
G1 X87.299 Y56.404 E14.65192
G1 X88.287 Y56.662 E14.71998
G1 X89.169 Y56.956 E14.78195
G1 X89.868 Y57.233 E14.83207
G1 X90.847 Y57.693 E14.90419
G1 X91.736 Y58.182 E14.97177
G1 X92.377 Y58.591 E15.02248
G1 X93.249 Y59.231 E15.09458
G1 X93.835 Y59.709 E15.14495
G1 X94.560 Y60.380 E15.21081
G1 X95.354 Y61.229 E15.28829
G1 X95.794 Y61.763 E15.33441
G1 X96.402 Y62.591 E15.40289
G1 X97.002 Y63.553 E15.47846
G1 X97.347 Y64.179 E15.52613
G1 X97.667 Y64.858 E15.57616
G1 X98.035 Y65.736 E15.63959
G1 X98.265 Y66.393 E15.68596
G1 X98.510 Y67.210 E15.74286
G1 X98.705 Y68.081 E15.80231
G1 X98.815 Y68.669 E15.84221
G1 X98.922 Y69.462 E15.89550
G1 X98.985 Y70.317 E15.95265
G1 X98.995 Y99.394 E17.89077
G1 X98.887 Y100.838 E17.98729
G1 X98.713 Y101.871 E18.05706
G1 X98.510 Y102.781 E18.11923
G1 X98.265 Y103.599 E18.17613
G1 X98.035 Y104.255 E18.22251
G1 X97.667 Y105.133 E18.28593
G1 X97.347 Y105.812 E18.33596
G1 X97.002 Y106.439 E18.38363
G1 X96.402 Y107.400 E18.45920
G1 X95.705 Y108.340 E18.53717
G1 X95.159 Y108.980 E18.59328
G1 X94.560 Y109.612 E18.65127
G1 X93.835 Y110.283 E18.71714
G1 X93.249 Y110.761 E18.76751
G1 X92.377 Y111.401 E18.83961
G1 X91.736 Y111.810 E18.89031
G1 X90.958 Y112.241 E18.94960
G1 X90.281 Y112.576 E18.99992
G1 X89.238 Y113.010 E19.07526
G1 X88.223 Y113.348 E19.14654
G1 X87.299 Y113.587 E19.21017
G1 X86.564 Y113.726 E19.25999
G1 X85.897 Y113.827 E19.30495
G1 X80.021 Y114.549 E19.69958
G1 X79.110 Y115.335 E19.77972
G1 X74.778 Y115.014 E20.06926
G1 X70.434 Y115.014 E20.35879
G1 X69.081 Y113.660 E20.48635
G1 X68.528 Y113.388 E20.52747
G1 X67.683 Y112.933 E20.59143
G1 X66.675 Y112.280 E20.67149
G1 X66.360 Y112.051 E20.69745
G1 X65.722 Y111.534 E20.75218
G1 X65.045 Y110.941 E20.81214
G1 X64.331 Y110.220 E20.87976
G1 X63.467 Y109.211 E20.96829
G1 X63.102 Y108.706 E21.00987
G1 X62.636 Y108.008 E21.06578
G1 X62.343 Y107.529 E21.10326
G1 X62.016 Y106.936 E21.14839
G1 X61.683 Y106.248 E21.19931
G1 X61.388 Y105.555 E21.24954
G1 X61.067 Y104.651 E21.31346
G1 X60.883 Y104.039 E21.35607
G1 X60.656 Y103.113 E21.41960
G1 X60.526 Y102.435 E21.46557
G1 X60.400 Y101.391 E21.53572
G1 X60.350 Y100.745 E21.57889
G1 X60.350 Y70.617 E23.58703
G1 X60.486 Y69.198 E23.68202
G1 X60.656 Y68.248 E23.74631
G1 X60.883 Y67.323 E23.80983
G1 X61.067 Y66.711 E23.85245
G1 X61.469 Y65.620 E23.92994
G1 X61.717 Y65.038 E23.97210
G1 X62.016 Y64.426 E24.01749
G1 X62.343 Y63.833 E24.06262
G1 X62.636 Y63.353 E24.10010
G1 X63.270 Y62.421 E24.17520
G1 X63.872 Y61.660 E24.23993
G1 X64.205 Y61.282 E24.27350
G1 X64.954 Y61.784 F15600.000
G1 X65.311 Y61.407 F1080.000 E24.30811
G1 X65.768 Y60.966 E24.35044
G1 X66.502 Y60.333 E24.41502
G1 X67.487 Y59.619 E24.49613
G1 X68.363 Y59.066 E24.56516
G1 X69.401 Y58.542 E24.64270
G1 X70.432 Y58.106 E24.71726
G1 X71.427 Y57.789 E24.78688
G1 X72.052 Y57.620 E24.83002
G1 X72.791 Y57.461 E24.88045
G1 X73.622 Y57.338 E24.93644
G1 X74.754 Y57.247 E25.01209
G1 X83.596 Y56.942 E25.60180
G1 X84.460 Y56.940 E25.65939
G1 X85.189 Y56.985 E25.70811
G1 X86.264 Y57.120 E25.78027
G1 X87.119 Y57.279 E25.83824
G1 X88.025 Y57.515 E25.90066
G1 X88.867 Y57.796 E25.95983
G1 X89.515 Y58.053 E26.00633
G1 X90.442 Y58.488 E26.07453
G1 X91.284 Y58.952 E26.13863
G1 X91.880 Y59.332 E26.18575
G1 X92.703 Y59.937 E26.25381
G1 X93.246 Y60.380 E26.30054
G1 X93.937 Y61.019 E26.36324
G1 X94.683 Y61.817 E26.43607
G1 X95.093 Y62.316 E26.47908
G1 X95.669 Y63.101 E26.54404
G1 X96.234 Y64.007 E26.61520
G1 X96.555 Y64.592 E26.65963
G1 X96.852 Y65.221 E26.70601
G1 X97.202 Y66.058 E26.76648
G1 X97.417 Y66.670 E26.80969
G1 X97.643 Y67.424 E26.86218
G1 X97.933 Y68.810 E26.95654
G1 X98.033 Y69.544 E27.00593
G1 X98.094 Y70.366 E27.06089
G1 X98.103 Y99.378 E28.99462
G1 X98.002 Y100.720 E29.08432
G1 X97.837 Y101.699 E29.15046
G1 X97.643 Y102.568 E29.20981
G1 X97.417 Y103.322 E29.26230
G1 X97.202 Y103.934 E29.30551
G1 X96.852 Y104.770 E29.36598
G1 X96.555 Y105.400 E29.41236
G1 X96.234 Y105.984 E29.45679
G1 X95.669 Y106.890 E29.52795
G1 X95.014 Y107.775 E29.60132
G1 X94.488 Y108.391 E29.65532
G1 X93.937 Y108.972 E29.70875
G1 X93.246 Y109.611 E29.77144
G1 X92.703 Y110.055 E29.81817
G1 X91.880 Y110.659 E29.88623
G1 X91.284 Y111.040 E29.93335
G1 X90.442 Y111.503 E29.99745
G1 X89.912 Y111.764 E30.03680
G1 X88.928 Y112.173 E30.10783
G1 X87.968 Y112.493 E30.17526
G1 X87.119 Y112.713 E30.23374
G1 X85.783 Y112.941 E30.32407
G1 X79.643 Y113.696 E30.73638
G1 X78.808 Y114.417 E30.80993
G1 X74.811 Y114.121 E31.07702
G1 X70.804 Y114.121 E31.34411
G1 X69.595 Y112.911 E31.45812
G1 X68.836 Y112.542 E31.51435
G1 X67.836 Y111.981 E31.59077
G1 X66.904 Y111.342 E31.66611
G1 X66.216 Y110.784 E31.72516
G1 X65.664 Y110.298 E31.77417
G1 X64.987 Y109.614 E31.83831
G1 X64.179 Y108.672 E31.92105
G1 X63.836 Y108.197 E31.96010
G1 X63.388 Y107.526 E32.01387
G1 X63.111 Y107.074 E32.04921
G1 X62.806 Y106.520 E32.09137
G1 X62.497 Y105.882 E32.13863
G1 X62.223 Y105.238 E32.18529
G1 X61.967 Y104.528 E32.23559
G1 X61.744 Y103.805 E32.28600
G1 X61.528 Y102.922 E32.34661
G1 X61.407 Y102.289 E32.38955
G1 X61.288 Y101.300 E32.45593
G1 X61.241 Y100.695 E32.49636
G1 X61.241 Y70.666 E34.49790
G1 X61.372 Y69.313 E34.58853
G1 X61.528 Y68.440 E34.64763
G1 X61.744 Y67.556 E34.70824
G1 X61.917 Y66.983 E34.74815
G1 X62.295 Y65.957 E34.82103
G1 X62.527 Y65.414 E34.86042
G1 X62.806 Y64.841 E34.90285
G1 X63.111 Y64.287 E34.94501
G1 X63.388 Y63.835 E34.98035
G1 X63.984 Y62.957 E35.05111
G1 X64.558 Y62.230 E35.11283
G1 X64.864 Y61.883 E35.14367
G1 X65.614 Y62.385 F15600.000
G1 X65.950 Y62.030 F1080.000 E35.17629
G1 X66.374 Y61.622 E35.21553
G1 X67.069 Y61.022 E35.27671
G1 X67.986 Y60.359 E35.35214
G1 X68.811 Y59.839 E35.41717
G1 X69.781 Y59.350 E35.48955
G1 X70.746 Y58.942 E35.55939
G1 X71.682 Y58.644 E35.62483
G1 X72.260 Y58.488 E35.66477
G1 X72.940 Y58.341 E35.71110
G1 X73.737 Y58.223 E35.76482
G1 X74.793 Y58.139 E35.83545
G1 X83.619 Y57.835 E36.42405
G1 X84.443 Y57.833 E36.47900
G1 X85.115 Y57.875 E36.52388
G1 X86.123 Y58.002 E36.59160
G1 X86.939 Y58.153 E36.64688
G1 X87.763 Y58.369 E36.70364
G1 X88.565 Y58.636 E36.76002
G1 X89.542 Y59.041 E36.83051
G1 X90.036 Y59.283 E36.86718
G1 X90.833 Y59.722 E36.92780
G1 X91.383 Y60.074 E36.97133
G1 X92.157 Y60.643 E37.03536
G1 X92.658 Y61.052 E37.07843
G1 X93.313 Y61.658 E37.13797
G1 X94.012 Y62.406 E37.20616
G1 X94.483 Y62.988 E37.25607
G1 X94.937 Y63.612 E37.30749
G1 X95.466 Y64.462 E37.37424
G1 X95.763 Y65.004 E37.41544
G1 X96.036 Y65.584 E37.45816
G1 X96.369 Y66.380 E37.51567
G1 X96.568 Y66.947 E37.55573
G1 X96.776 Y67.637 E37.60381
G1 X97.051 Y68.950 E37.69319
G1 X97.144 Y69.626 E37.73868
G1 X97.202 Y70.416 E37.79145
G1 X97.210 Y99.361 E39.72078
G1 X97.117 Y100.602 E39.80368
G1 X96.961 Y101.526 E39.86618
G1 X96.776 Y102.354 E39.92271
G1 X96.568 Y103.045 E39.97079
G1 X96.369 Y103.612 E40.01084
G1 X96.036 Y104.408 E40.06836
G1 X95.763 Y104.988 E40.11108
G1 X95.466 Y105.530 E40.15227
G1 X94.937 Y106.380 E40.21902
G1 X94.323 Y107.209 E40.28780
G1 X93.818 Y107.802 E40.33969
G1 X93.313 Y108.333 E40.38854
G1 X92.658 Y108.940 E40.44807
G1 X92.157 Y109.349 E40.49115
G1 X91.383 Y109.917 E40.55518
G1 X90.833 Y110.269 E40.59871
G1 X90.036 Y110.708 E40.65933
G1 X89.542 Y110.951 E40.69600
G1 X88.618 Y111.336 E40.76272
G1 X87.713 Y111.637 E40.82630
G1 X86.939 Y111.838 E40.87963
G1 X85.669 Y112.056 E40.96553
G1 X79.266 Y112.843 E41.39552
G1 X78.505 Y113.499 E41.46248
G1 X74.844 Y113.228 E41.70712
G1 X71.174 Y113.228 E41.95176
G1 X70.108 Y112.162 E42.05229
G1 X69.255 Y111.754 E42.11530
G1 X68.320 Y111.231 E42.18667
G1 X67.448 Y110.634 E42.25714
G1 X66.792 Y110.102 E42.31341
G1 X66.283 Y109.655 E42.35858
G1 X65.643 Y109.008 E42.41923
G1 X64.890 Y108.132 E42.49619
G1 X64.140 Y107.044 E42.58431
G1 X63.807 Y106.493 E42.62724
G1 X63.532 Y105.978 E42.66615
G1 X63.057 Y104.921 E42.74338
G1 X62.810 Y104.235 E42.79195
G1 X62.606 Y103.571 E42.83826
G1 X62.400 Y102.730 E42.89595
G1 X62.288 Y102.142 E42.93587
G1 X62.177 Y101.210 E42.99847
G1 X62.133 Y100.646 E43.03616
G1 X62.133 Y70.716 E45.03110
G1 X62.257 Y69.427 E45.11737
G1 X62.400 Y68.631 E45.17129
G1 X62.606 Y67.790 E45.22898
G1 X62.767 Y67.256 E45.26620
G1 X63.122 Y66.295 E45.33445
G1 X63.337 Y65.789 E45.37109
G1 X63.596 Y65.257 E45.41055
G1 X63.879 Y64.742 E45.44973
G1 X64.140 Y64.317 E45.48293
G1 X64.699 Y63.492 E45.54936
G1 X65.245 Y62.801 E45.60807
G1 X65.524 Y62.485 E45.63618
G1 X66.273 Y62.987 F15600.000
G1 X66.980 Y62.278 F1080.000 E45.70294
G1 X67.636 Y61.711 E45.76071
G1 X68.485 Y61.099 E45.83047
G1 X69.260 Y60.611 E45.89150
G1 X70.160 Y60.157 E45.95871
G1 X71.061 Y59.778 E46.02384
G1 X72.020 Y59.476 E46.09090
G1 X72.896 Y59.258 E46.15102
G1 X73.852 Y59.108 E46.21550
G1 X74.833 Y59.031 E46.28110
G1 X83.642 Y58.727 E46.86861
G1 X84.427 Y58.726 E46.92092
G1 X85.041 Y58.765 E46.96196
G1 X85.983 Y58.884 E47.02523
G1 X86.759 Y59.028 E47.07781
G1 X87.501 Y59.222 E47.12893
G1 X88.263 Y59.476 E47.18251
G1 X89.173 Y59.853 E47.24814
G1 X89.630 Y60.079 E47.28213
G1 X90.381 Y60.492 E47.33927
G1 X90.886 Y60.815 E47.37921
G1 X91.611 Y61.349 E47.43920
G1 X92.069 Y61.723 E47.47864
G1 X92.690 Y62.297 E47.53501
G1 X93.340 Y62.994 E47.59854
G1 X93.768 Y63.522 E47.64381
G1 X94.316 Y64.289 E47.70666
G1 X94.759 Y65.024 E47.76383
G1 X95.044 Y65.562 E47.80445
G1 X95.536 Y66.701 E47.88717
